; G-Code generated by Simplify3D(R) Version 4.1.2
; May 3, 2020 at 6:26:57 PM
; Settings Summary
;   processName,Process1
;   applyToModels,BearingCap
;   profileName,X5X-ABSpro (modified)
;   profileVersion,2020-04-22 09:40:43
;   baseProfile,TRONXY X5S
;   printMaterial,PLA
;   printQuality,Medium
;   printExtruders,
;   extruderName,Primary Extruder
;   extruderToolheadNumber,0
;   extruderDiameter,0.4
;   extruderAutoWidth,0
;   extruderWidth,0.4
;   extrusionMultiplier,1.05
;   extruderUseRetract,1
;   extruderRetractionDistance,5
;   extruderExtraRestartDistance,-0.1
;   extruderRetractionZLift,0
;   extruderRetractionSpeed,4800
;   extruderUseCoasting,0
;   extruderCoastingDistance,0.2
;   extruderUseWipe,0
;   extruderWipeDistance,5
;   primaryExtruder,0
;   layerHeight,0.2
;   topSolidLayers,3
;   bottomSolidLayers,3
;   perimeterOutlines,5
;   printPerimetersInsideOut,0
;   startPointOption,2
;   startPointOriginX,0
;   startPointOriginY,0
;   sequentialIslands,0
;   spiralVaseMode,0
;   firstLayerHeightPercentage,120
;   firstLayerWidthPercentage,150
;   firstLayerUnderspeed,0.5
;   useRaft,0
;   raftExtruder,0
;   raftTopLayers,3
;   raftBaseLayers,2
;   raftOffset,0
;   raftSeparationDistance,0
;   raftTopInfill,100
;   aboveRaftSpeedMultiplier,0.3
;   useSkirt,1
;   skirtExtruder,0
;   skirtLayers,1
;   skirtOutlines,5
;   skirtOffset,0.15
;   usePrimePillar,0
;   primePillarExtruder,999
;   primePillarWidth,12
;   primePillarLocation,7
;   primePillarSpeedMultiplier,1
;   useOozeShield,0
;   oozeShieldExtruder,999
;   oozeShieldOffset,2
;   oozeShieldOutlines,1
;   oozeShieldSidewallShape,1
;   oozeShieldSidewallAngle,30
;   oozeShieldSpeedMultiplier,1
;   infillExtruder,0
;   internalInfillPattern,Rectilinear
;   externalInfillPattern,Rectilinear
;   infillPercentage,20
;   outlineOverlapPercentage,15
;   infillExtrusionWidthPercentage,100
;   minInfillLength,5
;   infillLayerInterval,1
;   internalInfillAngles,45,-45
;   overlapInternalInfillAngles,0
;   externalInfillAngles,45,-45
;   generateSupport,0
;   supportExtruder,0
;   supportInfillPercentage,30
;   supportExtraInflation,0
;   supportBaseLayers,0
;   denseSupportExtruder,0
;   denseSupportLayers,0
;   denseSupportInfillPercentage,70
;   supportLayerInterval,1
;   supportHorizontalPartOffset,0.3
;   supportUpperSeparationLayers,1
;   supportLowerSeparationLayers,1
;   supportType,0
;   supportGridSpacing,3
;   maxOverhangAngle,70
;   supportAngles,0
;   temperatureName,Primary Extruder,Heated Bed
;   temperatureNumber,0,0
;   temperatureSetpointCount,1,1
;   temperatureSetpointLayers,1,1
;   temperatureSetpointTemperatures,240,90
;   temperatureStabilizeAtStartup,1,1
;   temperatureHeatedBed,0,1
;   fanLayers,1
;   fanSpeeds,0
;   blipFanToFullPower,0
;   adjustSpeedForCooling,1
;   minSpeedLayerTime,15
;   minCoolingSpeedSlowdown,20
;   increaseFanForCooling,0
;   minFanLayerTime,45
;   maxCoolingFanSpeed,100
;   increaseFanForBridging,0
;   bridgingFanSpeed,100
;   use5D,1
;   relativeEdistances,0
;   allowEaxisZeroing,1
;   independentExtruderAxes,0
;   includeM10123,0
;   stickySupport,1
;   applyToolheadOffsets,0
;   gcodeXoffset,0
;   gcodeYoffset,0
;   gcodeZoffset,0
;   overrideMachineDefinition,1
;   machineTypeOverride,0
;   strokeXoverride,330
;   strokeYoverride,330
;   strokeZoverride,400
;   originOffsetXoverride,0
;   originOffsetYoverride,0
;   originOffsetZoverride,0
;   homeXdirOverride,-1
;   homeYdirOverride,-1
;   homeZdirOverride,-1
;   flipXoverride,1
;   flipYoverride,-1
;   flipZoverride,1
;   toolheadOffsets,0,0|0,0|0,0|0,0|0,0|0,0
;   overrideFirmwareConfiguration,1
;   firmwareTypeOverride,RepRap (Marlin/Repetier/Sprinter)
;   GPXconfigOverride,r2
;   baudRateOverride,250000
;   overridePrinterModels,1
;   printerModelsOverride
;   startingGcode,G28 ; home all axes,G1 Z0.2 F3000 ; get ready to prime,G92 E0 ; reset extrusion distance,G1 X100 E10 F600 ; prime nozzle
;   layerChangeGcode,
;   retractionGcode,
;   toolChangeGcode,
;   endingGcode,G28 X0 ; home x axis,M106 S0 ; turn off cooling fan,M104 S0 ; turn off extruder,M140 S0 ; turn off bed,M84 ; disable motors
;   exportFileFormat,gcode
;   celebration,0
;   celebrationSong,Funky Town
;   postProcessing,
;   defaultSpeed,3000
;   outlineUnderspeed,0.5
;   solidInfillUnderspeed,0.8
;   supportUnderspeed,0.8
;   rapidXYspeed,4800
;   rapidZspeed,1002
;   minBridgingArea,5
;   bridgingExtraInflation,2
;   bridgingExtrusionMultiplier,1
;   bridgingSpeedMultiplier,1
;   useFixedBridgingAngle,1
;   fixedBridgingAngle,0
;   applyBridgingToPerimeters,0
;   filamentDiameters,1.75|1.75|1.75|1.75|1.75|1.75
;   filamentPricesPerKg,46|46|46|46|46|46
;   filamentDensities,1.25|1.25|1.25|1.25|1.25|1.25
;   useMinPrintHeight,0
;   minPrintHeight,0
;   useMaxPrintHeight,0
;   maxPrintHeight,40
;   useDiaphragm,0
;   diaphragmLayerInterval,20
;   robustSlicing,1
;   mergeAllIntoSolid,0
;   onlyRetractWhenCrossingOutline,1
;   retractBetweenLayers,1
;   useRetractionMinTravel,0
;   retractionMinTravel,3
;   retractWhileWiping,0
;   onlyWipeOutlines,1
;   avoidCrossingOutline,0
;   maxMovementDetourFactor,3
;   toolChangeRetractionDistance,12
;   toolChangeExtraRestartDistance,-0.5
;   toolChangeRetractionSpeed,600
;   externalThinWallType,0
;   internalThinWallType,2
;   thinWallAllowedOverlapPercentage,10
;   singleExtrusionMinLength,1
;   singleExtrusionMinPrintingWidthPercentage,50
;   singleExtrusionMaxPrintingWidthPercentage,200
;   singleExtrusionEndpointExtension,0.2
;   horizontalSizeCompensation,0
G90
M82
M106 S0
M140 S90
M190 S90
M104 S240 T0
M109 S240 T0
G28 ; home all axes
G1 Z0.2 F3000 ; get ready to prime
G92 E0 ; reset extrusion distance
G1 X100 E10 F600 ; prime nozzle
; process Process1
; layer 1, Z = 0.240
T0
G92 E0.0000
G1 E-5.0000 F4800
; feature skirt
; tool H0.240 W0.600
G1 Z0.240 F1002
G1 X155.647 Y156.187 F4800
G1 E-0.1000 F4800
G92 E0.0000
G1 X156.187 Y155.647 E0.0480 F1500
G1 X156.286 Y155.557 E0.0564
G1 X157.375 Y154.657 E0.1452
G1 X157.520 Y154.551 E0.1565
G1 X158.731 Y153.783 E0.2466
G1 X158.888 Y153.696 E0.2579
G1 X160.186 Y153.086 E0.3481
G1 X160.352 Y153.020 E0.3593
G1 X161.696 Y152.583 E0.4482
G1 X161.826 Y152.548 E0.4566
G1 X162.571 Y152.381 E0.5046
G1 X162.703 Y152.358 E0.5131
G1 X164.081 Y152.184 E0.6004
G1 X164.215 Y152.173 E0.6088
G1 X164.977 Y152.149 E0.6568
G1 X165.112 Y152.151 E0.6652
G1 X166.522 Y152.240 E0.7540
G1 X166.699 Y152.263 E0.7653
G1 X168.109 Y152.531 E0.8555
G1 X168.282 Y152.576 E0.8667
G1 X169.626 Y153.013 E0.9555
G1 X169.752 Y153.060 E0.9640
G1 X170.452 Y153.363 E1.0119
G1 X170.572 Y153.422 E1.0204
G1 X171.790 Y154.092 E1.1078
G1 X171.905 Y154.162 E1.1162
G1 X172.535 Y154.590 E1.1641
G1 X172.643 Y154.671 E1.1725
G1 X173.714 Y155.557 E1.2599
G1 X173.813 Y155.647 E1.2684
G1 X174.353 Y156.187 E1.3163
G1 X174.443 Y156.286 E1.3248
G1 X175.329 Y157.357 E1.4122
G1 X175.410 Y157.465 E1.4206
G1 X175.825 Y158.076 E1.4671
G1 X175.873 Y158.152 E1.4727
G1 X176.250 Y158.789 E1.5193
G1 X176.313 Y158.908 E1.5277
G1 X176.914 Y160.186 E1.6165
G1 X176.980 Y160.352 E1.6277
G1 X177.417 Y161.696 E1.7166
G1 X177.453 Y161.826 E1.7250
G1 X177.619 Y162.570 E1.7730
G1 X177.642 Y162.703 E1.7814
G1 X177.819 Y164.104 E1.8702
G1 X177.830 Y164.282 E1.8814
G1 X177.830 Y165.718 E1.9717
G1 X177.819 Y165.896 E1.9829
G1 X177.642 Y167.297 E2.0717
G1 X177.619 Y167.430 E2.0801
G1 X177.452 Y168.174 E2.1281
G1 X177.417 Y168.304 E2.1365
G1 X176.988 Y169.626 E2.2239
G1 X176.940 Y169.752 E2.2324
G1 X176.637 Y170.451 E2.2803
G1 X176.578 Y170.572 E2.2887
G1 X175.908 Y171.790 E2.3761
G1 X175.838 Y171.905 E2.3846
G1 X175.410 Y172.535 E2.4325
G1 X175.329 Y172.643 E2.4409
G1 X174.443 Y173.714 E2.5283
G1 X174.353 Y173.813 E2.5368
G1 X173.813 Y174.353 E2.5847
G1 X173.714 Y174.443 E2.5932
G1 X172.643 Y175.329 E2.6806
G1 X172.535 Y175.410 E2.6890
G1 X171.923 Y175.826 E2.7355
G1 X171.847 Y175.874 E2.7412
G1 X171.210 Y176.250 E2.7877
G1 X171.092 Y176.313 E2.7961
G1 X169.814 Y176.915 E2.8849
G1 X169.647 Y176.980 E2.8962
G1 X168.304 Y177.417 E2.9850
G1 X168.174 Y177.452 E2.9934
G1 X167.430 Y177.619 E3.0414
G1 X167.297 Y177.642 E3.0498
G1 X165.918 Y177.816 E3.1372
G1 X165.784 Y177.827 E3.1456
G1 X165.045 Y177.850 E3.1921
G1 X164.955 Y177.850 E3.1978
G1 X164.216 Y177.827 E3.2443
G1 X164.082 Y177.816 E3.2527
G1 X162.703 Y177.642 E3.3401
G1 X162.570 Y177.619 E3.3485
G1 X161.826 Y177.453 E3.3965
G1 X161.696 Y177.417 E3.4050
G1 X160.352 Y176.980 E3.4938
G1 X160.186 Y176.914 E3.5050
G1 X158.908 Y176.313 E3.5938
G1 X158.789 Y176.250 E3.6023
G1 X158.152 Y175.873 E3.6488
G1 X158.076 Y175.825 E3.6544
G1 X157.465 Y175.410 E3.7009
G1 X157.357 Y175.329 E3.7094
G1 X156.268 Y174.428 E3.7982
G1 X156.138 Y174.306 E3.8095
G1 X155.156 Y173.260 E3.8996
G1 X155.042 Y173.122 E3.9109
G1 X154.212 Y171.979 E3.9997
G1 X154.138 Y171.867 E4.0081
G1 X153.750 Y171.211 E4.0560
G1 X153.687 Y171.092 E4.0645
G1 X153.086 Y169.814 E4.1533
G1 X153.020 Y169.648 E4.1645
G1 X152.583 Y168.304 E4.2534
G1 X152.547 Y168.174 E4.2618
G1 X152.381 Y167.429 E4.3098
G1 X152.358 Y167.297 E4.3182
G1 X152.184 Y165.919 E4.4055
G1 X152.173 Y165.785 E4.4140
G1 X152.150 Y165.045 E4.4605
G1 X152.150 Y164.955 E4.4662
G1 X152.173 Y164.215 E4.5127
G1 X152.184 Y164.081 E4.5212
G1 X152.358 Y162.703 E4.6085
G1 X152.381 Y162.571 E4.6169
G1 X152.548 Y161.826 E4.6649
G1 X152.583 Y161.696 E4.6734
G1 X153.020 Y160.352 E4.7622
G1 X153.086 Y160.186 E4.7735
G1 X153.687 Y158.908 E4.8622
G1 X153.750 Y158.789 E4.8707
G1 X154.126 Y158.152 E4.9172
G1 X154.174 Y158.077 E4.9228
G1 X154.590 Y157.465 E4.9693
G1 X154.671 Y157.357 E4.9778
G1 X155.557 Y156.286 E5.0651
G1 X155.647 Y156.187 E5.0736
G92 E0.0000
G1 E-5.0000 F4800
G1 X156.082 Y156.601 F4800
G1 E-0.1000 F4800
G92 E0.0000
G1 X156.601 Y156.082 E0.0462 F1500
G1 X156.680 Y156.010 E0.0529
G1 X157.743 Y155.131 E0.1396
G1 X157.857 Y155.048 E0.1485
G1 X159.036 Y154.299 E0.2363
G1 X159.160 Y154.231 E0.2452
G1 X160.424 Y153.636 E0.3330
G1 X160.556 Y153.584 E0.3419
G1 X161.868 Y153.158 E0.4286
G1 X161.970 Y153.130 E0.4353
G1 X162.688 Y152.970 E0.4815
G1 X162.792 Y152.951 E0.4882
G1 X164.142 Y152.781 E0.5737
G1 X164.248 Y152.772 E0.5804
G1 X164.982 Y152.749 E0.6265
G1 X165.088 Y152.751 E0.6332
G1 X166.465 Y152.838 E0.7199
G1 X166.605 Y152.855 E0.7288
G1 X167.978 Y153.117 E0.8166
G1 X168.115 Y153.152 E0.8255
G1 X169.427 Y153.579 E0.9123
G1 X169.526 Y153.616 E0.9189
G1 X170.200 Y153.908 E0.9651
G1 X170.296 Y153.955 E0.9718
G1 X171.489 Y154.611 E1.0574
G1 X171.579 Y154.666 E1.0640
G1 X172.186 Y155.079 E1.1102
G1 X172.271 Y155.142 E1.1168
G1 X173.320 Y156.010 E1.2024
G1 X173.399 Y156.082 E1.2091
G1 X173.918 Y156.601 E1.2553
G1 X173.990 Y156.680 E1.2620
G1 X174.858 Y157.729 E1.3476
G1 X174.921 Y157.814 E1.3542
G1 X175.324 Y158.406 E1.3992
G1 X175.362 Y158.466 E1.4037
G1 X175.727 Y159.083 E1.4487
G1 X175.776 Y159.176 E1.4554
G1 X176.364 Y160.424 E1.5421
G1 X176.416 Y160.556 E1.5510
G1 X176.842 Y161.868 E1.6377
G1 X176.870 Y161.970 E1.6444
G1 X177.030 Y162.687 E1.6906
G1 X177.049 Y162.792 E1.6973
G1 X177.221 Y164.160 E1.7840
G1 X177.230 Y164.301 E1.7928
G1 X177.230 Y165.699 E1.8807
G1 X177.221 Y165.840 E1.8896
G1 X177.049 Y167.208 E1.9763
G1 X177.030 Y167.313 E1.9829
G1 X176.870 Y168.030 E2.0291
G1 X176.842 Y168.132 E2.0358
G1 X176.421 Y169.427 E2.1214
G1 X176.384 Y169.526 E2.1281
G1 X176.092 Y170.200 E2.1742
G1 X176.045 Y170.295 E2.1809
G1 X175.389 Y171.489 E2.2665
G1 X175.334 Y171.579 E2.2732
G1 X174.921 Y172.186 E2.3193
G1 X174.858 Y172.271 E2.3260
G1 X173.990 Y173.320 E2.4116
G1 X173.918 Y173.399 E2.4182
G1 X173.399 Y173.918 E2.4644
G1 X173.320 Y173.990 E2.4711
G1 X172.271 Y174.858 E2.5567
G1 X172.186 Y174.921 E2.5634
G1 X171.594 Y175.324 E2.6084
G1 X171.534 Y175.362 E2.6129
G1 X170.917 Y175.727 E2.6579
G1 X170.824 Y175.776 E2.6646
G1 X169.576 Y176.364 E2.7513
G1 X169.444 Y176.416 E2.7601
G1 X168.132 Y176.842 E2.8469
G1 X168.030 Y176.870 E2.8535
G1 X167.313 Y177.030 E2.8997
G1 X167.208 Y177.049 E2.9064
G1 X165.857 Y177.219 E2.9920
G1 X165.751 Y177.227 E2.9987
G1 X165.035 Y177.250 E3.0437
G1 X164.965 Y177.250 E3.0481
G1 X164.249 Y177.227 E3.0932
G1 X164.143 Y177.219 E3.0998
G1 X162.792 Y177.049 E3.1854
G1 X162.687 Y177.030 E3.1921
G1 X161.970 Y176.870 E3.2383
G1 X161.868 Y176.842 E3.2450
G1 X160.556 Y176.416 E3.3317
G1 X160.424 Y176.364 E3.3406
G1 X159.176 Y175.776 E3.4273
G1 X159.083 Y175.727 E3.4340
G1 X158.466 Y175.362 E3.4790
G1 X158.406 Y175.324 E3.4835
G1 X157.814 Y174.921 E3.5285
G1 X157.729 Y174.858 E3.5351
G1 X156.666 Y173.978 E3.6219
G1 X156.562 Y173.881 E3.6308
G1 X155.606 Y172.863 E3.7186
G1 X155.516 Y172.754 E3.7275
G1 X154.705 Y171.638 E3.8142
G1 X154.647 Y171.549 E3.8209
G1 X154.273 Y170.918 E3.8670
G1 X154.224 Y170.824 E3.8737
G1 X153.637 Y169.576 E3.9604
G1 X153.584 Y169.444 E3.9693
G1 X153.158 Y168.132 E4.0560
G1 X153.130 Y168.030 E4.0627
G1 X152.970 Y167.312 E4.1089
G1 X152.951 Y167.208 E4.1155
G1 X152.781 Y165.858 E4.2011
G1 X152.772 Y165.752 E4.2078
G1 X152.750 Y165.035 E4.2528
G1 X152.750 Y164.965 E4.2573
G1 X152.772 Y164.248 E4.3023
G1 X152.781 Y164.142 E4.3090
G1 X152.951 Y162.792 E4.3945
G1 X152.970 Y162.688 E4.4012
G1 X153.130 Y161.970 E4.4474
G1 X153.158 Y161.868 E4.4541
G1 X153.584 Y160.556 E4.5408
G1 X153.636 Y160.424 E4.5497
G1 X154.224 Y159.176 E4.6364
G1 X154.273 Y159.082 E4.6431
G1 X154.638 Y158.466 E4.6881
G1 X154.676 Y158.406 E4.6926
G1 X155.079 Y157.814 E4.7376
G1 X155.142 Y157.729 E4.7443
G1 X156.010 Y156.680 E4.8299
G1 X156.082 Y156.601 E4.8365
G92 E0.0000
G1 E-5.0000 F4800
G1 X156.516 Y157.015 F4800
G1 E-0.1000 F4800
G92 E0.0000
G1 X157.015 Y156.516 E0.0444 F1500
G1 X157.073 Y156.464 E0.0493
G1 X158.110 Y155.605 E0.1339
G1 X158.194 Y155.544 E0.1404
G1 X159.342 Y154.816 E0.2259
G1 X159.433 Y154.766 E0.2324
G1 X160.663 Y154.187 E0.3179
G1 X160.759 Y154.149 E0.3244
G1 X162.040 Y153.733 E0.4090
G1 X162.115 Y153.712 E0.4139
G1 X162.805 Y153.558 E0.4583
G1 X162.881 Y153.545 E0.4632
G1 X164.204 Y153.378 E0.5470
G1 X164.281 Y153.372 E0.5519
G1 X164.987 Y153.350 E0.5963
G1 X165.065 Y153.351 E0.6012
G1 X166.409 Y153.435 E0.6858
G1 X166.511 Y153.448 E0.6924
G1 X167.847 Y153.703 E0.7778
G1 X167.947 Y153.729 E0.7843
G1 X169.228 Y154.145 E0.8690
G1 X169.301 Y154.173 E0.8739
G1 X169.949 Y154.453 E0.9183
G1 X170.019 Y154.487 E0.9232
G1 X171.187 Y155.130 E1.0070
G1 X171.254 Y155.170 E1.0119
G1 X171.837 Y155.567 E1.0562
G1 X171.900 Y155.614 E1.0611
G1 X172.927 Y156.464 E1.1450
G1 X172.985 Y156.516 E1.1498
G1 X173.484 Y157.015 E1.1942
G1 X173.536 Y157.073 E1.1991
G1 X174.386 Y158.100 E1.2830
G1 X174.433 Y158.163 E1.2878
G1 X174.822 Y158.736 E1.3314
G1 X174.850 Y158.779 E1.3347
G1 X175.203 Y159.376 E1.3782
G1 X175.239 Y159.445 E1.3831
G1 X175.813 Y160.663 E1.4677
G1 X175.851 Y160.759 E1.4743
G1 X176.267 Y162.040 E1.5589
G1 X176.288 Y162.115 E1.5638
G1 X176.442 Y162.804 E1.6082
G1 X176.455 Y162.881 E1.6131
G1 X176.624 Y164.217 E1.6977
G1 X176.630 Y164.320 E1.7042
G1 X176.630 Y165.680 E1.7897
G1 X176.624 Y165.783 E1.7962
G1 X176.455 Y167.119 E1.8809
G1 X176.442 Y167.196 E1.8858
G1 X176.288 Y167.885 E1.9301
G1 X176.267 Y167.960 E1.9350
G1 X175.855 Y169.228 E2.0189
G1 X175.827 Y169.301 E2.0238
G1 X175.547 Y169.949 E2.0681
G1 X175.513 Y170.019 E2.0730
G1 X174.870 Y171.187 E2.1569
G1 X174.830 Y171.254 E2.1618
G1 X174.433 Y171.837 E2.2061
G1 X174.386 Y171.900 E2.2110
G1 X173.536 Y172.927 E2.2948
G1 X173.484 Y172.985 E2.2997
G1 X172.985 Y173.484 E2.3441
G1 X172.927 Y173.536 E2.3490
G1 X171.900 Y174.386 E2.4328
G1 X171.837 Y174.433 E2.4377
G1 X171.264 Y174.823 E2.4813
G1 X171.220 Y174.850 E2.4846
G1 X170.624 Y175.203 E2.5281
G1 X170.555 Y175.239 E2.5330
G1 X169.337 Y175.813 E2.6176
G1 X169.241 Y175.851 E2.6241
G1 X167.960 Y176.267 E2.7088
G1 X167.885 Y176.288 E2.7137
G1 X167.196 Y176.442 E2.7581
G1 X167.119 Y176.455 E2.7630
G1 X165.796 Y176.622 E2.8468
G1 X165.718 Y176.628 E2.8517
G1 X165.026 Y176.650 E2.8952
G1 X164.974 Y176.650 E2.8985
G1 X164.282 Y176.628 E2.9421
G1 X164.204 Y176.622 E2.9469
G1 X162.881 Y176.455 E3.0308
G1 X162.804 Y176.442 E3.0357
G1 X162.115 Y176.288 E3.0801
