; G-Code generated by Simplify3D(R) Version 4.1.2
; Jun 1, 2020 at 11:01:49 AM
; Settings Summary
;   processName,Process1
;   applyToModels,BoltAdapter
;   profileName,X5X-PLA-Leon
;   profileVersion,2020-05-29 15:17:39
;   baseProfile,TRONXY X5S
;   printMaterial,PLA
;   printQuality,Medium
;   printExtruders,
;   extruderName,Primary Extruder
;   extruderToolheadNumber,0
;   extruderDiameter,0.4
;   extruderAutoWidth,0
;   extruderWidth,0.8
;   extrusionMultiplier,1.05
;   extruderUseRetract,1
;   extruderRetractionDistance,5
;   extruderExtraRestartDistance,-0.1
;   extruderRetractionZLift,0
;   extruderRetractionSpeed,4800
;   extruderUseCoasting,0
;   extruderCoastingDistance,0.2
;   extruderUseWipe,0
;   extruderWipeDistance,5
;   primaryExtruder,0
;   layerHeight,0.2
;   topSolidLayers,3
;   bottomSolidLayers,3
;   perimeterOutlines,1
;   printPerimetersInsideOut,0
;   startPointOption,2
;   startPointOriginX,0
;   startPointOriginY,0
;   sequentialIslands,0
;   spiralVaseMode,0
;   firstLayerHeightPercentage,120
;   firstLayerWidthPercentage,150
;   firstLayerUnderspeed,0.5
;   useRaft,0
;   raftExtruder,0
;   raftTopLayers,3
;   raftBaseLayers,2
;   raftOffset,0
;   raftSeparationDistance,0
;   raftTopInfill,100
;   aboveRaftSpeedMultiplier,0.3
;   useSkirt,1
;   skirtExtruder,0
;   skirtLayers,1
;   skirtOutlines,4
;   skirtOffset,0.15
;   usePrimePillar,0
;   primePillarExtruder,999
;   primePillarWidth,12
;   primePillarLocation,7
;   primePillarSpeedMultiplier,1
;   useOozeShield,0
;   oozeShieldExtruder,999
;   oozeShieldOffset,2
;   oozeShieldOutlines,1
;   oozeShieldSidewallShape,1
;   oozeShieldSidewallAngle,30
;   oozeShieldSpeedMultiplier,1
;   infillExtruder,0
;   internalInfillPattern,Rectilinear
;   externalInfillPattern,Rectilinear
;   infillPercentage,20
;   outlineOverlapPercentage,15
;   infillExtrusionWidthPercentage,100
;   minInfillLength,5
;   infillLayerInterval,1
;   internalInfillAngles,45,-45
;   overlapInternalInfillAngles,0
;   externalInfillAngles,45,-45
;   generateSupport,1
;   supportExtruder,0
;   supportInfillPercentage,30
;   supportExtraInflation,0
;   supportBaseLayers,1
;   denseSupportExtruder,0
;   denseSupportLayers,0
;   denseSupportInfillPercentage,70
;   supportLayerInterval,1
;   supportHorizontalPartOffset,0.3
;   supportUpperSeparationLayers,1
;   supportLowerSeparationLayers,1
;   supportType,0
;   supportGridSpacing,3
;   maxOverhangAngle,70
;   supportAngles,0
;   temperatureName,Primary Extruder,Heated Bed
;   temperatureNumber,0,0
;   temperatureSetpointCount,1,1
;   temperatureSetpointLayers,1,1
;   temperatureSetpointTemperatures,200,90
;   temperatureStabilizeAtStartup,1,1
;   temperatureHeatedBed,0,1
;   fanLayers,1,2
;   fanSpeeds,0,50
;   blipFanToFullPower,0
;   adjustSpeedForCooling,1
;   minSpeedLayerTime,15
;   minCoolingSpeedSlowdown,20
;   increaseFanForCooling,0
;   minFanLayerTime,45
;   maxCoolingFanSpeed,100
;   increaseFanForBridging,0
;   bridgingFanSpeed,100
;   use5D,1
;   relativeEdistances,0
;   allowEaxisZeroing,1
;   independentExtruderAxes,0
;   includeM10123,0
;   stickySupport,1
;   applyToolheadOffsets,0
;   gcodeXoffset,0
;   gcodeYoffset,0
;   gcodeZoffset,0
;   overrideMachineDefinition,1
;   machineTypeOverride,0
;   strokeXoverride,330
;   strokeYoverride,330
;   strokeZoverride,400
;   originOffsetXoverride,0
;   originOffsetYoverride,0
;   originOffsetZoverride,0
;   homeXdirOverride,-1
;   homeYdirOverride,-1
;   homeZdirOverride,-1
;   flipXoverride,1
;   flipYoverride,-1
;   flipZoverride,1
;   toolheadOffsets,0,0|0,0|0,0|0,0|0,0|0,0
;   overrideFirmwareConfiguration,1
;   firmwareTypeOverride,RepRap (Marlin/Repetier/Sprinter)
;   GPXconfigOverride,r2
;   baudRateOverride,250000
;   overridePrinterModels,1
;   printerModelsOverride
;   startingGcode,G28 ; home all axes,G1 Z0.2 F3000 ; get ready to prime,G92 E0 ; reset extrusion distance,G1 X100 E10 F600 ; prime nozzle
;   layerChangeGcode,
;   retractionGcode,
;   toolChangeGcode,
;   endingGcode,G28 X0 ; home x axis,M106 S0 ; turn off cooling fan,M104 S0 ; turn off extruder,M140 S0 ; turn off bed,M84 ; disable motors
;   exportFileFormat,gcode
;   celebration,0
;   celebrationSong,Funky Town
;   postProcessing,
;   defaultSpeed,3000
;   outlineUnderspeed,0.5
;   solidInfillUnderspeed,0.8
;   supportUnderspeed,0.8
;   rapidXYspeed,4800
;   rapidZspeed,1002
;   minBridgingArea,5
;   bridgingExtraInflation,2
;   bridgingExtrusionMultiplier,1
;   bridgingSpeedMultiplier,1
;   useFixedBridgingAngle,1
;   fixedBridgingAngle,0
;   applyBridgingToPerimeters,0
;   filamentDiameters,1.75|1.75|1.75|1.75|1.75|1.75
;   filamentPricesPerKg,46|46|46|46|46|46
;   filamentDensities,1.25|1.25|1.25|1.25|1.25|1.25
;   useMinPrintHeight,0
;   minPrintHeight,0
;   useMaxPrintHeight,0
;   maxPrintHeight,10
;   useDiaphragm,0
;   diaphragmLayerInterval,20
;   robustSlicing,1
;   mergeAllIntoSolid,0
;   onlyRetractWhenCrossingOutline,1
;   retractBetweenLayers,1
;   useRetractionMinTravel,0
;   retractionMinTravel,3
;   retractWhileWiping,0
;   onlyWipeOutlines,1
;   avoidCrossingOutline,0
;   maxMovementDetourFactor,3
;   toolChangeRetractionDistance,12
;   toolChangeExtraRestartDistance,-0.5
;   toolChangeRetractionSpeed,600
;   externalThinWallType,0
;   internalThinWallType,2
;   thinWallAllowedOverlapPercentage,10
;   singleExtrusionMinLength,1
;   singleExtrusionMinPrintingWidthPercentage,50
;   singleExtrusionMaxPrintingWidthPercentage,200
;   singleExtrusionEndpointExtension,0.2
;   horizontalSizeCompensation,0
G90
M82
M106 S0
M140 S90
M190 S90
M104 S200 T0
M109 S200 T0
G28 ; home all axes
G1 Z0.2 F3000 ; get ready to prime
G92 E0 ; reset extrusion distance
G1 X100 E10 F600 ; prime nozzle
; process Process1
; layer 1, Z = 0.240
T0
G92 E0.0000
G1 E-5.0000 F4800
; feature skirt
; tool H0.240 W1.200
G1 Z0.240 F1002
G1 X158.505 Y158.201 F4800
G1 E-0.1000 F4800
G92 E0.0000
G1 X158.769 Y157.956 E0.0452 F300
G1 X159.676 Y157.247 E0.1900
G1 X159.982 Y157.047 E0.2359
G1 X161.061 Y156.464 E0.3901
G1 X161.338 Y156.338 E0.4284
G1 X162.067 Y156.067 E0.5262
G1 X162.311 Y155.992 E0.5583
G1 X163.220 Y155.771 E0.6759
G1 X163.458 Y155.727 E0.7063
G1 X164.224 Y155.629 E0.8034
G1 X164.531 Y155.611 E0.8421
G1 X165.770 Y155.629 E0.9979
G1 X166.154 Y155.668 E1.0464
G1 X167.368 Y155.903 E1.2019
G1 X167.662 Y155.982 E1.2401
G1 X168.399 Y156.235 E1.3381
G1 X168.638 Y156.333 E1.3705
G1 X169.480 Y156.739 E1.4880
G1 X169.689 Y156.855 E1.5181
G1 X170.306 Y157.241 E1.6097
G1 X170.488 Y157.368 E1.6376
G1 X171.088 Y157.835 E1.7332
G1 X171.314 Y158.038 E1.7713
G1 X172.175 Y158.925 E1.9268
G1 X172.418 Y159.225 E1.9752
G1 X173.111 Y160.252 E2.1311
G1 X173.265 Y160.520 E2.1699
G1 X173.601 Y161.214 E2.2669
G1 X173.693 Y161.434 E2.2968
G1 X174.021 Y162.357 E2.4199
G1 X174.111 Y162.691 E2.4634
G1 X174.339 Y163.928 E2.6216
G1 X174.375 Y164.312 E2.6701
G1 X174.382 Y165.590 E2.8308
G1 X174.350 Y165.974 E2.8793
G1 X174.139 Y167.193 E3.0348
G1 X174.066 Y167.489 E3.0731
G1 X173.827 Y168.229 E3.1709
G1 X173.735 Y168.467 E3.2029
G1 X173.346 Y169.317 E3.3205
G1 X173.233 Y169.532 E3.3510
G1 X172.858 Y170.158 E3.4428
G1 X172.734 Y170.342 E3.4707
G1 X172.279 Y170.951 E3.5662
G1 X172.082 Y171.179 E3.6042
G1 X171.250 Y172.018 E3.7526
G1 X171.045 Y172.201 E3.7872
G1 X170.547 Y172.590 E3.8666
G1 X170.385 Y172.704 E3.8915
G1 X169.775 Y173.098 E3.9828
G1 X169.551 Y173.224 E4.0151
G1 X168.711 Y173.634 E4.1327
G1 X168.490 Y173.727 E4.1629
G1 X167.763 Y173.987 E4.2599
G1 X167.466 Y174.070 E4.2987
G1 X166.252 Y174.319 E4.4545
G1 X165.868 Y174.363 E4.5030
G1 X164.591 Y174.394 E4.6636
G1 X164.206 Y174.370 E4.7121
G1 X162.983 Y174.182 E4.8677
G1 X162.685 Y174.115 E4.9061
G1 X161.941 Y173.891 E5.0038
G1 X161.705 Y173.804 E5.0354
G1 X160.847 Y173.433 E5.1529
G1 X160.627 Y173.323 E5.1839
G1 X159.992 Y172.958 E5.2759
G1 X159.806 Y172.838 E5.3038
G1 X159.189 Y172.395 E5.3992
G1 X158.958 Y172.203 E5.4371
G1 X158.091 Y171.376 E5.5877
G1 X157.883 Y171.148 E5.6264
G1 X157.405 Y170.542 E5.7235
G1 X157.268 Y170.346 E5.7537
G1 X156.773 Y169.552 E5.8712
G1 X156.650 Y169.326 E5.9035
G1 X156.342 Y168.669 E5.9948
G1 X156.266 Y168.486 E6.0197
G1 X156.051 Y167.892 E6.0991
G1 X155.973 Y167.628 E6.1337
G1 X155.705 Y166.435 E6.2874
G1 X155.654 Y166.053 E6.3359
G1 X155.597 Y164.776 E6.4966
G1 X155.614 Y164.391 E6.5450
G1 X155.778 Y163.164 E6.7007
G1 X155.840 Y162.864 E6.7392
G1 X156.050 Y162.118 E6.8367
G1 X156.130 Y161.884 E6.8678
G1 X156.483 Y161.018 E6.9854
G1 X156.591 Y160.793 E7.0167
G1 X156.944 Y160.149 E7.1090
G1 X157.061 Y159.960 E7.1369
G1 X157.492 Y159.335 E7.2324
G1 X157.679 Y159.101 E7.2701
G1 X158.505 Y158.201 E7.4237
G92 E0.0000
G1 E-5.0000 F4800
G1 X159.356 Y159.048 F4800
G1 E-0.1000 F4800
G92 E0.0000
G1 X159.547 Y158.871 E0.0327 F300
G1 X160.376 Y158.224 E0.1650
G1 X160.597 Y158.079 E0.1982
G1 X161.595 Y157.539 E0.3408
G1 X161.795 Y157.448 E0.3685
G1 X162.452 Y157.204 E0.4566
G1 X162.629 Y157.150 E0.4799
G1 X163.471 Y156.945 E0.5889
G1 X163.643 Y156.913 E0.6109
G1 X164.334 Y156.824 E0.6985
G1 X164.557 Y156.812 E0.7265
G1 X165.700 Y156.828 E0.8703
G1 X165.978 Y156.856 E0.9054
G1 X167.099 Y157.073 E1.0489
G1 X167.311 Y157.130 E1.0765
G1 X167.975 Y157.358 E1.1648
G1 X168.148 Y157.429 E1.1883
G1 X168.929 Y157.806 E1.2972
G1 X169.080 Y157.889 E1.3190
G1 X169.644 Y158.242 E1.4026
G1 X169.775 Y158.334 E1.4228
G1 X170.318 Y158.757 E1.5093
G1 X170.482 Y158.903 E1.5369
G1 X171.277 Y159.723 E1.6804
G1 X171.453 Y159.939 E1.7155
G1 X172.092 Y160.888 E1.8593
G1 X172.203 Y161.082 E1.8874
G1 X172.507 Y161.708 E1.9749
G1 X172.574 Y161.867 E1.9966
G1 X172.875 Y162.714 E2.1095
G1 X172.939 Y162.956 E2.1411
G1 X173.150 Y164.094 E2.2865
G1 X173.176 Y164.371 E2.3216
G1 X173.182 Y165.543 E2.4690
G1 X173.159 Y165.821 E2.5041
G1 X172.964 Y166.947 E2.6477
G1 X172.911 Y167.161 E2.6754
G1 X172.696 Y167.828 E2.7635
G1 X172.629 Y168.000 E2.7867
G1 X172.269 Y168.788 E2.8956
G1 X172.187 Y168.943 E2.9177
G1 X171.844 Y169.514 E3.0014
G1 X171.755 Y169.648 E3.0216
G1 X171.343 Y170.199 E3.1081
G1 X171.200 Y170.364 E3.1356
G1 X170.425 Y171.146 E3.2740
G1 X170.276 Y171.278 E3.2991
G1 X169.830 Y171.627 E3.3703
G1 X169.713 Y171.710 E3.3883
G1 X169.155 Y172.070 E3.4717
G1 X168.993 Y172.161 E3.4951
G1 X168.214 Y172.541 E3.6040
G1 X168.054 Y172.608 E3.6259
G1 X167.398 Y172.843 E3.7135
G1 X167.183 Y172.903 E3.7415
G1 X166.063 Y173.133 E3.8853
G1 X165.786 Y173.164 E3.9204
G1 X164.614 Y173.193 E4.0677
G1 X164.336 Y173.176 E4.1028
G1 X163.206 Y173.002 E4.2464
G1 X162.991 Y172.954 E4.2743
G1 X162.321 Y172.752 E4.3622
G1 X162.150 Y172.689 E4.3851
G1 X161.355 Y172.345 E4.4940
G1 X161.195 Y172.265 E4.5164
G1 X160.616 Y171.933 E4.6003
G1 X160.482 Y171.846 E4.6205
G1 X159.923 Y171.445 E4.7069
G1 X159.756 Y171.306 E4.7344
G1 X158.950 Y170.537 E4.8743
G1 X158.799 Y170.372 E4.9024
G1 X158.368 Y169.825 E4.9900
G1 X158.269 Y169.683 E5.0118
G1 X157.810 Y168.948 E5.1207
G1 X157.721 Y168.784 E5.1442
G1 X157.440 Y168.184 E5.2275
G1 X157.385 Y168.051 E5.2456
G1 X157.192 Y167.519 E5.3168
G1 X157.136 Y167.328 E5.3418
G1 X156.887 Y166.224 E5.4841
G1 X156.850 Y165.947 E5.5192
G1 X156.798 Y164.777 E5.6665
G1 X156.811 Y164.498 E5.7016
G1 X156.962 Y163.365 E5.8452
G1 X157.007 Y163.148 E5.8731
G1 X157.196 Y162.475 E5.9610
G1 X157.254 Y162.305 E5.9835
G1 X157.581 Y161.503 E6.0925
G1 X157.659 Y161.340 E6.1152
G1 X157.981 Y160.754 E6.1993
G1 X158.065 Y160.617 E6.2195
G1 X158.456 Y160.051 E6.3059
G1 X158.592 Y159.881 E6.3332
G1 X159.356 Y159.048 E6.4754
G92 E0.0000
G1 E-5.0000 F4800
G1 X160.207 Y159.896 F4800
G1 E-0.1000 F4800
G92 E0.0000
G1 X160.325 Y159.786 E0.0203 F300
G1 X161.075 Y159.200 E0.1399
G1 X161.212 Y159.110 E0.1605
G1 X162.129 Y158.615 E0.2915
G1 X162.253 Y158.558 E0.3087
G1 X162.837 Y158.341 E0.3871
G1 X162.947 Y158.307 E0.4015
G1 X163.722 Y158.119 E0.5018
G1 X163.829 Y158.099 E0.5154
G1 X164.445 Y158.020 E0.5935
G1 X164.583 Y158.012 E0.6109
G1 X165.630 Y158.027 E0.7426
G1 X165.802 Y158.045 E0.7643
G1 X166.830 Y158.244 E0.8959
G1 X166.961 Y158.279 E0.9130
G1 X167.552 Y158.482 E0.9915
G1 X167.659 Y158.526 E1.0061
G1 X168.377 Y158.872 E1.1064
G1 X168.471 Y158.924 E1.1199
G1 X168.981 Y159.243 E1.1955
G1 X169.062 Y159.300 E1.2080
G1 X169.548 Y159.678 E1.2854
G1 X169.650 Y159.769 E1.3025
G1 X170.378 Y160.520 E1.4341
G1 X170.487 Y160.654 E1.4558
G1 X171.073 Y161.523 E1.5875
G1 X171.142 Y161.643 E1.6049
G1 X171.413 Y162.202 E1.6829
G1 X171.454 Y162.300 E1.6964
G1 X171.728 Y163.071 E1.7992
G1 X171.768 Y163.220 E1.8187
G1 X171.960 Y164.259 E1.9515
G1 X171.976 Y164.431 E1.9732
G1 X171.982 Y165.496 E2.1071
G1 X171.967 Y165.669 E2.1289
G1 X171.788 Y166.700 E2.2605
G1 X171.756 Y166.833 E2.2777
G1 X171.565 Y167.426 E2.3561
G1 X171.523 Y167.533 E2.3704
G1 X171.191 Y168.258 E2.4707
G1 X171.141 Y168.355 E2.4844
G1 X170.831 Y168.871 E2.5601
G1 X170.776 Y168.954 E2.5726
G1 X170.407 Y169.446 E2.6500
G1 X170.319 Y169.549 E2.6670
G1 X169.599 Y170.274 E2.7954
G1 X169.507 Y170.356 E2.8109
G1 X169.112 Y170.665 E2.8739
G1 X169.040 Y170.716 E2.8851
G1 X168.535 Y171.041 E2.9606
G1 X168.435 Y171.098 E2.9751
G1 X167.718 Y171.448 E3.0754
G1 X167.619 Y171.490 E3.0889
G1 X167.034 Y171.699 E3.1670
G1 X166.901 Y171.736 E3.1843
G1 X165.874 Y171.946 E3.3161
G1 X165.703 Y171.966 E3.3378
G1 X164.638 Y171.993 E3.4717
G1 X164.465 Y171.982 E3.4935
G1 X163.430 Y171.823 E3.6251
G1 X163.297 Y171.792 E3.6424
G1 X162.700 Y171.613 E3.7207
G1 X162.594 Y171.574 E3.7348
G1 X161.862 Y171.257 E3.8351
G1 X161.763 Y171.208 E3.8490
G1 X161.241 Y170.908 E3.9248
G1 X161.157 Y170.854 E3.9373
G1 X160.657 Y170.495 E4.0147
G1 X160.554 Y170.409 E4.0316
G1 X159.809 Y169.698 E4.1610
G1 X159.716 Y169.596 E4.1784
G1 X159.331 Y169.108 E4.2565
G1 X159.270 Y169.020 E4.2700
G1 X158.848 Y168.343 E4.3703
G1 X158.793 Y168.242 E4.3848
G1 X158.537 Y167.699 E4.4603
G1 X158.503 Y167.617 E4.4714
G1 X158.333 Y167.146 E4.5344
G1 X158.298 Y167.027 E4.5499
G1 X158.070 Y166.012 E4.6807
G1 X158.047 Y165.841 E4.7024
G1 X157.999 Y164.777 E4.8364
G1 X158.007 Y164.604 E4.8581
G1 X158.146 Y163.566 E4.9898
G1 X158.174 Y163.431 E5.0070
G1 X158.342 Y162.832 E5.0853
G1 X158.378 Y162.727 E5.0992
G1 X158.679 Y161.988 E5.1996
G1 X158.727 Y161.888 E5.2136
G1 X159.018 Y161.358 E5.2895
G1 X159.070 Y161.274 E5.3020
G1 X159.420 Y160.767 E5.3794
G1 X159.504 Y160.662 E5.3963
G1 X160.207 Y159.896 E5.5270
G92 E0.0000
G1 E-5.0000 F4800
G1 X161.058 Y160.743 F4800
G1 E-0.1000 F4800
G92 E0.0000
G1 X161.103 Y160.701 E0.0078 F300
G1 X161.774 Y160.176 E0.1149
G1 X161.827 Y160.142 E0.1228
G1 X162.663 Y159.690 E0.2423
G1 X162.710 Y159.668 E0.2488
G1 X163.223 Y159.478 E0.3175
G1 X163.265 Y159.465 E0.3231
G1 X163.973 Y159.293 E0.4148
G1 X164.014 Y159.285 E0.4200
G1 X164.555 Y159.216 E0.4886
G1 X164.608 Y159.213 E0.4952
G1 X165.560 Y159.226 E0.6150
G1 X165.626 Y159.233 E0.6233
G1 X166.561 Y159.414 E0.7429
G1 X166.611 Y159.427 E0.7495
G1 X167.128 Y159.605 E0.8183
G1 X167.170 Y159.622 E0.8239
G1 X167.826 Y159.939 E0.9156
G1 X167.863 Y159.959 E0.9207
G1 X168.318 Y160.244 E0.9883
G1 X168.350 Y160.266 E0.9932
G1 X168.779 Y160.600 E1.0615
G1 X168.817 Y160.634 E1.0680
G1 X169.480 Y161.317 E1.1877
G1 X169.522 Y161.369 E1.1961
G1 X170.054 Y162.159 E1.3158
G1 X170.081 Y162.205 E1.3225
G1 X170.319 Y162.695 E1.3910
G1 X170.334 Y162.733 E1.3962
G1 X170.581 Y163.428 E1.4888
G1 X170.597 Y163.485 E1.4963
G1 X170.770 Y164.425 E1.6164
G1 X170.776 Y164.491 E1.6248
G1 X170.782 Y165.450 E1.7453
G1 X170.776 Y165.516 E1.7537
G1 X170.613 Y166.454 E1.8733
G1 X170.601 Y166.505 E1.8800
G1 X170.433 Y167.025 E1.9486
G1 X170.417 Y167.066 E1.9542
G1 X170.114 Y167.729 E2.0458
G1 X170.095 Y167.766 E2.0511
G1 X169.818 Y168.227 E2.1188
G1 X169.796 Y168.259 E2.1236
G1 X169.471 Y168.694 E2.1919
G1 X169.437 Y168.734 E2.1984
G1 X168.774 Y169.403 E2.3169
G1 X168.738 Y169.434 E2.3228
G1 X168.395 Y169.703 E2.3776
G1 X168.367 Y169.722 E2.3819
G1 X167.915 Y170.013 E2.4495
G1 X167.877 Y170.035 E2.4550
G1 X167.221 Y170.355 E2.5467
G1 X167.183 Y170.371 E2.5519
G1 X166.670 Y170.555 E2.6205
G1 X166.619 Y170.569 E2.6272
G1 X165.686 Y170.760 E2.7469
