; G-Code generated by Simplify3D(R) Version 4.1.2
; Jun 6, 2020 at 6:40:53 PM
; Settings Summary
;   processName,Process1
;   applyToModels,DecArm
;   profileName,X5S-PLA-Spring (modified)
;   profileVersion,2020-06-05 15:38:56
;   baseProfile,TRONXY X5S
;   printMaterial,PLA
;   printQuality,Medium
;   printExtruders,
;   extruderName,Primary Extruder
;   extruderToolheadNumber,0
;   extruderDiameter,0.4
;   extruderAutoWidth,0
;   extruderWidth,0.4
;   extrusionMultiplier,1.05
;   extruderUseRetract,1
;   extruderRetractionDistance,5
;   extruderExtraRestartDistance,-0.1
;   extruderRetractionZLift,0
;   extruderRetractionSpeed,4800
;   extruderUseCoasting,0
;   extruderCoastingDistance,0.2
;   extruderUseWipe,0
;   extruderWipeDistance,5
;   primaryExtruder,0
;   layerHeight,0.2
;   topSolidLayers,3
;   bottomSolidLayers,3
;   perimeterOutlines,5
;   printPerimetersInsideOut,0
;   startPointOption,2
;   startPointOriginX,0
;   startPointOriginY,0
;   sequentialIslands,0
;   spiralVaseMode,0
;   firstLayerHeightPercentage,120
;   firstLayerWidthPercentage,150
;   firstLayerUnderspeed,0.5
;   useRaft,0
;   raftExtruder,0
;   raftTopLayers,3
;   raftBaseLayers,2
;   raftOffset,0
;   raftSeparationDistance,0
;   raftTopInfill,100
;   aboveRaftSpeedMultiplier,0.3
;   useSkirt,1
;   skirtExtruder,0
;   skirtLayers,1
;   skirtOutlines,5
;   skirtOffset,0.1
;   usePrimePillar,0
;   primePillarExtruder,999
;   primePillarWidth,12
;   primePillarLocation,7
;   primePillarSpeedMultiplier,1
;   useOozeShield,0
;   oozeShieldExtruder,999
;   oozeShieldOffset,2
;   oozeShieldOutlines,1
;   oozeShieldSidewallShape,1
;   oozeShieldSidewallAngle,30
;   oozeShieldSpeedMultiplier,1
;   infillExtruder,0
;   internalInfillPattern,Rectilinear
;   externalInfillPattern,Rectilinear
;   infillPercentage,10
;   outlineOverlapPercentage,15
;   infillExtrusionWidthPercentage,100
;   minInfillLength,5
;   infillLayerInterval,1
;   internalInfillAngles,45,-45
;   overlapInternalInfillAngles,0
;   externalInfillAngles,45,-45
;   generateSupport,1
;   supportExtruder,0
;   supportInfillPercentage,30
;   supportExtraInflation,0
;   supportBaseLayers,1
;   denseSupportExtruder,0
;   denseSupportLayers,0
;   denseSupportInfillPercentage,70
;   supportLayerInterval,1
;   supportHorizontalPartOffset,0.3
;   supportUpperSeparationLayers,1
;   supportLowerSeparationLayers,1
;   supportType,0
;   supportGridSpacing,3
;   maxOverhangAngle,70
;   supportAngles,0
;   temperatureName,Primary Extruder,Heated Bed
;   temperatureNumber,0,0
;   temperatureSetpointCount,1,1
;   temperatureSetpointLayers,1,1
;   temperatureSetpointTemperatures,200,100
;   temperatureStabilizeAtStartup,1,1
;   temperatureHeatedBed,0,1
;   fanLayers,1,2
;   fanSpeeds,0,50
;   blipFanToFullPower,0
;   adjustSpeedForCooling,1
;   minSpeedLayerTime,15
;   minCoolingSpeedSlowdown,20
;   increaseFanForCooling,0
;   minFanLayerTime,45
;   maxCoolingFanSpeed,100
;   increaseFanForBridging,0
;   bridgingFanSpeed,100
;   use5D,1
;   relativeEdistances,0
;   allowEaxisZeroing,1
;   independentExtruderAxes,0
;   includeM10123,0
;   stickySupport,1
;   applyToolheadOffsets,0
;   gcodeXoffset,0
;   gcodeYoffset,0
;   gcodeZoffset,0
;   overrideMachineDefinition,1
;   machineTypeOverride,0
;   strokeXoverride,330
;   strokeYoverride,330
;   strokeZoverride,400
;   originOffsetXoverride,0
;   originOffsetYoverride,0
;   originOffsetZoverride,0
;   homeXdirOverride,-1
;   homeYdirOverride,-1
;   homeZdirOverride,-1
;   flipXoverride,1
;   flipYoverride,-1
;   flipZoverride,1
;   toolheadOffsets,0,0|0,0|0,0|0,0|0,0|0,0
;   overrideFirmwareConfiguration,1
;   firmwareTypeOverride,RepRap (Marlin/Repetier/Sprinter)
;   GPXconfigOverride,r2
;   baudRateOverride,250000
;   overridePrinterModels,1
;   printerModelsOverride
;   startingGcode,G28 ; home all axes,G1 Z0.2 F3000 ; get ready to prime,G92 E0 ; reset extrusion distance,G1 X100 E10 F600 ; prime nozzle
;   layerChangeGcode,
;   retractionGcode,
;   toolChangeGcode,
;   endingGcode,G28 X0 ; home x axis,M106 S0 ; turn off cooling fan,M104 S0 ; turn off extruder,M140 S0 ; turn off bed,M84 ; disable motors
;   exportFileFormat,gcode
;   celebration,0
;   celebrationSong,Funky Town
;   postProcessing,
;   defaultSpeed,3000
;   outlineUnderspeed,0.5
;   solidInfillUnderspeed,0.8
;   supportUnderspeed,0.8
;   rapidXYspeed,4800
;   rapidZspeed,1002
;   minBridgingArea,5
;   bridgingExtraInflation,2
;   bridgingExtrusionMultiplier,1
;   bridgingSpeedMultiplier,1
;   useFixedBridgingAngle,1
;   fixedBridgingAngle,0
;   applyBridgingToPerimeters,0
;   filamentDiameters,1.75|1.75|1.75|1.75|1.75|1.75
;   filamentPricesPerKg,46|46|46|46|46|46
;   filamentDensities,1.25|1.25|1.25|1.25|1.25|1.25
;   useMinPrintHeight,0
;   minPrintHeight,0
;   useMaxPrintHeight,0
;   maxPrintHeight,10
;   useDiaphragm,0
;   diaphragmLayerInterval,20
;   robustSlicing,1
;   mergeAllIntoSolid,0
;   onlyRetractWhenCrossingOutline,1
;   retractBetweenLayers,1
;   useRetractionMinTravel,0
;   retractionMinTravel,3
;   retractWhileWiping,0
;   onlyWipeOutlines,1
;   avoidCrossingOutline,0
;   maxMovementDetourFactor,3
;   toolChangeRetractionDistance,12
;   toolChangeExtraRestartDistance,-0.5
;   toolChangeRetractionSpeed,600
;   externalThinWallType,0
;   internalThinWallType,2
;   thinWallAllowedOverlapPercentage,10
;   singleExtrusionMinLength,1
;   singleExtrusionMinPrintingWidthPercentage,50
;   singleExtrusionMaxPrintingWidthPercentage,200
;   singleExtrusionEndpointExtension,0.2
;   horizontalSizeCompensation,0
G90
M82
M106 S0
M140 S100
M190 S100
M104 S200 T0
M109 S200 T0
G28 ; home all axes
G1 Z0.2 F3000 ; get ready to prime
G92 E0 ; reset extrusion distance
G1 X100 E10 F600 ; prime nozzle
; process Process1
; layer 1, Z = 0.240
T0
G92 E0.0000
G1 E-5.0000 F4800
; feature skirt
; tool H0.240 W0.600
G1 Z0.240 F1002
G1 X129.809 Y68.141 F4800
G1 E-0.1000 F4800
G92 E0.0000
G1 X131.449 Y66.501 E0.1458 F1500
G1 X248.764 Y66.501 E7.5204
G1 X250.402 Y68.130 E7.6657
G1 X250.436 Y74.288 E8.0528
G1 X250.436 Y74.304 E8.0538
G1 X250.403 Y80.471 E8.4415
G1 X248.764 Y82.101 E8.5867
G1 X131.449 Y82.101 E15.9614
G1 X129.809 Y80.460 E16.1072
G1 X129.809 Y68.141 E16.8816
G92 E0.0000
G1 E-5.0000 F4800
G1 X130.409 Y68.389 F4800
G1 E-0.1000 F4800
G92 E0.0000
G1 X131.698 Y67.101 E0.1146 F1500
G1 X248.517 Y67.101 E7.4580
G1 X249.804 Y68.381 E7.5721
G1 X249.836 Y74.290 E7.9436
G1 X249.836 Y74.302 E7.9444
G1 X249.804 Y80.220 E8.3164
G1 X248.517 Y81.501 E8.4305
G1 X131.698 Y81.501 E15.7740
G1 X130.409 Y80.212 E15.8885
G1 X130.409 Y68.389 E16.6317
G92 E0.0000
G1 E-5.0000 F4800
G1 X131.009 Y68.638 F4800
G1 E-0.1000 F4800
G92 E0.0000
G1 X131.946 Y67.701 E0.0833 F1500
G1 X248.269 Y67.701 E7.3956
G1 X249.205 Y68.632 E7.4786
G1 X249.236 Y74.292 E7.8344
G1 X249.236 Y74.300 E7.8349
G1 X249.205 Y79.970 E8.1913
G1 X248.269 Y80.901 E8.2743
G1 X131.946 Y80.901 E15.5866
G1 X131.009 Y79.963 E15.6699
G1 X131.009 Y68.638 E16.3818
G92 E0.0000
G1 E-5.0000 F4800
G1 X131.609 Y68.886 F4800
G1 E-0.1000 F4800
G92 E0.0000
G1 X132.195 Y68.301 E0.0521 F1500
G1 X248.021 Y68.301 E7.3331
G1 X248.607 Y68.883 E7.3850
G1 X248.636 Y74.293 E7.7252
G1 X248.636 Y74.299 E7.7255
G1 X248.607 Y79.719 E8.0662
G1 X248.021 Y80.301 E8.1181
G1 X132.195 Y80.301 E15.3991
G1 X131.609 Y79.715 E15.4512
G1 X131.609 Y68.886 E16.1319
G92 E0.0000
G1 E-5.0000 F4800
G1 X132.209 Y69.135 F4800
G1 E-0.1000 F4800
G92 E0.0000
G1 X132.443 Y68.901 E0.0208 F1500
G1 X247.774 Y68.901 E7.2707
G1 X248.008 Y69.133 E7.2915
G1 X248.036 Y74.297 E7.6161
G1 X248.008 Y79.468 E7.9411
G1 X247.774 Y79.701 E7.9619
G1 X132.443 Y79.701 E15.2117
G1 X132.209 Y79.466 E15.2326
G1 X132.209 Y69.135 E15.8820
G92 E0.0000
G1 E-5.0000 F4800
; feature outer perimeter
G1 X132.909 Y69.601 F4800
G1 E-0.1000 F4800
G92 E0.0000
G1 X247.310 Y69.601 E7.1915 F750
G1 X247.336 Y74.296 E7.4866
G1 X247.310 Y79.001 E7.7824
G1 X132.909 Y79.001 E14.9739
G1 X132.909 Y69.601 E15.5648
; feature inner perimeter
G1 X133.509 Y70.201 F4800
G92 E0.0000
G1 X246.714 Y70.201 E7.1162 F1125
G1 X246.736 Y74.296 E7.3737
G1 X246.714 Y78.401 E7.6317
G1 X133.509 Y78.401 E14.7480
G1 X133.509 Y70.201 E15.2634
G1 X134.109 Y70.801 F4800
G92 E0.0000
G1 X246.117 Y70.801 E7.0410 F1125
G1 X246.136 Y74.296 E7.2608
G1 X246.117 Y77.801 E7.4811
G1 X134.109 Y77.801 E14.5221
G1 X134.109 Y70.801 E14.9621
G1 X134.709 Y71.401 F4800
G92 E0.0000
G1 X245.520 Y71.401 E6.9658 F1125
G1 X245.536 Y74.296 E7.1478
G1 X245.520 Y77.201 E7.3304
G1 X134.709 Y77.201 E14.2962
G1 X134.709 Y71.401 E14.6608
G1 X135.309 Y72.001 F4800
G92 E0.0000
G1 X244.924 Y72.001 E6.8906 F1125
G1 X244.936 Y74.296 E7.0349
G1 X244.924 Y76.601 E7.1797
G1 X135.309 Y76.601 E14.0703
G1 X135.309 Y72.001 E14.3595
; feature solid layer
G1 X135.819 Y75.387 F4800
G92 E0.0000
G1 X136.523 Y76.091 E0.0626 F1200
G1 X137.371 Y76.091 E0.1159
G1 X135.819 Y74.538 E0.2539
G1 X135.819 Y73.690 E0.3072
G1 X138.220 Y76.091 E0.5207
G1 X139.068 Y76.091 E0.5740
G1 X135.819 Y72.841 E0.8629
G1 X135.819 Y72.511 E0.8837
G1 X136.337 Y72.511 E0.9162
G1 X139.917 Y76.091 E1.2345
G1 X140.765 Y76.091 E1.2878
G1 X137.185 Y72.511 E1.6061
G1 X138.034 Y72.511 E1.6594
G1 X141.614 Y76.091 E1.9777
G1 X142.462 Y76.091 E2.0310
G1 X138.882 Y72.511 E2.3493
G1 X139.731 Y72.511 E2.4026
G1 X143.311 Y76.091 E2.7209
G1 X144.159 Y76.091 E2.7742
G1 X140.579 Y72.511 E3.0925
G1 X141.428 Y72.511 E3.1458
G1 X145.008 Y76.091 E3.4641
G1 X145.856 Y76.091 E3.5174
G1 X142.276 Y72.511 E3.8357
G1 X143.125 Y72.511 E3.8890
G1 X146.705 Y76.091 E4.2073
G1 X147.553 Y76.091 E4.2606
G1 X143.973 Y72.511 E4.5789
G1 X144.822 Y72.511 E4.6322
G1 X148.402 Y76.091 E4.9505
G1 X149.250 Y76.091 E5.0038
G1 X145.670 Y72.511 E5.3221
G1 X146.519 Y72.511 E5.3754
G1 X150.099 Y76.091 E5.6937
G1 X150.948 Y76.091 E5.7470
G1 X147.368 Y72.511 E6.0653
G1 X148.216 Y72.511 E6.1186
G1 X151.796 Y76.091 E6.4369
G1 X152.645 Y76.091 E6.4902
G1 X149.065 Y72.511 E6.8085
G1 X149.913 Y72.511 E6.8618
G1 X153.493 Y76.091 E7.1801
G1 X154.342 Y76.091 E7.2334
G1 X150.762 Y72.511 E7.5517
G1 X151.610 Y72.511 E7.6050
G1 X155.190 Y76.091 E7.9233
G1 X156.039 Y76.091 E7.9766
G1 X152.459 Y72.511 E8.2949
G1 X153.307 Y72.511 E8.3482
G1 X156.887 Y76.091 E8.6665
G1 X157.736 Y76.091 E8.7198
G1 X154.156 Y72.511 E9.0381
G1 X155.004 Y72.511 E9.0914
G1 X158.584 Y76.091 E9.4097
G1 X159.433 Y76.091 E9.4630
G1 X155.853 Y72.511 E9.7813
G1 X156.701 Y72.511 E9.8346
G1 X160.281 Y76.091 E10.1529
G1 X161.130 Y76.091 E10.2062
G1 X157.550 Y72.511 E10.5245
G1 X158.398 Y72.511 E10.5778
G1 X161.978 Y76.091 E10.8961
G1 X162.827 Y76.091 E10.9494
G1 X159.247 Y72.511 E11.2677
G1 X160.095 Y72.511 E11.3210
G1 X163.675 Y76.091 E11.6393
G1 X164.524 Y76.091 E11.6926
G1 X160.944 Y72.511 E12.0109
G1 X161.793 Y72.511 E12.0642
G1 X165.373 Y76.091 E12.3825
G1 X166.221 Y76.091 E12.4358
G1 X162.641 Y72.511 E12.7541
G1 X163.490 Y72.511 E12.8074
G1 X167.070 Y76.091 E13.1257
G1 X167.918 Y76.091 E13.1790
G1 X164.338 Y72.511 E13.4973
G1 X165.187 Y72.511 E13.5506
G1 X168.767 Y76.091 E13.8689
G1 X169.615 Y76.091 E13.9222
G1 X166.035 Y72.511 E14.2405
G1 X166.884 Y72.511 E14.2938
G1 X170.464 Y76.091 E14.6121
G1 X171.312 Y76.091 E14.6654
G1 X167.732 Y72.511 E14.9837
G1 X168.581 Y72.511 E15.0371
G1 X172.161 Y76.091 E15.3553
G1 X173.009 Y76.091 E15.4087
G1 X169.429 Y72.511 E15.7269
G1 X170.278 Y72.511 E15.7803
G1 X173.858 Y76.091 E16.0985
G1 X174.706 Y76.091 E16.1519
G1 X171.126 Y72.511 E16.4701
G1 X171.975 Y72.511 E16.5235
G1 X175.555 Y76.091 E16.8417
G1 X176.403 Y76.091 E16.8951
G1 X172.823 Y72.511 E17.2133
G1 X173.672 Y72.511 E17.2667
G1 X177.252 Y76.091 E17.5849
G1 X178.100 Y76.091 E17.6383
G1 X174.520 Y72.511 E17.9565
G1 X175.369 Y72.511 E18.0099
G1 X178.949 Y76.091 E18.3281
G1 X179.797 Y76.091 E18.3815
G1 X176.217 Y72.511 E18.6997
G1 X177.066 Y72.511 E18.7531
G1 X180.646 Y76.091 E19.0713
G1 X181.495 Y76.091 E19.1247
G1 X177.915 Y72.511 E19.4429
G1 X178.763 Y72.511 E19.4963
G1 X182.343 Y76.091 E19.8145
G1 X183.192 Y76.091 E19.8679
G1 X179.612 Y72.511 E20.1861
G1 X180.460 Y72.511 E20.2395
G1 X184.040 Y76.091 E20.5577
G1 X184.889 Y76.091 E20.6111
G1 X181.309 Y72.511 E20.9293
G1 X182.157 Y72.511 E20.9827
G1 X185.737 Y76.091 E21.3009
G1 X186.586 Y76.091 E21.3543
G1 X183.006 Y72.511 E21.6725
G1 X183.854 Y72.511 E21.7259
G1 X187.434 Y76.091 E22.0441
G1 X188.283 Y76.091 E22.0975
G1 X184.703 Y72.511 E22.4157
G1 X185.551 Y72.511 E22.4691
G1 X189.131 Y76.091 E22.7873
G1 X189.980 Y76.091 E22.8407
G1 X186.400 Y72.511 E23.1589
G1 X187.248 Y72.511 E23.2123
G1 X190.828 Y76.091 E23.5305
G1 X191.677 Y76.091 E23.5839
G1 X188.097 Y72.511 E23.9021
G1 X188.945 Y72.511 E23.9555
G1 X192.525 Y76.091 E24.2737
G1 X193.374 Y76.091 E24.3271
G1 X189.794 Y72.511 E24.6453
G1 X190.642 Y72.511 E24.6987
G1 X194.222 Y76.091 E25.0169
G1 X195.071 Y76.091 E25.0703
G1 X191.491 Y72.511 E25.3885
G1 X192.340 Y72.511 E25.4419
G1 X195.920 Y76.091 E25.7601
G1 X196.768 Y76.091 E25.8135
G1 X193.188 Y72.511 E26.1317
G1 X194.037 Y72.511 E26.1851
G1 X197.617 Y76.091 E26.5033
G1 X198.465 Y76.091 E26.5567
G1 X194.885 Y72.511 E26.8749
G1 X195.734 Y72.511 E26.9283
G1 X199.314 Y76.091 E27.2466
G1 X200.162 Y76.091 E27.2999
G1 X196.582 Y72.511 E27.6182
G1 X197.431 Y72.511 E27.6715
G1 X201.011 Y76.091 E27.9898
G1 X201.859 Y76.091 E28.0431
G1 X198.279 Y72.511 E28.3614
G1 X199.128 Y72.511 E28.4147
G1 X202.708 Y76.091 E28.7330
G1 X203.556 Y76.091 E28.7863
G1 X199.976 Y72.511 E29.1046
G1 X200.825 Y72.511 E29.1579
G1 X204.405 Y76.091 E29.4762
G1 X205.253 Y76.091 E29.5295
G1 X201.673 Y72.511 E29.8478
G1 X202.522 Y72.511 E29.9011
G1 X206.102 Y76.091 E30.2194
G1 X206.950 Y76.091 E30.2727
G1 X203.370 Y72.511 E30.5910
G1 X204.219 Y72.511 E30.6443
G1 X207.799 Y76.091 E30.9626
G1 X208.647 Y76.091 E31.0159
G1 X205.067 Y72.511 E31.3342
G1 X205.916 Y72.511 E31.3875
G1 X209.496 Y76.091 E31.7058
G1 X210.345 Y76.091 E31.7591
G1 X206.765 Y72.511 E32.0774
G1 X207.613 Y72.511 E32.1307
G1 X211.193 Y76.091 E32.4490
G1 X212.042 Y76.091 E32.5023
G1 X208.462 Y72.511 E32.8206
G1 X209.310 Y72.511 E32.8739
G1 X212.890 Y76.091 E33.1922
G1 X213.739 Y76.091 E33.2455
G1 X210.159 Y72.511 E33.5638
G1 X211.007 Y72.511 E33.6171
G1 X214.587 Y76.091 E33.9354
G1 X215.436 Y76.091 E33.9887
G1 X211.856 Y72.511 E34.3070
G1 X212.704 Y72.511 E34.3603
G1 X216.284 Y76.091 E34.6786
G1 X217.133 Y76.091 E34.7319
G1 X213.553 Y72.511 E35.0502
G1 X214.401 Y72.511 E35.1035
G1 X217.981 Y76.091 E35.4218
G1 X218.830 Y76.091 E35.4751
G1 X215.250 Y72.511 E35.7934
G1 X216.098 Y72.511 E35.8467
G1 X219.678 Y76.091 E36.1650
G1 X220.527 Y76.091 E36.2183
G1 X216.947 Y72.511 E36.5366
G1 X217.795 Y72.511 E36.5899
G1 X221.375 Y76.091 E36.9082
G1 X222.224 Y76.091 E36.9615
G1 X218.644 Y72.511 E37.2798
G1 X219.492 Y72.511 E37.3331
G1 X223.072 Y76.091 E37.6514
G1 X223.921 Y76.091 E37.7047
G1 X220.341 Y72.511 E38.0230
G1 X221.189 Y72.511 E38.0763
G1 X224.769 Y76.091 E38.3946
G1 X225.618 Y76.091 E38.4479
G1 X222.038 Y72.511 E38.7662
G1 X222.887 Y72.511 E38.8195
G1 X226.467 Y76.091 E39.1378
G1 X227.315 Y76.091 E39.1911
G1 X223.735 Y72.511 E39.5094
G1 X224.584 Y72.511 E39.5627
G1 X228.164 Y76.091 E39.8810
G1 X229.012 Y76.091 E39.9343
G1 X225.432 Y72.511 E40.2526
G1 X226.281 Y72.511 E40.3059
G1 X229.861 Y76.091 E40.6242
G1 X230.709 Y76.091 E40.6775
G1 X227.129 Y72.511 E40.9958
G1 X227.978 Y72.511 E41.0491
G1 X231.558 Y76.091 E41.3674
G1 X232.406 Y76.091 E41.4207
G1 X228.826 Y72.511 E41.7390
G1 X229.675 Y72.511 E41.7923
G1 X233.255 Y76.091 E42.1106
G1 X234.103 Y76.091 E42.1639
G1 X230.523 Y72.511 E42.4822
G1 X231.372 Y72.511 E42.5355
G1 X234.952 Y76.091 E42.8538
G1 X235.800 Y76.091 E42.9071
G1 X232.220 Y72.511 E43.2254
G1 X233.069 Y72.511 E43.2787
G1 X236.649 Y76.091 E43.5970
G1 X237.497 Y76.091 E43.6503
G1 X233.917 Y72.511 E43.9686
G1 X234.766 Y72.511 E44.0219
G1 X238.346 Y76.091 E44.3402
G1 X239.194 Y76.091 E44.3935
G1 X235.614 Y72.511 E44.7118
G1 X236.463 Y72.511 E44.7651
G1 X240.043 Y76.091 E45.0834
G1 X240.892 Y76.091 E45.1367
G1 X237.312 Y72.511 E45.4550
G1 X238.160 Y72.511 E45.5083
G1 X241.740 Y76.091 E45.8266
G1 X242.589 Y76.091 E45.8799
