; G-Code generated by Simplify3D(R) Version 4.1.2
; Jun 6, 2020 at 1:30:13 PM
; Settings Summary
;   processName,Process1
;   applyToModels,DecMotorArm
;   profileName,X5S-PLA-Spring (modified)
;   profileVersion,2020-06-05 15:38:56
;   baseProfile,TRONXY X5S
;   printMaterial,PLA
;   printQuality,Medium
;   printExtruders,
;   extruderName,Primary Extruder
;   extruderToolheadNumber,0
;   extruderDiameter,0.4
;   extruderAutoWidth,0
;   extruderWidth,0.4
;   extrusionMultiplier,1.05
;   extruderUseRetract,1
;   extruderRetractionDistance,5
;   extruderExtraRestartDistance,-0.1
;   extruderRetractionZLift,0
;   extruderRetractionSpeed,4800
;   extruderUseCoasting,0
;   extruderCoastingDistance,0.2
;   extruderUseWipe,0
;   extruderWipeDistance,5
;   primaryExtruder,0
;   layerHeight,0.2
;   topSolidLayers,3
;   bottomSolidLayers,3
;   perimeterOutlines,5
;   printPerimetersInsideOut,0
;   startPointOption,2
;   startPointOriginX,0
;   startPointOriginY,0
;   sequentialIslands,0
;   spiralVaseMode,0
;   firstLayerHeightPercentage,120
;   firstLayerWidthPercentage,150
;   firstLayerUnderspeed,0.5
;   useRaft,0
;   raftExtruder,0
;   raftTopLayers,3
;   raftBaseLayers,2
;   raftOffset,0
;   raftSeparationDistance,0
;   raftTopInfill,100
;   aboveRaftSpeedMultiplier,0.3
;   useSkirt,1
;   skirtExtruder,0
;   skirtLayers,1
;   skirtOutlines,5
;   skirtOffset,0.1
;   usePrimePillar,0
;   primePillarExtruder,999
;   primePillarWidth,12
;   primePillarLocation,7
;   primePillarSpeedMultiplier,1
;   useOozeShield,0
;   oozeShieldExtruder,999
;   oozeShieldOffset,2
;   oozeShieldOutlines,1
;   oozeShieldSidewallShape,1
;   oozeShieldSidewallAngle,30
;   oozeShieldSpeedMultiplier,1
;   infillExtruder,0
;   internalInfillPattern,Rectilinear
;   externalInfillPattern,Rectilinear
;   infillPercentage,10
;   outlineOverlapPercentage,15
;   infillExtrusionWidthPercentage,100
;   minInfillLength,5
;   infillLayerInterval,1
;   internalInfillAngles,45,-45
;   overlapInternalInfillAngles,0
;   externalInfillAngles,45,-45
;   generateSupport,1
;   supportExtruder,0
;   supportInfillPercentage,30
;   supportExtraInflation,0
;   supportBaseLayers,1
;   denseSupportExtruder,0
;   denseSupportLayers,0
;   denseSupportInfillPercentage,70
;   supportLayerInterval,1
;   supportHorizontalPartOffset,0.3
;   supportUpperSeparationLayers,1
;   supportLowerSeparationLayers,1
;   supportType,0
;   supportGridSpacing,3
;   maxOverhangAngle,70
;   supportAngles,0
;   temperatureName,Primary Extruder,Heated Bed
;   temperatureNumber,0,0
;   temperatureSetpointCount,1,1
;   temperatureSetpointLayers,1,1
;   temperatureSetpointTemperatures,200,100
;   temperatureStabilizeAtStartup,1,1
;   temperatureHeatedBed,0,1
;   fanLayers,1,2
;   fanSpeeds,0,50
;   blipFanToFullPower,0
;   adjustSpeedForCooling,1
;   minSpeedLayerTime,15
;   minCoolingSpeedSlowdown,20
;   increaseFanForCooling,0
;   minFanLayerTime,45
;   maxCoolingFanSpeed,100
;   increaseFanForBridging,0
;   bridgingFanSpeed,100
;   use5D,1
;   relativeEdistances,0
;   allowEaxisZeroing,1
;   independentExtruderAxes,0
;   includeM10123,0
;   stickySupport,1
;   applyToolheadOffsets,0
;   gcodeXoffset,0
;   gcodeYoffset,0
;   gcodeZoffset,0
;   overrideMachineDefinition,1
;   machineTypeOverride,0
;   strokeXoverride,330
;   strokeYoverride,330
;   strokeZoverride,400
;   originOffsetXoverride,0
;   originOffsetYoverride,0
;   originOffsetZoverride,0
;   homeXdirOverride,-1
;   homeYdirOverride,-1
;   homeZdirOverride,-1
;   flipXoverride,1
;   flipYoverride,-1
;   flipZoverride,1
;   toolheadOffsets,0,0|0,0|0,0|0,0|0,0|0,0
;   overrideFirmwareConfiguration,1
;   firmwareTypeOverride,RepRap (Marlin/Repetier/Sprinter)
;   GPXconfigOverride,r2
;   baudRateOverride,250000
;   overridePrinterModels,1
;   printerModelsOverride
;   startingGcode,G28 ; home all axes,G1 Z0.2 F3000 ; get ready to prime,G92 E0 ; reset extrusion distance,G1 X100 E10 F600 ; prime nozzle
;   layerChangeGcode,
;   retractionGcode,
;   toolChangeGcode,
;   endingGcode,G28 X0 ; home x axis,M106 S0 ; turn off cooling fan,M104 S0 ; turn off extruder,M140 S0 ; turn off bed,M84 ; disable motors
;   exportFileFormat,gcode
;   celebration,0
;   celebrationSong,Funky Town
;   postProcessing,
;   defaultSpeed,3000
;   outlineUnderspeed,0.5
;   solidInfillUnderspeed,0.8
;   supportUnderspeed,0.8
;   rapidXYspeed,4800
;   rapidZspeed,1002
;   minBridgingArea,5
;   bridgingExtraInflation,2
;   bridgingExtrusionMultiplier,1
;   bridgingSpeedMultiplier,1
;   useFixedBridgingAngle,1
;   fixedBridgingAngle,0
;   applyBridgingToPerimeters,0
;   filamentDiameters,1.75|1.75|1.75|1.75|1.75|1.75
;   filamentPricesPerKg,46|46|46|46|46|46
;   filamentDensities,1.25|1.25|1.25|1.25|1.25|1.25
;   useMinPrintHeight,0
;   minPrintHeight,0
;   useMaxPrintHeight,0
;   maxPrintHeight,10
;   useDiaphragm,0
;   diaphragmLayerInterval,20
;   robustSlicing,1
;   mergeAllIntoSolid,0
;   onlyRetractWhenCrossingOutline,1
;   retractBetweenLayers,1
;   useRetractionMinTravel,0
;   retractionMinTravel,3
;   retractWhileWiping,0
;   onlyWipeOutlines,1
;   avoidCrossingOutline,0
;   maxMovementDetourFactor,3
;   toolChangeRetractionDistance,12
;   toolChangeExtraRestartDistance,-0.5
;   toolChangeRetractionSpeed,600
;   externalThinWallType,0
;   internalThinWallType,2
;   thinWallAllowedOverlapPercentage,10
;   singleExtrusionMinLength,1
;   singleExtrusionMinPrintingWidthPercentage,50
;   singleExtrusionMaxPrintingWidthPercentage,200
;   singleExtrusionEndpointExtension,0.2
;   horizontalSizeCompensation,0
G90
M82
M106 S0
M140 S100
M190 S100
M104 S200 T0
M109 S200 T0
G28 ; home all axes
G1 Z0.2 F3000 ; get ready to prime
G92 E0 ; reset extrusion distance
G1 X100 E10 F600 ; prime nozzle
; process Process1
; layer 1, Z = 0.240
T0
G92 E0.0000
G1 E-5.0000 F4800
; feature skirt
; tool H0.240 W0.600
G1 Z0.240 F1002
G1 X129.267 Y104.139 F4800
G1 E-0.1000 F4800
G92 E0.0000
G1 X130.693 Y102.545 E0.1344 F1500
G1 X133.267 Y102.256 E0.2973
G1 X133.315 Y102.252 E0.3003
G1 X134.857 Y102.132 E0.3975
G1 X134.904 Y102.129 E0.4005
G1 X136.451 Y102.061 E0.4978
G1 X136.498 Y102.060 E0.5008
G1 X138.046 Y102.044 E0.5981
G1 X138.093 Y102.045 E0.6010
G1 X139.611 Y102.080 E0.6965
G1 X139.658 Y102.081 E0.6994
G1 X141.205 Y102.169 E0.7969
G1 X141.252 Y102.172 E0.7998
G1 X142.791 Y102.311 E0.8969
G1 X142.838 Y102.316 E0.8999
G1 X144.365 Y102.507 E0.9966
G1 X144.412 Y102.514 E0.9997
G1 X145.926 Y102.755 E1.0960
G1 X145.973 Y102.764 E1.0990
G1 X147.469 Y103.057 E1.1949
G1 X147.517 Y103.067 E1.1980
G1 X148.990 Y103.409 E1.2930
G1 X149.039 Y103.421 E1.2961
G1 X150.488 Y103.813 E1.3905
G1 X150.537 Y103.827 E1.3937
G1 X151.961 Y104.267 E1.4874
G1 X152.009 Y104.283 E1.4906
G1 X153.374 Y104.761 E1.5815
G1 X153.423 Y104.779 E1.5848
G1 X154.794 Y105.317 E1.6774
G1 X154.844 Y105.338 E1.6808
G1 X156.175 Y105.921 E1.7721
G1 X156.225 Y105.944 E1.7756
G1 X157.516 Y106.571 E1.8658
G1 X157.567 Y106.597 E1.8694
G1 X158.811 Y107.267 E1.9582
G1 X158.863 Y107.296 E1.9619
G1 X160.065 Y108.008 E2.0498
G1 X160.116 Y108.040 E2.0536
G1 X161.268 Y108.793 E2.1401
G1 X161.319 Y108.828 E2.1440
G1 X162.401 Y109.604 E2.2277
G1 X162.452 Y109.642 E2.2317
G1 X163.505 Y110.473 E2.3160
G1 X163.556 Y110.516 E2.3202
G1 X164.552 Y111.382 E2.4032
G1 X164.603 Y111.428 E2.4075
G1 X165.543 Y112.330 E2.4894
G1 X165.593 Y112.381 E2.4939
G1 X166.473 Y113.315 E2.5746
G1 X166.522 Y113.370 E2.5792
G1 X167.339 Y114.336 E2.6587
G1 X167.387 Y114.395 E2.6635
G1 X168.146 Y115.399 E2.7426
G1 X168.203 Y115.479 E2.7488
G1 X169.193 Y116.999 E2.8628
G1 X169.246 Y117.087 E2.8692
G1 X169.835 Y118.154 E2.9459
G1 X169.874 Y118.230 E2.9512
G1 X170.334 Y119.197 E3.0185
G1 X189.419 Y119.197 E4.2182
G1 X189.615 Y119.181 E4.2306
G1 X190.280 Y119.001 E4.2739
G1 X190.911 Y118.976 E4.3136
G1 X191.691 Y119.122 E4.3635
G1 X192.350 Y119.186 E4.4052
G1 X196.572 Y119.201 E4.6705
G1 X198.206 Y120.840 E4.8160
G1 X198.206 Y133.156 E5.5903
G1 X196.565 Y134.797 E5.7361
G1 X192.715 Y134.797 E5.9781
G1 X192.172 Y134.818 E6.0123
G1 X190.669 Y135.015 E6.1076
G1 X190.106 Y134.797 E6.1455
G1 X170.328 Y134.797 E7.3888
G1 X170.154 Y135.195 E7.4161
G1 X170.117 Y135.273 E7.4216
G1 X169.567 Y136.343 E7.4972
G1 X169.527 Y136.415 E7.5024
G1 X168.916 Y137.448 E7.5778
G1 X168.873 Y137.517 E7.5829
G1 X168.186 Y138.538 E7.6603
G1 X168.140 Y138.603 E7.6652
G1 X167.387 Y139.597 E7.7437
G1 X167.339 Y139.657 E7.7485
G1 X166.522 Y140.623 E7.8280
G1 X166.473 Y140.678 E7.8326
G1 X165.593 Y141.612 E7.9133
G1 X165.543 Y141.663 E7.9178
G1 X164.604 Y142.564 E7.9996
G1 X164.554 Y142.610 E8.0039
G1 X163.557 Y143.477 E8.0869
G1 X163.506 Y143.519 E8.0911
G1 X162.451 Y144.351 E8.1755
G1 X162.400 Y144.389 E8.1795
G1 X161.317 Y145.167 E8.2634
G1 X161.266 Y145.202 E8.2672
G1 X160.115 Y145.953 E8.3537
G1 X160.064 Y145.985 E8.3575
G1 X158.863 Y146.698 E8.4453
G1 X158.811 Y146.726 E8.4489
G1 X157.565 Y147.396 E8.5379
G1 X157.515 Y147.422 E8.5415
G1 X156.225 Y148.049 E8.6316
G1 X156.175 Y148.073 E8.6351
G1 X154.843 Y148.656 E8.7264
G1 X154.793 Y148.677 E8.7299
G1 X153.423 Y149.214 E8.8224
G1 X153.374 Y149.232 E8.8257
G1 X151.995 Y149.715 E8.9175
G1 X151.946 Y149.731 E8.9207
G1 X150.537 Y150.166 E9.0134
G1 X150.489 Y150.180 E9.0166
G1 X149.037 Y150.573 E9.1112
G1 X148.988 Y150.585 E9.1143
G1 X147.517 Y150.926 E9.2092
G1 X147.469 Y150.937 E9.2123
G1 X145.971 Y151.229 E9.3083
G1 X145.924 Y151.238 E9.3113
G1 X144.411 Y151.480 E9.4076
G1 X144.364 Y151.486 E9.4106
G1 X142.839 Y151.677 E9.5072
G1 X142.792 Y151.682 E9.5102
G1 X141.255 Y151.821 E9.6072
G1 X141.207 Y151.824 E9.6102
G1 X139.659 Y151.912 E9.7077
G1 X139.612 Y151.913 E9.7106
G1 X138.093 Y151.948 E9.8062
G1 X138.046 Y151.949 E9.8091
G1 X136.498 Y151.933 E9.9064
G1 X136.451 Y151.932 E9.9093
G1 X134.905 Y151.864 E10.0067
G1 X134.858 Y151.861 E10.0096
G1 X133.315 Y151.741 E10.1069
G1 X133.267 Y151.737 E10.1099
G1 X130.693 Y151.448 E10.2727
G1 X129.267 Y149.854 E10.4072
G1 X129.267 Y139.354 E11.0672
G1 X131.284 Y137.675 E11.2322
G1 X133.659 Y138.112 E11.3840
G1 X134.698 Y138.259 E11.4500
G1 X135.749 Y138.362 E11.5164
G1 X136.778 Y138.422 E11.5811
G1 X137.843 Y138.440 E11.6481
G1 X138.906 Y138.415 E11.7149
G1 X139.963 Y138.346 E11.7815
G1 X141.012 Y138.235 E11.8478
G1 X142.047 Y138.081 E11.9136
G1 X143.048 Y137.889 E11.9777
G1 X144.047 Y137.653 E12.0422
G1 X145.020 Y137.378 E12.1058
G1 X145.964 Y137.066 E12.1683
G1 X146.877 Y136.716 E12.2297
G1 X147.753 Y136.333 E12.2898
G1 X148.591 Y135.917 E12.3486
G1 X149.377 Y135.477 E12.4053
G1 X150.128 Y135.004 E12.4611
G1 X150.833 Y134.506 E12.5153
G1 X151.487 Y133.986 E12.5679
G1 X152.090 Y133.447 E12.6187
G1 X152.640 Y132.892 E12.6678
G1 X153.131 Y132.329 E12.7148
G1 X153.574 Y131.749 E12.7606
G1 X153.961 Y131.163 E12.8048
G1 X154.295 Y130.571 E12.8475
G1 X154.574 Y129.975 E12.8889
G1 X154.800 Y129.378 E12.9290
G1 X154.973 Y128.787 E12.9677
G1 X155.097 Y128.189 E13.0061
G1 X155.172 Y127.593 E13.0439
G1 X155.196 Y126.997 E13.0814
G1 X155.172 Y126.400 E13.1189
G1 X155.097 Y125.804 E13.1567
G1 X154.973 Y125.206 E13.1951
G1 X154.800 Y124.615 E13.2338
G1 X154.574 Y124.018 E13.2740
G1 X154.295 Y123.423 E13.3153
G1 X153.961 Y122.830 E13.3580
G1 X153.574 Y122.244 E13.4022
G1 X153.131 Y121.664 E13.4480
G1 X152.641 Y121.102 E13.4950
G1 X152.090 Y120.546 E13.5441
G1 X151.487 Y120.007 E13.5950
G1 X150.833 Y119.487 E13.6475
G1 X150.129 Y118.989 E13.7017
G1 X149.377 Y118.516 E13.7576
G1 X148.591 Y118.076 E13.8142
G1 X147.753 Y117.660 E13.8730
G1 X146.877 Y117.277 E13.9331
G1 X145.964 Y116.927 E13.9945
G1 X145.020 Y116.615 E14.0570
G1 X144.046 Y116.340 E14.1207
G1 X143.048 Y116.104 E14.1851
G1 X142.047 Y115.912 E14.2492
G1 X141.011 Y115.758 E14.3150
G1 X139.963 Y115.647 E14.3813
G1 X138.906 Y115.578 E14.4479
G1 X137.843 Y115.553 E14.5147
G1 X136.778 Y115.571 E14.5817
G1 X135.749 Y115.631 E14.6465
G1 X134.699 Y115.734 E14.7128
G1 X133.659 Y115.881 E14.7788
G1 X131.284 Y116.318 E14.9306
G1 X129.267 Y114.639 E15.0956
G1 X129.267 Y104.139 E15.7556
G92 E0.0000
G1 E-5.0000 F4800
G1 X129.867 Y104.368 F4800
G1 E-0.1000 F4800
G92 E0.0000
G1 X130.987 Y103.116 E0.1056 F1500
G1 X133.329 Y102.853 E0.2538
G1 X133.366 Y102.850 E0.2561
G1 X134.898 Y102.731 E0.3527
G1 X134.935 Y102.728 E0.3550
G1 X136.472 Y102.661 E0.4518
G1 X136.509 Y102.660 E0.4541
G1 X138.048 Y102.644 E0.5508
G1 X138.084 Y102.645 E0.5531
G1 X139.592 Y102.679 E0.6479
G1 X139.629 Y102.681 E0.6502
G1 X141.166 Y102.767 E0.7470
G1 X141.203 Y102.770 E0.7493
G1 X142.731 Y102.908 E0.8458
G1 X142.769 Y102.912 E0.8481
G1 X144.285 Y103.102 E0.9442
G1 X144.323 Y103.107 E0.9466
G1 X145.826 Y103.347 E1.0423
G1 X145.863 Y103.354 E1.0447
G1 X147.349 Y103.644 E1.1398
G1 X147.386 Y103.652 E1.1422
G1 X148.849 Y103.992 E1.2367
G1 X148.887 Y104.002 E1.2391
G1 X150.327 Y104.391 E1.3329
G1 X150.365 Y104.402 E1.3354
G1 X151.778 Y104.839 E1.4284
G1 X151.817 Y104.851 E1.4309
G1 X153.171 Y105.325 E1.5211
G1 X153.209 Y105.340 E1.5236
G1 X154.570 Y105.873 E1.6155
G1 X154.609 Y105.890 E1.6182
G1 X155.929 Y106.468 E1.7088
G1 X155.968 Y106.486 E1.7115
G1 X157.248 Y107.108 E1.8009
G1 X157.288 Y107.129 E1.8037
G1 X158.522 Y107.792 E1.8918
G1 X158.562 Y107.815 E1.8947
G1 X159.753 Y108.521 E1.9818
G1 X159.793 Y108.546 E1.9847
G1 X160.935 Y109.292 E2.0704
G1 X160.975 Y109.319 E2.0735
G1 X162.045 Y110.087 E2.1563
G1 X162.085 Y110.118 E2.1595
G1 X163.127 Y110.940 E2.2429
G1 X163.168 Y110.973 E2.2462
G1 X164.153 Y111.830 E2.3283
G1 X164.193 Y111.866 E2.3317
G1 X165.122 Y112.758 E2.4126
G1 X165.162 Y112.797 E2.4162
G1 X166.031 Y113.721 E2.4959
G1 X166.069 Y113.764 E2.4995
G1 X166.876 Y114.717 E2.5780
G1 X166.914 Y114.764 E2.5818
G1 X167.662 Y115.752 E2.6597
G1 X167.706 Y115.816 E2.6646
G1 X168.685 Y117.317 E2.7772
G1 X168.726 Y117.386 E2.7823
G1 X169.306 Y118.436 E2.8577
G1 X169.336 Y118.496 E2.8619
G1 X169.845 Y119.566 E2.9364
G1 X169.879 Y119.645 E2.9418
G1 X169.937 Y119.797 E2.9520
G1 X189.443 Y119.797 E4.1782
G1 X189.718 Y119.774 E4.1955
G1 X190.371 Y119.598 E4.2381
G1 X190.867 Y119.578 E4.2692
G1 X191.606 Y119.716 E4.3165
G1 X192.320 Y119.786 E4.3616
G1 X196.322 Y119.800 E4.6132
G1 X197.606 Y121.087 E4.7275
G1 X197.606 Y132.908 E5.4705
G1 X196.317 Y134.197 E5.5851
G1 X192.703 Y134.197 E5.8123
G1 X192.121 Y134.219 E5.8488
G1 X190.743 Y134.400 E5.9362
G1 X190.218 Y134.197 E5.9716
G1 X169.936 Y134.197 E7.2466
G1 X169.608 Y134.946 E7.2980
G1 X169.579 Y135.007 E7.3023
G1 X169.037 Y136.060 E7.3767
G1 X169.006 Y136.118 E7.3808
G1 X168.404 Y137.136 E7.4552
G1 X168.370 Y137.189 E7.4592
G1 X167.693 Y138.197 E7.5355
G1 X167.657 Y138.247 E7.5394
G1 X166.914 Y139.229 E7.6168
G1 X166.876 Y139.276 E7.6205
G1 X166.069 Y140.229 E7.6990
G1 X166.031 Y140.272 E7.7027
G1 X165.162 Y141.196 E7.7824
G1 X165.122 Y141.235 E7.7859
G1 X164.194 Y142.126 E7.8668
G1 X164.154 Y142.163 E7.8702
G1 X163.168 Y143.020 E7.9523
G1 X163.128 Y143.053 E7.9556
G1 X162.085 Y143.876 E8.0391
G1 X162.045 Y143.906 E8.0422
G1 X160.973 Y144.675 E8.1252
G1 X160.933 Y144.703 E8.1282
G1 X159.792 Y145.447 E8.2139
G1 X159.752 Y145.472 E8.2168
G1 X158.562 Y146.178 E8.3038
G1 X158.522 Y146.201 E8.3067
G1 X157.287 Y146.865 E8.3949
G1 X157.247 Y146.885 E8.3977
G1 X155.968 Y147.507 E8.4871
G1 X155.929 Y147.525 E8.4898
G1 X154.608 Y148.104 E8.5804
G1 X154.569 Y148.120 E8.5831
G1 X153.209 Y148.654 E8.6749
G1 X153.170 Y148.668 E8.6775
G1 X151.802 Y149.146 E8.7686
G1 X151.764 Y149.159 E8.7712
G1 X150.365 Y149.591 E8.8632
G1 X150.327 Y149.602 E8.8657
G1 X148.886 Y149.992 E8.9595
G1 X148.848 Y150.001 E8.9620
G1 X147.386 Y150.341 E9.0563
G1 X147.349 Y150.349 E9.0587
G1 X145.862 Y150.640 E9.1540
G1 X145.824 Y150.646 E9.1564
G1 X144.322 Y150.886 E9.2520
G1 X144.285 Y150.892 E9.2544
G1 X142.770 Y151.081 E9.3504
G1 X142.732 Y151.085 E9.3527
G1 X141.205 Y151.223 E9.4491
G1 X141.168 Y151.226 E9.4515
G1 X139.630 Y151.312 E9.5483
G1 X139.593 Y151.314 E9.5506
G1 X138.084 Y151.349 E9.6455
G1 X138.048 Y151.349 E9.6478
G1 X136.509 Y151.333 E9.7445
G1 X136.472 Y151.332 E9.7468
G1 X134.936 Y151.265 E9.8435
G1 X134.899 Y151.262 E9.8458
G1 X133.366 Y151.143 E9.9425
