; G-Code generated by Simplify3D(R) Version 4.1.2
; Jun 1, 2020 at 3:12:19 PM
; Settings Summary
;   processName,Process1
;   applyToModels,GearAdapter
;   profileName,X5X-PLA-Leon
;   profileVersion,2020-05-29 15:17:39
;   baseProfile,TRONXY X5S
;   printMaterial,PLA
;   printQuality,Medium
;   printExtruders,
;   extruderName,Primary Extruder
;   extruderToolheadNumber,0
;   extruderDiameter,0.4
;   extruderAutoWidth,0
;   extruderWidth,0.8
;   extrusionMultiplier,1.05
;   extruderUseRetract,1
;   extruderRetractionDistance,5
;   extruderExtraRestartDistance,-0.1
;   extruderRetractionZLift,0
;   extruderRetractionSpeed,4800
;   extruderUseCoasting,0
;   extruderCoastingDistance,0.2
;   extruderUseWipe,0
;   extruderWipeDistance,5
;   primaryExtruder,0
;   layerHeight,0.2
;   topSolidLayers,3
;   bottomSolidLayers,3
;   perimeterOutlines,1
;   printPerimetersInsideOut,0
;   startPointOption,2
;   startPointOriginX,0
;   startPointOriginY,0
;   sequentialIslands,0
;   spiralVaseMode,0
;   firstLayerHeightPercentage,120
;   firstLayerWidthPercentage,150
;   firstLayerUnderspeed,0.5
;   useRaft,0
;   raftExtruder,0
;   raftTopLayers,3
;   raftBaseLayers,2
;   raftOffset,0
;   raftSeparationDistance,0
;   raftTopInfill,100
;   aboveRaftSpeedMultiplier,0.3
;   useSkirt,1
;   skirtExtruder,0
;   skirtLayers,1
;   skirtOutlines,4
;   skirtOffset,0.15
;   usePrimePillar,0
;   primePillarExtruder,999
;   primePillarWidth,12
;   primePillarLocation,7
;   primePillarSpeedMultiplier,1
;   useOozeShield,0
;   oozeShieldExtruder,999
;   oozeShieldOffset,2
;   oozeShieldOutlines,1
;   oozeShieldSidewallShape,1
;   oozeShieldSidewallAngle,30
;   oozeShieldSpeedMultiplier,1
;   infillExtruder,0
;   internalInfillPattern,Rectilinear
;   externalInfillPattern,Rectilinear
;   infillPercentage,20
;   outlineOverlapPercentage,15
;   infillExtrusionWidthPercentage,100
;   minInfillLength,5
;   infillLayerInterval,1
;   internalInfillAngles,45,-45
;   overlapInternalInfillAngles,0
;   externalInfillAngles,45,-45
;   generateSupport,1
;   supportExtruder,0
;   supportInfillPercentage,30
;   supportExtraInflation,0
;   supportBaseLayers,1
;   denseSupportExtruder,0
;   denseSupportLayers,0
;   denseSupportInfillPercentage,70
;   supportLayerInterval,1
;   supportHorizontalPartOffset,0.3
;   supportUpperSeparationLayers,1
;   supportLowerSeparationLayers,1
;   supportType,0
;   supportGridSpacing,3
;   maxOverhangAngle,70
;   supportAngles,0
;   temperatureName,Primary Extruder,Heated Bed
;   temperatureNumber,0,0
;   temperatureSetpointCount,1,1
;   temperatureSetpointLayers,1,1
;   temperatureSetpointTemperatures,200,90
;   temperatureStabilizeAtStartup,1,1
;   temperatureHeatedBed,0,1
;   fanLayers,1,2
;   fanSpeeds,0,50
;   blipFanToFullPower,0
;   adjustSpeedForCooling,1
;   minSpeedLayerTime,15
;   minCoolingSpeedSlowdown,20
;   increaseFanForCooling,0
;   minFanLayerTime,45
;   maxCoolingFanSpeed,100
;   increaseFanForBridging,0
;   bridgingFanSpeed,100
;   use5D,1
;   relativeEdistances,0
;   allowEaxisZeroing,1
;   independentExtruderAxes,0
;   includeM10123,0
;   stickySupport,1
;   applyToolheadOffsets,0
;   gcodeXoffset,0
;   gcodeYoffset,0
;   gcodeZoffset,0
;   overrideMachineDefinition,1
;   machineTypeOverride,0
;   strokeXoverride,330
;   strokeYoverride,330
;   strokeZoverride,400
;   originOffsetXoverride,0
;   originOffsetYoverride,0
;   originOffsetZoverride,0
;   homeXdirOverride,-1
;   homeYdirOverride,-1
;   homeZdirOverride,-1
;   flipXoverride,1
;   flipYoverride,-1
;   flipZoverride,1
;   toolheadOffsets,0,0|0,0|0,0|0,0|0,0|0,0
;   overrideFirmwareConfiguration,1
;   firmwareTypeOverride,RepRap (Marlin/Repetier/Sprinter)
;   GPXconfigOverride,r2
;   baudRateOverride,250000
;   overridePrinterModels,1
;   printerModelsOverride
;   startingGcode,G28 ; home all axes,G1 Z0.2 F3000 ; get ready to prime,G92 E0 ; reset extrusion distance,G1 X100 E10 F600 ; prime nozzle
;   layerChangeGcode,
;   retractionGcode,
;   toolChangeGcode,
;   endingGcode,G28 X0 ; home x axis,M106 S0 ; turn off cooling fan,M104 S0 ; turn off extruder,M140 S0 ; turn off bed,M84 ; disable motors
;   exportFileFormat,gcode
;   celebration,0
;   celebrationSong,Funky Town
;   postProcessing,
;   defaultSpeed,3000
;   outlineUnderspeed,0.5
;   solidInfillUnderspeed,0.8
;   supportUnderspeed,0.8
;   rapidXYspeed,4800
;   rapidZspeed,1002
;   minBridgingArea,5
;   bridgingExtraInflation,2
;   bridgingExtrusionMultiplier,1
;   bridgingSpeedMultiplier,1
;   useFixedBridgingAngle,1
;   fixedBridgingAngle,0
;   applyBridgingToPerimeters,0
;   filamentDiameters,1.75|1.75|1.75|1.75|1.75|1.75
;   filamentPricesPerKg,46|46|46|46|46|46
;   filamentDensities,1.25|1.25|1.25|1.25|1.25|1.25
;   useMinPrintHeight,0
;   minPrintHeight,0
;   useMaxPrintHeight,0
;   maxPrintHeight,10
;   useDiaphragm,0
;   diaphragmLayerInterval,20
;   robustSlicing,1
;   mergeAllIntoSolid,0
;   onlyRetractWhenCrossingOutline,1
;   retractBetweenLayers,1
;   useRetractionMinTravel,0
;   retractionMinTravel,3
;   retractWhileWiping,0
;   onlyWipeOutlines,1
;   avoidCrossingOutline,0
;   maxMovementDetourFactor,3
;   toolChangeRetractionDistance,12
;   toolChangeExtraRestartDistance,-0.5
;   toolChangeRetractionSpeed,600
;   externalThinWallType,0
;   internalThinWallType,2
;   thinWallAllowedOverlapPercentage,10
;   singleExtrusionMinLength,1
;   singleExtrusionMinPrintingWidthPercentage,50
;   singleExtrusionMaxPrintingWidthPercentage,200
;   singleExtrusionEndpointExtension,0.2
;   horizontalSizeCompensation,0
G90
M82
M106 S0
M140 S90
M190 S90
M104 S200 T0
M109 S200 T0
G28 ; home all axes
G1 Z0.2 F3000 ; get ready to prime
G92 E0 ; reset extrusion distance
G1 X100 E10 F600 ; prime nozzle
; process Process1
; layer 1, Z = 0.240
T0
G92 E0.0000
G1 E-5.0000 F4800
; feature skirt
; tool H0.240 W1.200
G1 Z0.240 F1002
G1 X105.789 Y111.649 F4800
G1 E-0.1000 F4800
G92 E0.0000
G1 X106.114 Y111.393 E0.0519 F1500
G1 X107.258 Y110.656 E0.2231
G1 X107.625 Y110.466 E0.2750
G1 X108.887 Y109.958 E0.4461
G1 X109.284 Y109.840 E0.4981
G1 X110.619 Y109.580 E0.6692
G1 X111.030 Y109.539 E0.7211
G1 X112.391 Y109.535 E0.8922
G1 X112.803 Y109.573 E0.9442
G1 X114.140 Y109.826 E1.1153
G1 X114.537 Y109.940 E1.1673
G1 X115.707 Y110.403 E1.3254
G1 X115.895 Y110.488 E1.3513
G1 X165.000 Y135.527 E8.2813
G1 X214.105 Y110.488 E15.2112
G1 X214.293 Y110.403 E15.2372
G1 X215.463 Y109.940 E15.3953
G1 X215.860 Y109.826 E15.4472
G1 X217.197 Y109.573 E15.6183
G1 X217.609 Y109.535 E15.6703
G1 X218.970 Y109.539 E15.8414
G1 X219.381 Y109.580 E15.8934
G1 X220.716 Y109.840 E16.0645
G1 X221.113 Y109.958 E16.1164
G1 X222.375 Y110.466 E16.2875
G1 X222.742 Y110.656 E16.3395
G1 X223.886 Y111.393 E16.5106
G1 X224.211 Y111.649 E16.5625
G1 X225.195 Y112.589 E16.7336
G1 X225.465 Y112.902 E16.7856
G1 X226.255 Y114.011 E16.9567
G1 X226.461 Y114.369 E17.0087
G1 X227.027 Y115.606 E17.1798
G1 X227.162 Y115.997 E17.2317
G1 X227.484 Y117.319 E17.4028
G1 X227.544 Y117.728 E17.4548
G1 X227.610 Y119.087 E17.6259
G1 X227.591 Y119.500 E17.6779
G1 X227.400 Y120.848 E17.8490
G1 X227.304 Y121.249 E17.9009
G1 X226.862 Y122.537 E18.0720
G1 X226.691 Y122.913 E18.1240
G1 X226.014 Y124.094 E18.2951
G1 X225.776 Y124.431 E18.3470
G1 X224.888 Y125.463 E18.5181
G1 X224.590 Y125.749 E18.5701
G1 X223.605 Y126.531 E18.7282
G1 X223.437 Y126.651 E18.7542
G1 X177.200 Y156.658 E25.6841
G1 X174.332 Y211.704 E32.6141
G1 X174.311 Y211.910 E32.6400
G1 X174.127 Y213.154 E32.7981
G1 X174.028 Y213.555 E32.8501
G1 X173.578 Y214.839 E33.0212
G1 X173.406 Y215.215 E33.0731
G1 X172.721 Y216.391 E33.2443
G1 X172.481 Y216.727 E33.2962
G1 X171.587 Y217.754 E33.4673
G1 X171.287 Y218.038 E33.5193
G1 X170.216 Y218.877 E33.6904
G1 X169.868 Y219.100 E33.7423
G1 X168.657 Y219.722 E33.9134
G1 X168.274 Y219.875 E33.9654
G1 X166.967 Y220.257 E34.1365
G1 X166.562 Y220.335 E34.1884
G1 X165.207 Y220.464 E34.3596
G1 X164.793 Y220.464 E34.4115
G1 X163.438 Y220.335 E34.5827
G1 X163.033 Y220.257 E34.6346
G1 X161.726 Y219.875 E34.8057
G1 X161.343 Y219.722 E34.8577
G1 X160.132 Y219.100 E35.0288
G1 X159.784 Y218.877 E35.0807
G1 X158.713 Y218.038 E35.2518
G1 X158.413 Y217.754 E35.3038
G1 X157.519 Y216.727 E35.4749
G1 X157.279 Y216.391 E35.5268
G1 X156.594 Y215.215 E35.6979
G1 X156.422 Y214.839 E35.7499
G1 X155.972 Y213.555 E35.9210
G1 X155.873 Y213.153 E35.9730
G1 X155.689 Y211.910 E36.1310
G1 X155.668 Y211.704 E36.1570
G1 X152.800 Y156.655 E43.0874
G1 X106.563 Y126.652 E50.0170
G1 X106.395 Y126.531 E50.0430
G1 X105.410 Y125.749 E50.2012
G1 X105.112 Y125.463 E50.2531
G1 X104.224 Y124.431 E50.4242
G1 X103.986 Y124.094 E50.4762
G1 X103.309 Y122.913 E50.6473
G1 X103.138 Y122.537 E50.6992
G1 X102.696 Y121.249 E50.8703
G1 X102.600 Y120.848 E50.9223
G1 X102.409 Y119.500 E51.0934
G1 X102.390 Y119.087 E51.1454
G1 X102.456 Y117.728 E51.3165
G1 X102.516 Y117.319 E51.3684
G1 X102.838 Y115.997 E51.5395
G1 X102.973 Y115.606 E51.5915
G1 X103.539 Y114.369 E51.7626
G1 X103.745 Y114.011 E51.8145
G1 X104.535 Y112.902 E51.9857
G1 X104.805 Y112.589 E52.0376
G1 X105.789 Y111.649 E52.2087
G92 E0.0000
G1 E-5.0000 F4800
G1 X106.577 Y112.556 F4800
G1 E-0.1000 F4800
G92 E0.0000
G1 X106.812 Y112.371 E0.0376 F1500
G1 X107.860 Y111.695 E0.1944
G1 X108.126 Y111.558 E0.2320
G1 X109.283 Y111.092 E0.3888
G1 X109.569 Y111.007 E0.4264
G1 X110.793 Y110.768 E0.5832
G1 X111.091 Y110.739 E0.6208
G1 X112.338 Y110.735 E0.7776
G1 X112.636 Y110.763 E0.8152
G1 X113.861 Y110.994 E0.9720
G1 X114.149 Y111.077 E1.0096
G1 X115.239 Y111.508 E1.1570
G1 X115.375 Y111.570 E1.1758
G1 X165.000 Y136.874 E8.1791
G1 X214.625 Y111.570 E15.1824
G1 X214.761 Y111.508 E15.2012
G1 X215.851 Y111.077 E15.3485
G1 X216.139 Y110.994 E15.3861
G1 X217.364 Y110.763 E15.5429
G1 X217.662 Y110.735 E15.5805
G1 X218.909 Y110.739 E15.7373
G1 X219.207 Y110.768 E15.7749
G1 X220.431 Y111.007 E15.9317
G1 X220.717 Y111.092 E15.9693
G1 X221.874 Y111.558 E16.1261
G1 X222.140 Y111.695 E16.1637
G1 X223.188 Y112.371 E16.3205
G1 X223.423 Y112.556 E16.3581
G1 X224.325 Y113.418 E16.5149
G1 X224.521 Y113.644 E16.5525
G1 X225.244 Y114.660 E16.7093
G1 X225.394 Y114.919 E16.7470
G1 X225.912 Y116.053 E16.9037
G1 X226.010 Y116.336 E16.9413
G1 X226.305 Y117.547 E17.0981
G1 X226.348 Y117.844 E17.1357
G1 X226.409 Y119.089 E17.2925
G1 X226.395 Y119.388 E17.3301
G1 X226.220 Y120.623 E17.4869
G1 X226.150 Y120.914 E17.5245
G1 X225.745 Y122.093 E17.6813
G1 X225.622 Y122.366 E17.7189
G1 X225.001 Y123.448 E17.8757
G1 X224.829 Y123.692 E17.9133
G1 X224.016 Y124.637 E18.0701
G1 X223.800 Y124.845 E18.1077
G1 X222.882 Y125.573 E18.2551
G1 X222.760 Y125.660 E18.2739
G1 X176.033 Y155.985 E25.2772
G1 X173.135 Y211.613 E32.2805
G1 X173.120 Y211.762 E32.2993
G1 X172.949 Y212.922 E32.4467
G1 X172.877 Y213.212 E32.4843
G1 X172.465 Y214.389 E32.6410
G1 X172.340 Y214.661 E32.6787
G1 X171.713 Y215.739 E32.8354
G1 X171.538 Y215.982 E32.8731
G1 X170.719 Y216.922 E33.0299
G1 X170.502 Y217.128 E33.0675
G1 X169.521 Y217.897 E33.2243
G1 X169.269 Y218.059 E33.2619
G1 X168.160 Y218.629 E33.4186
G1 X167.882 Y218.739 E33.4563
G1 X166.685 Y219.090 E33.6130
G1 X166.391 Y219.146 E33.6506
G1 X165.150 Y219.264 E33.8074
G1 X164.850 Y219.264 E33.8451
G1 X163.609 Y219.146 E34.0019
G1 X163.315 Y219.090 E34.0395
G1 X162.118 Y218.739 E34.1962
G1 X161.840 Y218.629 E34.2339
G1 X160.731 Y218.059 E34.3906
G1 X160.479 Y217.897 E34.4282
G1 X159.498 Y217.128 E34.5850
G1 X159.281 Y216.922 E34.6226
G1 X158.461 Y215.982 E34.7794
G1 X158.287 Y215.739 E34.8171
G1 X157.660 Y214.661 E34.9738
G1 X157.535 Y214.389 E35.0114
G1 X157.123 Y213.212 E35.1682
G1 X157.051 Y212.921 E35.2059
G1 X156.880 Y211.762 E35.3532
G1 X156.865 Y211.613 E35.3720
G1 X153.966 Y155.981 E42.3757
G1 X107.240 Y125.660 E49.3787
G1 X107.119 Y125.573 E49.3976
G1 X106.200 Y124.845 E49.5449
G1 X105.984 Y124.637 E49.5826
G1 X105.171 Y123.692 E49.7393
G1 X104.999 Y123.448 E49.7770
G1 X104.378 Y122.366 E49.9337
G1 X104.255 Y122.093 E49.9714
G1 X103.850 Y120.914 E50.1281
G1 X103.780 Y120.623 E50.1657
G1 X103.605 Y119.388 E50.3225
G1 X103.591 Y119.089 E50.3601
G1 X103.652 Y117.844 E50.5169
G1 X103.695 Y117.547 E50.5546
G1 X103.990 Y116.336 E50.7113
G1 X104.088 Y116.053 E50.7489
G1 X104.606 Y114.919 E50.9057
G1 X104.756 Y114.660 E50.9433
G1 X105.479 Y113.644 E51.1001
G1 X105.675 Y113.418 E51.1378
G1 X106.577 Y112.556 E51.2945
G92 E0.0000
G1 E-5.0000 F4800
G1 X107.364 Y113.463 F4800
G1 E-0.1000 F4800
G92 E0.0000
G1 X107.510 Y113.349 E0.0233 F1500
G1 X108.462 Y112.735 E0.1657
G1 X108.627 Y112.650 E0.1890
G1 X109.678 Y112.227 E0.3315
G1 X109.855 Y112.174 E0.3548
G1 X110.967 Y111.957 E0.4972
G1 X111.152 Y111.939 E0.5205
G1 X112.285 Y111.935 E0.6629
G1 X112.469 Y111.952 E0.6862
G1 X113.583 Y112.163 E0.8287
G1 X113.760 Y112.214 E0.8520
G1 X114.771 Y112.614 E0.9886
G1 X114.855 Y112.652 E1.0002
G1 X165.000 Y138.221 E8.0769
G1 X215.145 Y112.652 E15.1535
G1 X215.229 Y112.614 E15.1651
G1 X216.240 Y112.214 E15.3018
G1 X216.417 Y112.163 E15.3250
G1 X217.531 Y111.952 E15.4675
G1 X217.715 Y111.935 E15.4908
G1 X218.848 Y111.939 E15.6332
G1 X219.033 Y111.957 E15.6565
G1 X220.145 Y112.174 E15.7990
G1 X220.322 Y112.227 E15.8223
G1 X221.373 Y112.650 E15.9647
G1 X221.538 Y112.735 E15.9880
G1 X222.490 Y113.349 E16.1304
G1 X222.636 Y113.463 E16.1537
G1 X223.455 Y114.246 E16.2962
G1 X223.576 Y114.386 E16.3195
G1 X224.233 Y115.309 E16.4619
G1 X224.326 Y115.470 E16.4852
G1 X224.797 Y116.500 E16.6277
G1 X224.857 Y116.675 E16.6509
G1 X225.125 Y117.776 E16.7934
G1 X225.152 Y117.959 E16.8167
G1 X225.207 Y119.091 E16.9591
G1 X225.199 Y119.276 E16.9824
G1 X225.040 Y120.398 E17.1249
G1 X224.997 Y120.578 E17.1481
G1 X224.629 Y121.650 E17.2906
G1 X224.552 Y121.818 E17.3139
G1 X223.989 Y122.801 E17.4563
G1 X223.882 Y122.953 E17.4796
G1 X223.143 Y123.811 E17.6221
G1 X223.009 Y123.940 E17.6454
G1 X222.158 Y124.615 E17.7820
G1 X222.083 Y124.669 E17.7936
G1 X174.867 Y155.311 E24.8703
G1 X171.938 Y211.522 E31.9469
G1 X171.929 Y211.614 E31.9585
G1 X171.770 Y212.689 E32.0952
G1 X171.725 Y212.869 E32.1184
G1 X171.351 Y213.939 E32.2609
G1 X171.274 Y214.107 E32.2842
G1 X170.704 Y215.086 E32.4266
G1 X170.596 Y215.237 E32.4499
G1 X169.852 Y216.091 E32.5924
G1 X169.718 Y216.219 E32.6157
G1 X168.826 Y216.917 E32.7581
G1 X168.670 Y217.017 E32.7814
G1 X167.662 Y217.535 E32.9238
G1 X167.490 Y217.604 E32.9471
G1 X166.403 Y217.922 E33.0896
G1 X166.221 Y217.957 E33.1128
G1 X165.093 Y218.064 E33.2553
G1 X164.907 Y218.064 E33.2786
G1 X163.779 Y217.957 E33.4210
G1 X163.597 Y217.922 E33.4443
G1 X162.510 Y217.604 E33.5868
G1 X162.338 Y217.535 E33.6101
G1 X161.330 Y217.017 E33.7525
G1 X161.174 Y216.917 E33.7758
G1 X160.282 Y216.219 E33.9182
G1 X160.148 Y216.091 E33.9415
G1 X159.404 Y215.237 E34.0840
G1 X159.296 Y215.086 E34.1073
G1 X158.726 Y214.107 E34.2497
G1 X158.649 Y213.939 E34.2730
G1 X158.274 Y212.869 E34.4155
G1 X158.230 Y212.689 E34.4388
G1 X158.071 Y211.614 E34.5754
G1 X158.062 Y211.522 E34.5870
G1 X155.133 Y155.308 E41.6640
G1 X107.917 Y124.669 E48.7404
G1 X107.842 Y124.615 E48.7521
G1 X106.991 Y123.940 E48.8887
G1 X106.857 Y123.811 E48.9120
G1 X106.118 Y122.953 E49.0544
G1 X106.011 Y122.801 E49.0777
G1 X105.448 Y121.818 E49.2202
G1 X105.371 Y121.650 E49.2435
G1 X105.003 Y120.578 E49.3859
G1 X104.960 Y120.398 E49.4092
G1 X104.801 Y119.276 E49.5517
G1 X104.793 Y119.091 E49.5749
G1 X104.848 Y117.959 E49.7174
G1 X104.875 Y117.776 E49.7407
G1 X105.143 Y116.675 E49.8831
G1 X105.203 Y116.500 E49.9064
G1 X105.674 Y115.470 E50.0489
G1 X105.767 Y115.309 E50.0721
G1 X106.424 Y114.386 E50.2146
G1 X106.545 Y114.246 E50.2379
G1 X107.364 Y113.463 E50.3803
G92 E0.0000
G1 E-5.0000 F4800
G1 X108.152 Y114.371 F4800
G1 E-0.1000 F4800
G92 E0.0000
G1 X108.208 Y114.327 E0.0090 F1500
G1 X109.064 Y113.774 E0.1371
G1 X109.128 Y113.742 E0.1460
G1 X110.073 Y113.361 E0.2741
G1 X110.141 Y113.341 E0.2831
G1 X111.141 Y113.146 E0.4112
G1 X111.212 Y113.139 E0.4202
G1 X112.231 Y113.135 E0.5483
G1 X112.302 Y113.142 E0.5572
G1 X113.304 Y113.331 E0.6854
G1 X113.372 Y113.351 E0.6943
G1 X114.303 Y113.719 E0.8202
G1 X114.336 Y113.734 E0.8247
