; G-Code generated by Simplify3D(R) Version 4.1.2
; May 3, 2020 at 11:39:54 AM
; Settings Summary
;   processName,Process1
;   applyToModels,GT2-arc-test
;   profileName,X5X-ABSpro (modified)
;   profileVersion,2020-04-22 09:40:43
;   baseProfile,TRONXY X5S
;   printMaterial,PLA
;   printQuality,Medium
;   printExtruders,
;   extruderName,Primary Extruder
;   extruderToolheadNumber,0
;   extruderDiameter,0.4
;   extruderAutoWidth,0
;   extruderWidth,0.4
;   extrusionMultiplier,1.05
;   extruderUseRetract,1
;   extruderRetractionDistance,5
;   extruderExtraRestartDistance,-0.1
;   extruderRetractionZLift,0
;   extruderRetractionSpeed,4800
;   extruderUseCoasting,0
;   extruderCoastingDistance,0.2
;   extruderUseWipe,0
;   extruderWipeDistance,5
;   primaryExtruder,0
;   layerHeight,0.2
;   topSolidLayers,3
;   bottomSolidLayers,3
;   perimeterOutlines,5
;   printPerimetersInsideOut,0
;   startPointOption,2
;   startPointOriginX,0
;   startPointOriginY,0
;   sequentialIslands,0
;   spiralVaseMode,0
;   firstLayerHeightPercentage,120
;   firstLayerWidthPercentage,150
;   firstLayerUnderspeed,0.5
;   useRaft,0
;   raftExtruder,0
;   raftTopLayers,3
;   raftBaseLayers,2
;   raftOffset,0
;   raftSeparationDistance,0
;   raftTopInfill,100
;   aboveRaftSpeedMultiplier,0.3
;   useSkirt,1
;   skirtExtruder,0
;   skirtLayers,1
;   skirtOutlines,3
;   skirtOffset,0.15
;   usePrimePillar,0
;   primePillarExtruder,999
;   primePillarWidth,12
;   primePillarLocation,7
;   primePillarSpeedMultiplier,1
;   useOozeShield,0
;   oozeShieldExtruder,999
;   oozeShieldOffset,2
;   oozeShieldOutlines,1
;   oozeShieldSidewallShape,1
;   oozeShieldSidewallAngle,30
;   oozeShieldSpeedMultiplier,1
;   infillExtruder,0
;   internalInfillPattern,Rectilinear
;   externalInfillPattern,Rectilinear
;   infillPercentage,20
;   outlineOverlapPercentage,15
;   infillExtrusionWidthPercentage,100
;   minInfillLength,5
;   infillLayerInterval,1
;   internalInfillAngles,45,-45
;   overlapInternalInfillAngles,0
;   externalInfillAngles,45,-45
;   generateSupport,0
;   supportExtruder,0
;   supportInfillPercentage,30
;   supportExtraInflation,0
;   supportBaseLayers,0
;   denseSupportExtruder,0
;   denseSupportLayers,0
;   denseSupportInfillPercentage,70
;   supportLayerInterval,1
;   supportHorizontalPartOffset,0.3
;   supportUpperSeparationLayers,1
;   supportLowerSeparationLayers,1
;   supportType,0
;   supportGridSpacing,3
;   maxOverhangAngle,70
;   supportAngles,0
;   temperatureName,Primary Extruder,Heated Bed
;   temperatureNumber,0,0
;   temperatureSetpointCount,1,1
;   temperatureSetpointLayers,1,1
;   temperatureSetpointTemperatures,240,90
;   temperatureStabilizeAtStartup,1,1
;   temperatureHeatedBed,0,1
;   fanLayers,1
;   fanSpeeds,0
;   blipFanToFullPower,0
;   adjustSpeedForCooling,1
;   minSpeedLayerTime,15
;   minCoolingSpeedSlowdown,20
;   increaseFanForCooling,0
;   minFanLayerTime,45
;   maxCoolingFanSpeed,100
;   increaseFanForBridging,0
;   bridgingFanSpeed,100
;   use5D,1
;   relativeEdistances,0
;   allowEaxisZeroing,1
;   independentExtruderAxes,0
;   includeM10123,0
;   stickySupport,1
;   applyToolheadOffsets,0
;   gcodeXoffset,0
;   gcodeYoffset,0
;   gcodeZoffset,0
;   overrideMachineDefinition,1
;   machineTypeOverride,0
;   strokeXoverride,330
;   strokeYoverride,330
;   strokeZoverride,400
;   originOffsetXoverride,0
;   originOffsetYoverride,0
;   originOffsetZoverride,0
;   homeXdirOverride,-1
;   homeYdirOverride,-1
;   homeZdirOverride,-1
;   flipXoverride,1
;   flipYoverride,-1
;   flipZoverride,1
;   toolheadOffsets,0,0|0,0|0,0|0,0|0,0|0,0
;   overrideFirmwareConfiguration,1
;   firmwareTypeOverride,RepRap (Marlin/Repetier/Sprinter)
;   GPXconfigOverride,r2
;   baudRateOverride,250000
;   overridePrinterModels,1
;   printerModelsOverride
;   startingGcode,G28 ; home all axes,G1 Z0.2 F3000 ; get ready to prime,G92 E0 ; reset extrusion distance,G1 X100 E10 F600 ; prime nozzle
;   layerChangeGcode,
;   retractionGcode,
;   toolChangeGcode,
;   endingGcode,G28 X0 ; home x axis,M106 S0 ; turn off cooling fan,M104 S0 ; turn off extruder,M140 S0 ; turn off bed,M84 ; disable motors
;   exportFileFormat,gcode
;   celebration,0
;   celebrationSong,Funky Town
;   postProcessing,
;   defaultSpeed,3000
;   outlineUnderspeed,0.5
;   solidInfillUnderspeed,0.8
;   supportUnderspeed,0.8
;   rapidXYspeed,4800
;   rapidZspeed,1002
;   minBridgingArea,5
;   bridgingExtraInflation,2
;   bridgingExtrusionMultiplier,1
;   bridgingSpeedMultiplier,1
;   useFixedBridgingAngle,1
;   fixedBridgingAngle,0
;   applyBridgingToPerimeters,0
;   filamentDiameters,1.75|1.75|1.75|1.75|1.75|1.75
;   filamentPricesPerKg,46|46|46|46|46|46
;   filamentDensities,1.25|1.25|1.25|1.25|1.25|1.25
;   useMinPrintHeight,0
;   minPrintHeight,0
;   useMaxPrintHeight,0
;   maxPrintHeight,40
;   useDiaphragm,0
;   diaphragmLayerInterval,20
;   robustSlicing,1
;   mergeAllIntoSolid,0
;   onlyRetractWhenCrossingOutline,1
;   retractBetweenLayers,1
;   useRetractionMinTravel,0
;   retractionMinTravel,3
;   retractWhileWiping,0
;   onlyWipeOutlines,1
;   avoidCrossingOutline,0
;   maxMovementDetourFactor,3
;   toolChangeRetractionDistance,12
;   toolChangeExtraRestartDistance,-0.5
;   toolChangeRetractionSpeed,600
;   externalThinWallType,0
;   internalThinWallType,2
;   thinWallAllowedOverlapPercentage,10
;   singleExtrusionMinLength,1
;   singleExtrusionMinPrintingWidthPercentage,50
;   singleExtrusionMaxPrintingWidthPercentage,200
;   singleExtrusionEndpointExtension,0.2
;   horizontalSizeCompensation,0
G90
M82
M106 S0
M140 S90
M190 S90
M104 S240 T0
M109 S240 T0
G28 ; home all axes
G1 Z0.2 F3000 ; get ready to prime
G92 E0 ; reset extrusion distance
G1 X100 E10 F600 ; prime nozzle
; process Process1
; layer 1, Z = 0.240
T0
G92 E0.0000
G1 E-5.0000 F4800
; feature skirt
; tool H0.240 W0.600
G1 Z0.240 F1002
G1 X166.191 Y151.519 F4800
G1 E-0.1000 F4800
G92 E0.0000
G1 X167.098 Y150.554 E0.0832 F1219
G1 X167.944 Y150.298 E0.1388
G1 X168.472 Y150.422 E0.1729
G1 X168.804 Y150.068 E0.2033
G1 X170.170 Y150.025 E0.2893
G1 X173.535 Y153.186 E0.5795
G1 X173.578 Y154.552 E0.6654
G1 X171.434 Y156.835 E0.8623
G1 X170.225 Y158.297 E0.9815
G1 X169.110 Y159.831 E1.1008
G1 X168.094 Y161.433 E1.2200
G1 X167.180 Y163.095 E1.3393
G1 X166.372 Y164.812 E1.4585
G1 X165.674 Y166.575 E1.5778
G1 X165.088 Y168.380 E1.6970
G1 X164.616 Y170.217 E1.8162
G1 X164.260 Y172.080 E1.9355
G1 X164.023 Y173.962 E2.0547
G1 X163.904 Y175.856 E2.1740
G1 X163.904 Y178.987 E2.3709
G1 X162.937 Y179.954 E2.4568
G1 X158.320 Y179.954 E2.7470
G1 X157.354 Y178.987 E2.8329
G1 X157.354 Y178.503 E2.8634
G1 X156.885 Y178.232 E2.8975
G1 X156.442 Y177.466 E2.9530
G1 X156.442 Y176.142 E3.0363
G1 X156.738 Y175.630 E3.0734
G1 X156.475 Y175.101 E3.1105
G1 X156.558 Y173.780 E3.1938
G1 X156.885 Y173.288 E3.2309
G1 X156.656 Y172.743 E3.2681
G1 X156.822 Y171.429 E3.3513
G1 X157.179 Y170.959 E3.3884
G1 X156.985 Y170.401 E3.4256
G1 X157.233 Y169.100 E3.5088
G1 X157.619 Y168.653 E3.5459
G1 X157.460 Y168.084 E3.5831
G1 X157.790 Y166.802 E3.6663
G1 X158.203 Y166.379 E3.7035
G1 X158.080 Y165.802 E3.7406
G1 X158.489 Y164.542 E3.8238
G1 X158.928 Y164.147 E3.8610
G1 X158.842 Y163.563 E3.8981
G1 X159.329 Y162.332 E3.9813
G1 X159.793 Y161.964 E4.0185
G1 X159.743 Y161.376 E4.0556
G1 X160.307 Y160.178 E4.1388
G1 X160.792 Y159.841 E4.1760
G1 X160.779 Y159.250 E4.2131
G1 X161.418 Y158.090 E4.2964
G1 X161.923 Y157.784 E4.3335
G1 X161.948 Y157.193 E4.3706
G1 X162.657 Y156.075 E4.4539
G1 X163.181 Y155.802 E4.4910
G1 X163.242 Y155.214 E4.5281
G1 X164.021 Y154.143 E4.6114
G1 X164.560 Y153.903 E4.6485
G1 X164.659 Y153.320 E4.6856
G1 X165.503 Y152.300 E4.7689
G1 X166.056 Y152.094 E4.8060
G1 X166.191 Y151.519 E4.8431
G92 E0.0000
G1 E-5.0000 F4800
G1 X166.739 Y151.812 F4800
G1 E-0.1000 F4800
G92 E0.0000
G1 X167.425 Y151.082 E0.0630 F1219
G1 X167.964 Y150.919 E0.0984
G1 X168.672 Y151.085 E0.1441
G1 X169.071 Y150.660 E0.1807
G1 X169.940 Y150.633 E0.2354
G1 X172.943 Y153.453 E0.4944
G1 X172.971 Y154.322 E0.5491
G1 X170.984 Y156.438 E0.7315
G1 X169.751 Y157.929 E0.8531
G1 X168.614 Y159.494 E0.9747
G1 X167.577 Y161.127 E1.0964
G1 X166.645 Y162.823 E1.2180
G1 X165.821 Y164.573 E1.3396
G1 X165.109 Y166.372 E1.4612
G1 X164.511 Y168.212 E1.5828
G1 X164.030 Y170.086 E1.7044
G1 X163.668 Y171.986 E1.8261
G1 X163.425 Y173.906 E1.9477
G1 X163.304 Y175.837 E2.0693
G1 X163.304 Y178.739 E2.2517
G1 X162.688 Y179.354 E2.3064
G1 X158.569 Y179.354 E2.5654
G1 X157.954 Y178.739 E2.6201
G1 X157.954 Y178.156 E2.6567
G1 X157.324 Y177.793 E2.7024
G1 X157.042 Y177.305 E2.7378
G1 X157.042 Y176.303 E2.8008
G1 X157.324 Y175.815 E2.8362
G1 X157.598 Y175.657 E2.8561
G1 X157.334 Y175.482 E2.8759
G1 X157.084 Y174.978 E2.9113
G1 X157.147 Y173.978 E2.9743
G1 X157.458 Y173.509 E3.0097
G1 X157.742 Y173.369 E3.0296
G1 X157.490 Y173.178 E3.0494
G1 X157.272 Y172.659 E3.0848
G1 X157.397 Y171.664 E3.1478
G1 X157.738 Y171.216 E3.1832
G1 X158.029 Y171.093 E3.2031
G1 X157.790 Y170.887 E3.2229
G1 X157.605 Y170.355 E3.2583
G1 X157.793 Y169.370 E3.3213
G1 X158.160 Y168.945 E3.3567
G1 X158.459 Y168.841 E3.3766
G1 X158.233 Y168.620 E3.3964
G1 X158.082 Y168.078 E3.4318
G1 X158.331 Y167.106 E3.4948
G1 X158.725 Y166.704 E3.5302
G1 X159.029 Y166.619 E3.5501
G1 X158.818 Y166.385 E3.5699
G1 X158.701 Y165.834 E3.6053
G1 X159.010 Y164.881 E3.6683
G1 X159.429 Y164.504 E3.7037
G1 X159.738 Y164.438 E3.7236
G1 X159.541 Y164.191 E3.7434
G1 X159.459 Y163.634 E3.7788
G1 X159.828 Y162.702 E3.8418
G1 X160.269 Y162.352 E3.8772
G1 X160.582 Y162.306 E3.8971
G1 X160.402 Y162.047 E3.9169
G1 X160.354 Y161.486 E3.9523
G1 X160.781 Y160.579 E4.0153
G1 X161.243 Y160.258 E4.0507
G1 X161.558 Y160.231 E4.0706
G1 X161.395 Y159.961 E4.0904
G1 X161.383 Y159.398 E4.1258
G1 X161.866 Y158.519 E4.1888
G1 X162.347 Y158.228 E4.2242
G1 X162.663 Y158.221 E4.2441
G1 X162.517 Y157.941 E4.2639
G1 X162.540 Y157.379 E4.2993
G1 X163.078 Y156.533 E4.3624
G1 X163.576 Y156.272 E4.3977
G1 X163.892 Y156.285 E4.4176
G1 X163.763 Y155.997 E4.4374
G1 X163.822 Y155.437 E4.4728
G1 X164.411 Y154.626 E4.5358
G1 X164.926 Y154.397 E4.5712
G1 X165.240 Y154.430 E4.5911
G1 X165.130 Y154.134 E4.6110
G1 X165.224 Y153.579 E4.6463
G1 X165.863 Y152.806 E4.7094
G1 X166.390 Y152.610 E4.7447
G1 X166.702 Y152.663 E4.7646
G1 X166.610 Y152.360 E4.7845
G1 X166.739 Y151.812 E4.8198
G92 E0.0000
G1 E-5.0000 F4800
G1 X167.286 Y152.106 F4800
G1 E-0.1000 F4800
G92 E0.0000
G1 X167.753 Y151.609 E0.0428 F1219
G1 X167.983 Y151.540 E0.0580
G1 X168.587 Y151.681 E0.0969
G1 X168.691 Y151.737 E0.1044
G1 X168.793 Y151.833 E0.1131
G1 X169.338 Y151.252 E0.1632
G1 X169.711 Y151.240 E0.1866
G1 X172.351 Y153.720 E0.4144
G1 X172.363 Y154.093 E0.4378
G1 X170.534 Y156.041 E0.6058
G1 X169.276 Y157.561 E0.7298
G1 X168.117 Y159.157 E0.8538
G1 X167.060 Y160.822 E0.9778
G1 X166.110 Y162.550 E1.1017
G1 X165.270 Y164.335 E1.2257
G1 X164.544 Y166.169 E1.3497
G1 X163.935 Y168.045 E1.4737
G1 X163.444 Y169.955 E1.5977
G1 X163.075 Y171.893 E1.7217
G1 X162.827 Y173.849 E1.8457
G1 X162.704 Y175.818 E1.9697
G1 X162.704 Y178.490 E2.1377
G1 X162.440 Y178.754 E2.1611
G1 X158.817 Y178.754 E2.3888
G1 X158.554 Y178.490 E2.4123
G1 X158.554 Y177.694 E2.4623
G1 X158.414 Y177.694 E2.4711
G1 X158.300 Y177.663 E2.4785
G1 X157.763 Y177.353 E2.5175
G1 X157.642 Y177.145 E2.5327
G1 X157.642 Y176.463 E2.5755
G1 X157.763 Y176.255 E2.5906
G1 X158.300 Y175.945 E2.6296
G1 X158.414 Y175.914 E2.6370
G1 X158.534 Y175.914 E2.6446
G1 X158.548 Y175.460 E2.6731
G1 X158.429 Y175.452 E2.6807
G1 X158.316 Y175.415 E2.6881
G1 X157.800 Y175.072 E2.7271
G1 X157.693 Y174.856 E2.7422
G1 X157.736 Y174.176 E2.7850
G1 X157.869 Y173.975 E2.8002
G1 X158.424 Y173.699 E2.8392
G1 X158.541 Y173.676 E2.8466
G1 X158.660 Y173.684 E2.8541
G1 X158.703 Y173.231 E2.8827
G1 X158.584 Y173.216 E2.8902
G1 X158.474 Y173.172 E2.8977
G1 X157.981 Y172.797 E2.9366
G1 X157.887 Y172.575 E2.9518
G1 X157.972 Y171.899 E2.9946
G1 X158.118 Y171.707 E3.0098
G1 X158.690 Y171.466 E3.0487
G1 X158.807 Y171.450 E3.0562
G1 X158.926 Y171.465 E3.0637
G1 X158.997 Y171.017 E3.0923
G1 X158.879 Y170.994 E3.0998
G1 X158.773 Y170.943 E3.1073
G1 X158.303 Y170.538 E3.1462
G1 X158.224 Y170.310 E3.1614
G1 X158.352 Y169.641 E3.2042
G1 X158.509 Y169.458 E3.2194
G1 X159.095 Y169.255 E3.2583
G1 X159.213 Y169.246 E3.2658
G1 X159.331 Y169.268 E3.2733
G1 X159.430 Y168.825 E3.3019
G1 X159.314 Y168.795 E3.3094
G1 X159.210 Y168.737 E3.3168
G1 X158.768 Y168.303 E3.3558
G1 X158.703 Y168.071 E3.3710
G1 X158.872 Y167.411 E3.4138
G1 X159.041 Y167.239 E3.4289
G1 X159.638 Y167.072 E3.4679
G1 X159.756 Y167.071 E3.4754
G1 X159.872 Y167.101 E3.4829
G1 X159.999 Y166.665 E3.5114
G1 X159.885 Y166.628 E3.5190
G1 X159.786 Y166.563 E3.5264
G1 X159.371 Y166.103 E3.5654
G1 X159.321 Y165.867 E3.5805
G1 X159.531 Y165.219 E3.6234
G1 X159.711 Y165.058 E3.6385
G1 X160.317 Y164.929 E3.6775
G1 X160.435 Y164.935 E3.6849
G1 X160.549 Y164.972 E3.6925
G1 X160.703 Y164.544 E3.7210
G1 X160.592 Y164.500 E3.7286
G1 X160.496 Y164.430 E3.7360
G1 X160.111 Y163.944 E3.7750
G1 X160.076 Y163.706 E3.7901
G1 X160.327 Y163.072 E3.8329
G1 X160.516 Y162.922 E3.8481
G1 X161.129 Y162.832 E3.8871
G1 X161.247 Y162.845 E3.8945
G1 X161.358 Y162.890 E3.9020
G1 X161.539 Y162.473 E3.9306
G1 X161.430 Y162.422 E3.9381
G1 X161.340 Y162.345 E3.9456
G1 X160.986 Y161.836 E3.9845
G1 X160.966 Y161.596 E3.9997
G1 X161.256 Y160.980 E4.0425
G1 X161.454 Y160.842 E4.0577
G1 X162.071 Y160.790 E4.0966
G1 X162.188 Y160.811 E4.1041
G1 X162.296 Y160.862 E4.1116
G1 X162.503 Y160.457 E4.1402
G1 X162.398 Y160.400 E4.1477
G1 X162.312 Y160.318 E4.1552
G1 X161.991 Y159.788 E4.1941
G1 X161.986 Y159.546 E4.2093
G1 X162.314 Y158.949 E4.2521
G1 X162.520 Y158.825 E4.2673
G1 X163.140 Y158.812 E4.3062
G1 X163.255 Y158.840 E4.3137
G1 X163.360 Y158.898 E4.3212
G1 X163.591 Y158.507 E4.3498
G1 X163.490 Y158.442 E4.3573
G1 X163.410 Y158.355 E4.3647
G1 X163.123 Y157.806 E4.4037
G1 X163.133 Y157.565 E4.4189
G1 X163.498 Y156.990 E4.4617
G1 X163.712 Y156.878 E4.4768
G1 X164.331 Y156.904 E4.5158
G1 X164.444 Y156.940 E4.5232
G1 X164.545 Y157.004 E4.5308
G1 X164.801 Y156.628 E4.5593
G1 X164.704 Y156.557 E4.5669
G1 X164.629 Y156.465 E4.5743
G1 X164.377 Y155.899 E4.6133
G1 X164.402 Y155.660 E4.6284
G1 X164.802 Y155.108 E4.6713
G1 X165.023 Y155.010 E4.6864
G1 X165.639 Y155.075 E4.7254
G1 X165.750 Y155.118 E4.7328
G1 X165.847 Y155.188 E4.7404
G1 X166.125 Y154.829 E4.7689
G1 X166.033 Y154.753 E4.7765
G1 X165.964 Y154.656 E4.7839
G1 X165.748 Y154.075 E4.8229
G1 X165.788 Y153.837 E4.8380
G1 X166.223 Y153.313 E4.8808
G1 X166.449 Y153.228 E4.8960
G1 X167.060 Y153.332 E4.9350
G1 X167.167 Y153.381 E4.9424
G1 X167.260 Y153.458 E4.9499
G1 X167.560 Y153.117 E4.9785
G1 X167.473 Y153.035 E4.9860
G1 X167.410 Y152.934 E4.9935
G1 X167.231 Y152.341 E5.0325
G1 X167.286 Y152.106 E5.0476
G92 E0.0000
G1 E-5.0000 F4800
; feature outer perimeter
G1 X168.034 Y152.405 F4800
G1 E-0.1000 F4800
G92 E0.0000
G1 X168.098 Y152.337 E0.0059 F610
G1 X168.189 Y152.358 E0.0118
G1 X168.243 Y152.538 E0.0235
G1 X168.061 Y152.495 E0.0353
G1 X168.034 Y152.405 E0.0411
G1 X168.299 Y152.722 F4800
G92 E0.0000
G1 X168.461 Y152.550 E0.0149 F610
G1 X168.826 Y152.893 E0.0464
G1 X169.552 Y152.120 E0.1130
G1 X171.483 Y153.934 E0.2796
G1 X169.971 Y155.545 E0.4185
G1 X168.683 Y157.101 E0.5454
G1 X167.496 Y158.735 E0.6724
G1 X166.414 Y160.440 E0.7993
G1 X165.442 Y162.210 E0.9263
G1 X164.582 Y164.037 E1.0532
G1 X163.838 Y165.915 E1.1802
G1 X163.214 Y167.835 E1.3071
G1 X162.712 Y169.791 E1.4341
G1 X162.333 Y171.775 E1.5610
G1 X162.080 Y173.779 E1.6880
G1 X161.954 Y175.794 E1.8149
G1 X161.954 Y178.004 E1.9538
G1 X159.304 Y178.004 E2.1204
G1 X159.304 Y176.944 E2.1871
G1 X158.804 Y176.944 E2.2185
G1 X158.804 Y176.664 E2.2361
G1 X159.304 Y176.664 E2.2675
G1 X159.304 Y175.818 E2.3207
G1 X159.297 Y175.818 E2.3211
G1 X159.304 Y175.711 E2.3278
G1 X159.304 Y175.604 E2.3346
G1 X159.310 Y175.604 E2.3350
G1 X159.363 Y174.760 E2.3882
G1 X158.864 Y174.728 E2.4196
G1 X158.879 Y174.493 E2.4345
G1 X158.882 Y174.449 E2.4372
G1 X159.381 Y174.480 E2.4687
