; G-Code generated by Simplify3D(R) Version 4.1.2
; May 24, 2020 at 10:21:55 AM
; Settings Summary
;   processName,Process1
;   applyToModels,HeliosCapRaMotorHolder
;   profileName,X5X-PLA-Leon
;   profileVersion,2020-04-22 09:40:43
;   baseProfile,TRONXY X5S
;   printMaterial,PLA
;   printQuality,Medium
;   printExtruders,
;   extruderName,Primary Extruder
;   extruderToolheadNumber,0
;   extruderDiameter,0.4
;   extruderAutoWidth,0
;   extruderWidth,0.4
;   extrusionMultiplier,1.05
;   extruderUseRetract,1
;   extruderRetractionDistance,5
;   extruderExtraRestartDistance,-0.1
;   extruderRetractionZLift,0
;   extruderRetractionSpeed,4800
;   extruderUseCoasting,0
;   extruderCoastingDistance,0.2
;   extruderUseWipe,0
;   extruderWipeDistance,5
;   primaryExtruder,0
;   layerHeight,0.2
;   topSolidLayers,3
;   bottomSolidLayers,3
;   perimeterOutlines,5
;   printPerimetersInsideOut,0
;   startPointOption,2
;   startPointOriginX,0
;   startPointOriginY,0
;   sequentialIslands,0
;   spiralVaseMode,0
;   firstLayerHeightPercentage,120
;   firstLayerWidthPercentage,150
;   firstLayerUnderspeed,0.5
;   useRaft,0
;   raftExtruder,0
;   raftTopLayers,3
;   raftBaseLayers,2
;   raftOffset,0
;   raftSeparationDistance,0
;   raftTopInfill,100
;   aboveRaftSpeedMultiplier,0.3
;   useSkirt,1
;   skirtExtruder,0
;   skirtLayers,1
;   skirtOutlines,5
;   skirtOffset,0.15
;   usePrimePillar,0
;   primePillarExtruder,999
;   primePillarWidth,12
;   primePillarLocation,7
;   primePillarSpeedMultiplier,1
;   useOozeShield,0
;   oozeShieldExtruder,999
;   oozeShieldOffset,2
;   oozeShieldOutlines,1
;   oozeShieldSidewallShape,1
;   oozeShieldSidewallAngle,30
;   oozeShieldSpeedMultiplier,1
;   infillExtruder,0
;   internalInfillPattern,Rectilinear
;   externalInfillPattern,Rectilinear
;   infillPercentage,20
;   outlineOverlapPercentage,15
;   infillExtrusionWidthPercentage,100
;   minInfillLength,5
;   infillLayerInterval,1
;   internalInfillAngles,45,-45
;   overlapInternalInfillAngles,0
;   externalInfillAngles,45,-45
;   generateSupport,1
;   supportExtruder,0
;   supportInfillPercentage,30
;   supportExtraInflation,0
;   supportBaseLayers,1
;   denseSupportExtruder,0
;   denseSupportLayers,0
;   denseSupportInfillPercentage,70
;   supportLayerInterval,1
;   supportHorizontalPartOffset,0.3
;   supportUpperSeparationLayers,1
;   supportLowerSeparationLayers,1
;   supportType,0
;   supportGridSpacing,3
;   maxOverhangAngle,70
;   supportAngles,0
;   temperatureName,Primary Extruder,Heated Bed
;   temperatureNumber,0,0
;   temperatureSetpointCount,1,1
;   temperatureSetpointLayers,1,1
;   temperatureSetpointTemperatures,200,90
;   temperatureStabilizeAtStartup,1,1
;   temperatureHeatedBed,0,1
;   fanLayers,1,2
;   fanSpeeds,0,50
;   blipFanToFullPower,0
;   adjustSpeedForCooling,1
;   minSpeedLayerTime,15
;   minCoolingSpeedSlowdown,20
;   increaseFanForCooling,0
;   minFanLayerTime,45
;   maxCoolingFanSpeed,100
;   increaseFanForBridging,0
;   bridgingFanSpeed,100
;   use5D,1
;   relativeEdistances,0
;   allowEaxisZeroing,1
;   independentExtruderAxes,0
;   includeM10123,0
;   stickySupport,1
;   applyToolheadOffsets,0
;   gcodeXoffset,0
;   gcodeYoffset,0
;   gcodeZoffset,0
;   overrideMachineDefinition,1
;   machineTypeOverride,0
;   strokeXoverride,330
;   strokeYoverride,330
;   strokeZoverride,400
;   originOffsetXoverride,0
;   originOffsetYoverride,0
;   originOffsetZoverride,0
;   homeXdirOverride,-1
;   homeYdirOverride,-1
;   homeZdirOverride,-1
;   flipXoverride,1
;   flipYoverride,-1
;   flipZoverride,1
;   toolheadOffsets,0,0|0,0|0,0|0,0|0,0|0,0
;   overrideFirmwareConfiguration,1
;   firmwareTypeOverride,RepRap (Marlin/Repetier/Sprinter)
;   GPXconfigOverride,r2
;   baudRateOverride,250000
;   overridePrinterModels,1
;   printerModelsOverride
;   startingGcode,G28 ; home all axes,G1 Z0.2 F3000 ; get ready to prime,G92 E0 ; reset extrusion distance,G1 X100 E10 F600 ; prime nozzle
;   layerChangeGcode,
;   retractionGcode,
;   toolChangeGcode,
;   endingGcode,G28 X0 ; home x axis,M106 S0 ; turn off cooling fan,M104 S0 ; turn off extruder,M140 S0 ; turn off bed,M84 ; disable motors
;   exportFileFormat,gcode
;   celebration,0
;   celebrationSong,Funky Town
;   postProcessing,
;   defaultSpeed,3000
;   outlineUnderspeed,0.5
;   solidInfillUnderspeed,0.8
;   supportUnderspeed,0.8
;   rapidXYspeed,4800
;   rapidZspeed,1002
;   minBridgingArea,5
;   bridgingExtraInflation,2
;   bridgingExtrusionMultiplier,1
;   bridgingSpeedMultiplier,1
;   useFixedBridgingAngle,1
;   fixedBridgingAngle,0
;   applyBridgingToPerimeters,0
;   filamentDiameters,1.75|1.75|1.75|1.75|1.75|1.75
;   filamentPricesPerKg,46|46|46|46|46|46
;   filamentDensities,1.25|1.25|1.25|1.25|1.25|1.25
;   useMinPrintHeight,0
;   minPrintHeight,0
;   useMaxPrintHeight,0
;   maxPrintHeight,10
;   useDiaphragm,0
;   diaphragmLayerInterval,20
;   robustSlicing,1
;   mergeAllIntoSolid,0
;   onlyRetractWhenCrossingOutline,1
;   retractBetweenLayers,1
;   useRetractionMinTravel,0
;   retractionMinTravel,3
;   retractWhileWiping,0
;   onlyWipeOutlines,1
;   avoidCrossingOutline,0
;   maxMovementDetourFactor,3
;   toolChangeRetractionDistance,12
;   toolChangeExtraRestartDistance,-0.5
;   toolChangeRetractionSpeed,600
;   externalThinWallType,0
;   internalThinWallType,2
;   thinWallAllowedOverlapPercentage,10
;   singleExtrusionMinLength,1
;   singleExtrusionMinPrintingWidthPercentage,50
;   singleExtrusionMaxPrintingWidthPercentage,200
;   singleExtrusionEndpointExtension,0.2
;   horizontalSizeCompensation,0
G90
M82
M106 S0
M140 S90
M190 S90
M104 S200 T0
M109 S200 T0
G28 ; home all axes
G1 Z0.2 F3000 ; get ready to prime
G92 E0 ; reset extrusion distance
G1 X100 E10 F600 ; prime nozzle
; process Process1
; layer 1, Z = 0.240
T0
G92 E0.0000
G1 E-5.0000 F4800
; feature skirt
; tool H0.240 W0.600
G1 Z0.240 F1002
G1 X121.948 Y115.511 F4800
G1 E-0.1000 F4800
G92 E0.0000
G1 X124.511 Y112.948 E0.2279 F1500
G1 X124.577 Y112.887 E0.2335
G1 X127.294 Y110.491 E0.4612
G1 X127.363 Y110.434 E0.4668
G1 X130.226 Y108.213 E0.6946
G1 X130.299 Y108.160 E0.7003
G1 X133.295 Y106.124 E0.9280
G1 X133.371 Y106.076 E0.9337
G1 X136.490 Y104.231 E1.1614
G1 X136.568 Y104.188 E1.1671
G1 X139.796 Y102.544 E1.3948
G1 X139.877 Y102.506 E1.4004
G1 X143.203 Y101.066 E1.6282
G1 X143.286 Y101.034 E1.6338
G1 X146.694 Y99.807 E1.8615
G1 X146.779 Y99.779 E1.8672
G1 X150.259 Y98.768 E2.0949
G1 X150.345 Y98.746 E2.1006
G1 X153.881 Y97.955 E2.3283
G1 X153.969 Y97.938 E2.3340
G1 X157.150 Y97.435 E2.5364
G1 X157.150 Y89.819 E3.0151
G1 X158.819 Y88.150 E3.1635
G1 X164.681 Y88.150 E3.5320
G1 X165.000 Y88.469 E3.5604
G1 X165.319 Y88.150 E3.5888
G1 X171.181 Y88.150 E3.9572
G1 X172.850 Y89.819 E4.1056
G1 X172.850 Y97.435 E4.5843
G1 X176.031 Y97.938 E4.7868
G1 X176.119 Y97.955 E4.7924
G1 X179.655 Y98.746 E5.0201
G1 X179.741 Y98.768 E5.0258
G1 X183.221 Y99.779 E5.2535
G1 X183.306 Y99.807 E5.2592
G1 X186.714 Y101.034 E5.4869
G1 X186.797 Y101.066 E5.4925
G1 X190.123 Y102.506 E5.7203
G1 X190.204 Y102.544 E5.7259
G1 X193.432 Y104.188 E5.9536
G1 X193.510 Y104.231 E5.9593
G1 X196.629 Y106.076 E6.1871
G1 X196.705 Y106.124 E6.1927
G1 X199.701 Y108.160 E6.4204
G1 X199.774 Y108.213 E6.4260
G1 X202.637 Y110.434 E6.6538
G1 X202.706 Y110.491 E6.6595
G1 X205.423 Y112.887 E6.8872
G1 X205.489 Y112.948 E6.8928
G1 X208.052 Y115.511 E7.1207
G1 X208.113 Y115.577 E7.1263
G1 X210.509 Y118.294 E7.3541
G1 X210.566 Y118.363 E7.3597
G1 X212.787 Y121.226 E7.5875
G1 X212.840 Y121.299 E7.5931
G1 X214.876 Y124.295 E7.8208
G1 X214.924 Y124.371 E7.8265
G1 X216.769 Y127.490 E8.0543
G1 X216.812 Y127.568 E8.0599
G1 X218.456 Y130.796 E8.2876
G1 X218.494 Y130.877 E8.2932
G1 X219.934 Y134.203 E8.5210
G1 X219.966 Y134.286 E8.5267
G1 X221.193 Y137.694 E8.7544
G1 X221.221 Y137.779 E8.7600
G1 X222.232 Y141.259 E8.9878
G1 X222.254 Y141.345 E8.9934
G1 X223.045 Y144.881 E9.2211
G1 X223.062 Y144.969 E9.2268
G1 X223.628 Y148.549 E9.4546
G1 X223.640 Y148.638 E9.4602
G1 X223.981 Y152.244 E9.6879
G1 X223.986 Y152.334 E9.6936
G1 X224.100 Y155.955 E9.9214
G1 X224.100 Y156.045 E9.9270
G1 X223.986 Y159.667 E10.1548
G1 X223.981 Y159.756 E10.1604
G1 X223.640 Y163.363 E10.3881
G1 X223.628 Y163.451 E10.3938
G1 X223.062 Y167.031 E10.6216
G1 X223.045 Y167.119 E10.6272
G1 X222.254 Y170.655 E10.8550
G1 X222.232 Y170.741 E10.8606
G1 X221.221 Y174.221 E11.0883
G1 X221.193 Y174.306 E11.0940
G1 X219.966 Y177.714 E11.3217
G1 X219.934 Y177.797 E11.3273
G1 X218.494 Y181.123 E11.5551
G1 X218.456 Y181.204 E11.5607
G1 X216.812 Y184.432 E11.7884
G1 X216.769 Y184.510 E11.7941
G1 X214.924 Y187.629 E12.0219
G1 X214.876 Y187.705 E12.0275
G1 X212.840 Y190.701 E12.2552
G1 X212.787 Y190.774 E12.2609
G1 X210.566 Y193.637 E12.4886
G1 X210.509 Y193.706 E12.4943
G1 X208.113 Y196.423 E12.7220
G1 X208.052 Y196.489 E12.7276
G1 X205.489 Y199.052 E12.9555
G1 X205.423 Y199.113 E12.9611
G1 X202.706 Y201.509 E13.1889
G1 X202.637 Y201.566 E13.1945
G1 X199.774 Y203.787 E13.4223
G1 X199.701 Y203.840 E13.4279
G1 X196.705 Y205.876 E13.6556
G1 X196.629 Y205.924 E13.6613
G1 X193.510 Y207.769 E13.8891
G1 X193.432 Y207.812 E13.8947
G1 X190.204 Y209.456 E14.1224
G1 X190.123 Y209.494 E14.1280
G1 X188.850 Y210.045 E14.2152
G1 X188.850 Y240.181 E16.1096
G1 X187.181 Y241.850 E16.2580
G1 X176.385 Y241.850 E16.9366
G1 X174.697 Y239.279 E17.1300
G1 X175.598 Y237.196 E17.2727
G1 X175.841 Y236.522 E17.3177
G1 X176.040 Y235.835 E17.3627
G1 X176.197 Y235.136 E17.4077
G1 X176.309 Y234.428 E17.4527
G1 X176.376 Y233.715 E17.4978
G1 X176.399 Y232.976 E17.5442
G1 X176.374 Y231.261 E17.6521
G1 X176.309 Y230.572 E17.6956
G1 X176.197 Y229.864 E17.7406
G1 X176.040 Y229.165 E17.7857
G1 X175.841 Y228.477 E17.8307
G1 X175.598 Y227.804 E17.8757
G1 X175.314 Y227.147 E17.9207
G1 X174.989 Y226.509 E17.9657
G1 X174.624 Y225.892 E18.0107
G1 X174.222 Y225.300 E18.0557
G1 X173.783 Y224.734 E18.1007
G1 X173.319 Y224.208 E18.1448
G1 X172.220 Y223.131 E18.2415
G1 X171.775 Y222.072 E18.3138
G1 X171.775 Y216.850 E18.6421
G1 X167.569 Y216.850 E18.9064
G1 X165.900 Y215.181 E19.0548
G1 X165.900 Y214.350 E19.1070
G1 X164.600 Y214.350 E19.1888
G1 X164.600 Y215.180 E19.2410
G1 X162.931 Y216.850 E19.3894
G1 X159.475 Y216.850 E19.6066
G1 X159.474 Y221.132 E19.8758
G1 X158.893 Y222.319 E19.9589
G1 X157.734 Y223.217 E20.0510
G1 X157.197 Y223.691 E20.0961
G1 X156.691 Y224.197 E20.1410
G1 X156.217 Y224.735 E20.1861
G1 X155.778 Y225.300 E20.2311
G1 X155.376 Y225.892 E20.2761
G1 X155.011 Y226.509 E20.3211
G1 X154.686 Y227.146 E20.3661
G1 X154.402 Y227.804 E20.4112
G1 X154.159 Y228.478 E20.4562
G1 X153.960 Y229.165 E20.5012
G1 X153.803 Y229.864 E20.5462
G1 X153.691 Y230.572 E20.5912
G1 X153.624 Y231.284 E20.6362
G1 X153.601 Y232.024 E20.6827
G1 X153.626 Y233.739 E20.7906
G1 X153.691 Y234.428 E20.8341
G1 X153.803 Y235.136 E20.8791
G1 X153.960 Y235.835 E20.9241
G1 X154.159 Y236.522 E20.9691
G1 X154.402 Y237.196 E21.0141
G1 X155.303 Y239.279 E21.1568
G1 X153.615 Y241.850 E21.3502
G1 X142.819 Y241.850 E22.0288
G1 X141.150 Y240.181 E22.1772
G1 X141.150 Y210.045 E24.0716
G1 X139.877 Y209.494 E24.1588
G1 X139.796 Y209.456 E24.1644
G1 X136.568 Y207.812 E24.3921
G1 X136.490 Y207.769 E24.3977
G1 X133.371 Y205.924 E24.6255
G1 X133.295 Y205.876 E24.6312
G1 X130.299 Y203.840 E24.8589
G1 X130.226 Y203.787 E24.8645
G1 X127.363 Y201.566 E25.0923
G1 X127.294 Y201.509 E25.0980
G1 X124.577 Y199.113 E25.3257
G1 X124.511 Y199.052 E25.3313
G1 X121.948 Y196.489 E25.5592
G1 X121.887 Y196.423 E25.5648
G1 X119.491 Y193.706 E25.7926
G1 X119.434 Y193.637 E25.7982
G1 X117.213 Y190.774 E26.0260
G1 X117.160 Y190.701 E26.0316
G1 X115.124 Y187.705 E26.2593
G1 X115.076 Y187.629 E26.2649
G1 X113.231 Y184.510 E26.4927
G1 X113.188 Y184.432 E26.4984
G1 X111.544 Y181.204 E26.7261
G1 X111.506 Y181.123 E26.7317
G1 X110.066 Y177.797 E26.9595
G1 X110.034 Y177.714 E26.9651
G1 X108.807 Y174.306 E27.1929
G1 X108.779 Y174.221 E27.1985
G1 X107.768 Y170.741 E27.4262
G1 X107.746 Y170.655 E27.4319
G1 X106.955 Y167.119 E27.6596
G1 X106.938 Y167.031 E27.6653
G1 X106.372 Y163.452 E27.8931
G1 X106.360 Y163.363 E27.8987
G1 X106.019 Y159.756 E28.1264
G1 X106.014 Y159.667 E28.1321
G1 X105.900 Y156.045 E28.3598
G1 X105.900 Y155.955 E28.3655
G1 X106.014 Y152.334 E28.5932
G1 X106.019 Y152.244 E28.5989
G1 X106.360 Y148.637 E28.8266
G1 X106.372 Y148.549 E28.8322
G1 X106.938 Y144.969 E29.0600
G1 X106.955 Y144.881 E29.0657
G1 X107.746 Y141.345 E29.2934
G1 X107.768 Y141.259 E29.2991
G1 X108.779 Y137.779 E29.5268
G1 X108.807 Y137.694 E29.5325
G1 X110.034 Y134.286 E29.7602
G1 X110.066 Y134.203 E29.7658
G1 X111.506 Y130.877 E29.9936
G1 X111.544 Y130.796 E29.9992
G1 X113.188 Y127.568 E30.2269
G1 X113.231 Y127.490 E30.2326
G1 X115.076 Y124.371 E30.4604
G1 X115.124 Y124.295 E30.4660
G1 X117.160 Y121.299 E30.6937
G1 X117.213 Y121.226 E30.6993
G1 X119.434 Y118.363 E30.9271
G1 X119.491 Y118.294 E30.9327
G1 X121.887 Y115.577 E31.1605
G1 X121.948 Y115.511 E31.1661
G92 E0.0000
G1 E-5.0000 F4800
G1 X122.379 Y115.929 F4800
G1 E-0.1000 F4800
G92 E0.0000
G1 X124.929 Y113.379 E0.2267 F1500
G1 X124.980 Y113.331 E0.2311
G1 X127.683 Y110.947 E0.4576
G1 X127.738 Y110.902 E0.4621
G1 X130.586 Y108.693 E0.6887
G1 X130.644 Y108.651 E0.6931
G1 X133.625 Y106.626 E0.9197
G1 X133.684 Y106.588 E0.9242
G1 X136.787 Y104.753 E1.1507
G1 X136.849 Y104.719 E1.1552
G1 X140.060 Y103.083 E1.3817
G1 X140.124 Y103.053 E1.3862
G1 X143.432 Y101.621 E1.6128
G1 X143.498 Y101.595 E1.6172
G1 X146.889 Y100.374 E1.8438
G1 X146.956 Y100.352 E1.8482
G1 X150.417 Y99.347 E2.0748
G1 X150.486 Y99.329 E2.0792
G1 X154.003 Y98.543 E2.3058
G1 X154.073 Y98.530 E2.3102
G1 X157.633 Y97.966 E2.5369
G1 X157.703 Y97.957 E2.5413
G1 X157.750 Y97.952 E2.5443
G1 X157.750 Y90.068 E3.0399
G1 X159.068 Y88.750 E3.1571
G1 X164.432 Y88.750 E3.4942
G1 X165.000 Y89.318 E3.5447
G1 X165.568 Y88.750 E3.5952
G1 X170.932 Y88.750 E3.9324
G1 X172.250 Y90.068 E4.0496
G1 X172.250 Y97.952 E4.5452
G1 X172.297 Y97.957 E4.5482
G1 X172.367 Y97.966 E4.5526
G1 X175.927 Y98.530 E4.7792
G1 X175.997 Y98.543 E4.7837
G1 X179.514 Y99.329 E5.0103
G1 X179.583 Y99.347 E5.0147
G1 X183.044 Y100.352 E5.2413
G1 X183.111 Y100.374 E5.2457
G1 X186.502 Y101.595 E5.4723
G1 X186.568 Y101.621 E5.4767
G1 X189.876 Y103.053 E5.7033
G1 X189.940 Y103.083 E5.7078
G1 X193.151 Y104.719 E5.9343
G1 X193.213 Y104.753 E5.9387
G1 X196.316 Y106.588 E6.1653
G1 X196.376 Y106.626 E6.1698
G1 X199.356 Y108.651 E6.3963
G1 X199.413 Y108.693 E6.4008
G1 X202.262 Y110.902 E6.6274
G1 X202.316 Y110.947 E6.6318
G1 X205.020 Y113.331 E6.8584
G1 X205.071 Y113.379 E6.8628
G1 X207.621 Y115.929 E7.0895
G1 X207.669 Y115.980 E7.0939
G1 X210.053 Y118.684 E7.3205
G1 X210.098 Y118.738 E7.3249
G1 X212.307 Y121.586 E7.5515
G1 X212.349 Y121.644 E7.5560
G1 X214.374 Y124.624 E7.7825
G1 X214.412 Y124.684 E7.7869
G1 X216.247 Y127.787 E8.0136
G1 X216.281 Y127.849 E8.0180
G1 X217.917 Y131.060 E8.2445
G1 X217.947 Y131.124 E8.2490
G1 X219.379 Y134.432 E8.4756
G1 X219.405 Y134.498 E8.4800
G1 X220.626 Y137.889 E8.7066
G1 X220.648 Y137.956 E8.7110
G1 X221.653 Y141.417 E8.9376
G1 X221.671 Y141.486 E8.9420
G1 X222.457 Y145.003 E9.1686
G1 X222.470 Y145.073 E9.1731
G1 X223.034 Y148.633 E9.3997
G1 X223.043 Y148.703 E9.4041
G1 X223.382 Y152.291 E9.6307
G1 X223.387 Y152.362 E9.6351
G1 X223.500 Y155.965 E9.8617
G1 X223.500 Y156.035 E9.8661
G1 X223.387 Y159.638 E10.0927
G1 X223.382 Y159.709 E10.0972
G1 X223.043 Y163.297 E10.3237
G1 X223.034 Y163.367 E10.3282
G1 X222.470 Y166.927 E10.5548
G1 X222.457 Y166.997 E10.5592
G1 X221.671 Y170.514 E10.7858
G1 X221.653 Y170.583 E10.7903
G1 X220.648 Y174.044 E11.0168
G1 X220.626 Y174.111 E11.0213
G1 X219.405 Y177.502 E11.2478
G1 X219.379 Y177.568 E11.2523
G1 X217.947 Y180.876 E11.4789
G1 X217.917 Y180.940 E11.4833
G1 X216.281 Y184.151 E11.7098
G1 X216.247 Y184.213 E11.7143
G1 X214.412 Y187.316 E11.9409
G1 X214.374 Y187.376 E11.9453
G1 X212.349 Y190.356 E12.1719
G1 X212.307 Y190.413 E12.1763
G1 X210.098 Y193.262 E12.4029
G1 X210.053 Y193.316 E12.4074
G1 X207.669 Y196.020 E12.6339
G1 X207.621 Y196.071 E12.6384
G1 X205.071 Y198.621 E12.8650
