; G-Code generated by Simplify3D(R) Version 4.1.2
; May 7, 2020 at 9:04:28 PM
; Settings Summary
;   processName,Process1
;   applyToModels,HeliosCapRaMotorHolder
;   profileName,X5X-ABSpro (modified)
;   profileVersion,2020-04-22 09:40:43
;   baseProfile,TRONXY X5S
;   printMaterial,PLA
;   printQuality,Medium
;   printExtruders,
;   extruderName,Primary Extruder
;   extruderToolheadNumber,0
;   extruderDiameter,0.4
;   extruderAutoWidth,0
;   extruderWidth,0.4
;   extrusionMultiplier,1.05
;   extruderUseRetract,1
;   extruderRetractionDistance,5
;   extruderExtraRestartDistance,-0.1
;   extruderRetractionZLift,0
;   extruderRetractionSpeed,4800
;   extruderUseCoasting,0
;   extruderCoastingDistance,0.2
;   extruderUseWipe,0
;   extruderWipeDistance,5
;   primaryExtruder,0
;   layerHeight,0.2
;   topSolidLayers,3
;   bottomSolidLayers,3
;   perimeterOutlines,5
;   printPerimetersInsideOut,0
;   startPointOption,2
;   startPointOriginX,0
;   startPointOriginY,0
;   sequentialIslands,0
;   spiralVaseMode,0
;   firstLayerHeightPercentage,120
;   firstLayerWidthPercentage,150
;   firstLayerUnderspeed,0.5
;   useRaft,0
;   raftExtruder,0
;   raftTopLayers,3
;   raftBaseLayers,2
;   raftOffset,0
;   raftSeparationDistance,0
;   raftTopInfill,100
;   aboveRaftSpeedMultiplier,0.3
;   useSkirt,1
;   skirtExtruder,0
;   skirtLayers,1
;   skirtOutlines,5
;   skirtOffset,0.15
;   usePrimePillar,0
;   primePillarExtruder,999
;   primePillarWidth,12
;   primePillarLocation,7
;   primePillarSpeedMultiplier,1
;   useOozeShield,0
;   oozeShieldExtruder,999
;   oozeShieldOffset,2
;   oozeShieldOutlines,1
;   oozeShieldSidewallShape,1
;   oozeShieldSidewallAngle,30
;   oozeShieldSpeedMultiplier,1
;   infillExtruder,0
;   internalInfillPattern,Rectilinear
;   externalInfillPattern,Rectilinear
;   infillPercentage,20
;   outlineOverlapPercentage,15
;   infillExtrusionWidthPercentage,100
;   minInfillLength,5
;   infillLayerInterval,1
;   internalInfillAngles,45,-45
;   overlapInternalInfillAngles,0
;   externalInfillAngles,45,-45
;   generateSupport,0
;   supportExtruder,0
;   supportInfillPercentage,30
;   supportExtraInflation,0
;   supportBaseLayers,1
;   denseSupportExtruder,0
;   denseSupportLayers,0
;   denseSupportInfillPercentage,70
;   supportLayerInterval,1
;   supportHorizontalPartOffset,0.3
;   supportUpperSeparationLayers,1
;   supportLowerSeparationLayers,1
;   supportType,0
;   supportGridSpacing,3
;   maxOverhangAngle,70
;   supportAngles,0
;   temperatureName,Primary Extruder,Heated Bed
;   temperatureNumber,0,0
;   temperatureSetpointCount,1,1
;   temperatureSetpointLayers,1,1
;   temperatureSetpointTemperatures,240,90
;   temperatureStabilizeAtStartup,1,1
;   temperatureHeatedBed,0,1
;   fanLayers,1
;   fanSpeeds,0
;   blipFanToFullPower,0
;   adjustSpeedForCooling,1
;   minSpeedLayerTime,15
;   minCoolingSpeedSlowdown,20
;   increaseFanForCooling,0
;   minFanLayerTime,45
;   maxCoolingFanSpeed,100
;   increaseFanForBridging,0
;   bridgingFanSpeed,100
;   use5D,1
;   relativeEdistances,0
;   allowEaxisZeroing,1
;   independentExtruderAxes,0
;   includeM10123,0
;   stickySupport,1
;   applyToolheadOffsets,0
;   gcodeXoffset,0
;   gcodeYoffset,0
;   gcodeZoffset,0
;   overrideMachineDefinition,1
;   machineTypeOverride,0
;   strokeXoverride,330
;   strokeYoverride,330
;   strokeZoverride,400
;   originOffsetXoverride,0
;   originOffsetYoverride,0
;   originOffsetZoverride,0
;   homeXdirOverride,-1
;   homeYdirOverride,-1
;   homeZdirOverride,-1
;   flipXoverride,1
;   flipYoverride,-1
;   flipZoverride,1
;   toolheadOffsets,0,0|0,0|0,0|0,0|0,0|0,0
;   overrideFirmwareConfiguration,1
;   firmwareTypeOverride,RepRap (Marlin/Repetier/Sprinter)
;   GPXconfigOverride,r2
;   baudRateOverride,250000
;   overridePrinterModels,1
;   printerModelsOverride
;   startingGcode,G28 ; home all axes,G1 Z0.2 F3000 ; get ready to prime,G92 E0 ; reset extrusion distance,G1 X100 E10 F600 ; prime nozzle
;   layerChangeGcode,
;   retractionGcode,
;   toolChangeGcode,
;   endingGcode,G28 X0 ; home x axis,M106 S0 ; turn off cooling fan,M104 S0 ; turn off extruder,M140 S0 ; turn off bed,M84 ; disable motors
;   exportFileFormat,gcode
;   celebration,0
;   celebrationSong,Funky Town
;   postProcessing,
;   defaultSpeed,3000
;   outlineUnderspeed,0.5
;   solidInfillUnderspeed,0.8
;   supportUnderspeed,0.8
;   rapidXYspeed,4800
;   rapidZspeed,1002
;   minBridgingArea,5
;   bridgingExtraInflation,2
;   bridgingExtrusionMultiplier,1
;   bridgingSpeedMultiplier,1
;   useFixedBridgingAngle,1
;   fixedBridgingAngle,0
;   applyBridgingToPerimeters,0
;   filamentDiameters,1.75|1.75|1.75|1.75|1.75|1.75
;   filamentPricesPerKg,46|46|46|46|46|46
;   filamentDensities,1.25|1.25|1.25|1.25|1.25|1.25
;   useMinPrintHeight,0
;   minPrintHeight,0
;   useMaxPrintHeight,0
;   maxPrintHeight,10
;   useDiaphragm,0
;   diaphragmLayerInterval,20
;   robustSlicing,1
;   mergeAllIntoSolid,0
;   onlyRetractWhenCrossingOutline,1
;   retractBetweenLayers,1
;   useRetractionMinTravel,0
;   retractionMinTravel,3
;   retractWhileWiping,0
;   onlyWipeOutlines,1
;   avoidCrossingOutline,0
;   maxMovementDetourFactor,3
;   toolChangeRetractionDistance,12
;   toolChangeExtraRestartDistance,-0.5
;   toolChangeRetractionSpeed,600
;   externalThinWallType,0
;   internalThinWallType,2
;   thinWallAllowedOverlapPercentage,10
;   singleExtrusionMinLength,1
;   singleExtrusionMinPrintingWidthPercentage,50
;   singleExtrusionMaxPrintingWidthPercentage,200
;   singleExtrusionEndpointExtension,0.2
;   horizontalSizeCompensation,0
G90
M82
M106 S0
M140 S90
M190 S90
M104 S240 T0
M109 S240 T0
G28 ; home all axes
G1 Z0.2 F3000 ; get ready to prime
G92 E0 ; reset extrusion distance
G1 X100 E10 F600 ; prime nozzle
; process Process1
; layer 1, Z = 0.240
T0
G92 E0.0000
G1 E-5.0000 F4800
; feature skirt
; tool H0.240 W0.600
G1 Z0.240 F1002
G1 X121.924 Y118.610 F4800
G1 E-0.1000 F4800
G92 E0.0000
G1 X121.985 Y118.545 E0.0056 F1500
G1 X124.546 Y115.984 E0.2333
G1 X124.611 Y115.923 E0.2389
G1 X127.326 Y113.530 E0.4664
G1 X127.395 Y113.473 E0.4720
G1 X130.255 Y111.254 E0.6996
G1 X130.328 Y111.201 E0.7053
G1 X133.321 Y109.167 E0.9328
G1 X133.397 Y109.119 E0.9384
G1 X136.513 Y107.276 E1.1660
G1 X136.592 Y107.233 E1.1716
G1 X139.817 Y105.589 E1.3992
G1 X139.898 Y105.551 E1.4048
G1 X143.221 Y104.113 E1.6324
G1 X143.304 Y104.080 E1.6380
G1 X146.710 Y102.854 E1.8656
G1 X146.795 Y102.826 E1.8712
G1 X150.272 Y101.816 E2.0988
G1 X150.359 Y101.794 E2.1044
G1 X153.892 Y101.004 E2.3320
G1 X153.980 Y100.987 E2.3376
G1 X157.150 Y100.485 E2.5394
G1 X157.150 Y92.119 E3.0653
G1 X158.819 Y90.450 E3.2137
G1 X164.681 Y90.450 E3.5822
G1 X165.000 Y90.769 E3.6106
G1 X165.319 Y90.450 E3.6390
G1 X171.181 Y90.450 E4.0074
G1 X172.850 Y92.119 E4.1558
G1 X172.850 Y100.485 E4.6817
G1 X176.020 Y100.988 E4.8835
G1 X176.108 Y101.004 E4.8891
G1 X179.641 Y101.794 E5.1167
G1 X179.728 Y101.816 E5.1223
G1 X183.205 Y102.826 E5.3499
G1 X183.290 Y102.854 E5.3555
G1 X186.696 Y104.080 E5.5831
G1 X186.779 Y104.113 E5.5887
G1 X190.102 Y105.551 E5.8163
G1 X190.183 Y105.589 E5.8219
G1 X193.409 Y107.233 E6.0495
G1 X193.487 Y107.276 E6.0551
G1 X196.603 Y109.119 E6.2827
G1 X196.679 Y109.167 E6.2883
G1 X199.672 Y111.201 E6.5158
G1 X199.745 Y111.254 E6.5215
G1 X202.605 Y113.473 E6.7491
G1 X202.674 Y113.530 E6.7547
G1 X205.390 Y115.924 E6.9823
G1 X205.455 Y115.985 E6.9879
G1 X208.015 Y118.545 E7.2155
G1 X208.076 Y118.610 E7.2211
G1 X210.470 Y121.326 E7.4487
G1 X210.527 Y121.395 E7.4543
G1 X212.746 Y124.255 E7.6819
G1 X212.799 Y124.328 E7.6875
G1 X214.833 Y127.321 E7.9150
G1 X214.881 Y127.397 E7.9207
G1 X216.724 Y130.513 E8.1482
G1 X216.767 Y130.592 E8.1539
G1 X218.411 Y133.817 E8.3814
G1 X218.449 Y133.898 E8.3871
G1 X219.887 Y137.221 E8.6146
G1 X219.920 Y137.304 E8.6203
G1 X221.146 Y140.710 E8.8478
G1 X221.174 Y140.795 E8.8535
G1 X222.184 Y144.272 E9.0811
G1 X222.206 Y144.359 E9.0867
G1 X222.996 Y147.892 E9.3143
G1 X223.012 Y147.980 E9.3199
G1 X223.579 Y151.555 E9.5474
G1 X223.590 Y151.644 E9.5531
G1 X223.931 Y155.247 E9.7806
G1 X223.936 Y155.337 E9.7862
G1 X224.050 Y158.955 E10.0138
G1 X224.050 Y159.045 E10.0194
G1 X223.936 Y162.663 E10.2470
G1 X223.931 Y162.753 E10.2526
G1 X223.590 Y166.356 E10.4802
G1 X223.579 Y166.445 E10.4858
G1 X223.012 Y170.020 E10.7133
G1 X222.996 Y170.108 E10.7190
G1 X222.206 Y173.641 E10.9465
G1 X222.184 Y173.728 E10.9522
G1 X221.174 Y177.205 E11.1798
G1 X221.146 Y177.290 E11.1854
G1 X219.920 Y180.696 E11.4130
G1 X219.887 Y180.779 E11.4186
G1 X218.449 Y184.102 E11.6462
G1 X218.411 Y184.183 E11.6518
G1 X216.767 Y187.409 E11.8794
G1 X216.724 Y187.487 E11.8850
G1 X214.881 Y190.603 E12.1126
G1 X214.833 Y190.679 E12.1182
G1 X212.799 Y193.672 E12.3457
G1 X212.746 Y193.745 E12.3513
G1 X210.527 Y196.605 E12.5790
G1 X210.470 Y196.674 E12.5846
G1 X208.076 Y199.390 E12.8121
G1 X208.015 Y199.455 E12.8178
G1 X205.455 Y202.015 E13.0453
G1 X205.390 Y202.076 E13.0510
G1 X202.674 Y204.470 E13.2785
G1 X202.605 Y204.527 E13.2842
G1 X199.745 Y206.746 E13.5118
G1 X199.672 Y206.799 E13.5174
G1 X196.679 Y208.833 E13.7449
G1 X196.603 Y208.881 E13.7505
G1 X193.487 Y210.724 E13.9781
G1 X193.409 Y210.767 E13.9837
G1 X190.183 Y212.411 E14.2113
G1 X190.101 Y212.449 E14.2170
G1 X188.850 Y212.991 E14.3027
G1 X188.850 Y237.881 E15.8673
G1 X187.181 Y239.550 E16.0157
G1 X176.385 Y239.550 E16.6943
G1 X174.697 Y236.979 E16.8877
G1 X175.598 Y234.897 E17.0303
G1 X175.841 Y234.222 E17.0754
G1 X176.041 Y233.534 E17.1204
G1 X176.197 Y232.836 E17.1654
G1 X176.309 Y232.128 E17.2104
G1 X176.376 Y231.416 E17.2554
G1 X176.399 Y230.700 E17.3004
G1 X176.376 Y229.984 E17.3455
G1 X176.309 Y229.272 E17.3904
G1 X176.197 Y228.564 E17.4355
G1 X176.040 Y227.865 E17.4805
G1 X175.841 Y227.178 E17.5255
G1 X175.598 Y226.504 E17.5705
G1 X175.314 Y225.847 E17.6155
G1 X174.989 Y225.209 E17.6605
G1 X174.624 Y224.592 E17.7056
G1 X174.222 Y224.000 E17.7506
G1 X173.783 Y223.434 E17.7956
G1 X173.309 Y222.897 E17.8406
G1 X172.803 Y222.391 E17.8856
G1 X172.266 Y221.917 E17.9306
G1 X171.700 Y221.478 E17.9756
G1 X171.108 Y221.076 E18.0207
G1 X170.492 Y220.711 E18.0657
G1 X169.853 Y220.386 E18.1107
G1 X169.196 Y220.102 E18.1557
G1 X168.523 Y219.859 E18.2007
G1 X167.835 Y219.660 E18.2457
G1 X167.136 Y219.503 E18.2908
G1 X166.428 Y219.391 E18.3358
G1 X165.716 Y219.324 E18.3808
G1 X165.000 Y219.301 E18.4258
G1 X164.284 Y219.324 E18.4708
G1 X163.572 Y219.391 E18.5158
G1 X162.864 Y219.503 E18.5608
G1 X162.165 Y219.660 E18.6058
G1 X161.478 Y219.859 E18.6509
G1 X160.804 Y220.102 E18.6959
G1 X160.147 Y220.386 E18.7409
G1 X159.509 Y220.711 E18.7859
G1 X158.892 Y221.076 E18.8309
G1 X158.300 Y221.478 E18.8759
G1 X157.734 Y221.917 E18.9209
G1 X157.197 Y222.391 E18.9660
G1 X156.691 Y222.897 E19.0110
G1 X156.217 Y223.434 E19.0560
G1 X155.778 Y224.000 E19.1010
G1 X155.376 Y224.592 E19.1460
G1 X155.011 Y225.209 E19.1910
G1 X154.686 Y225.847 E19.2360
G1 X154.402 Y226.504 E19.2810
G1 X154.159 Y227.178 E19.3261
G1 X153.960 Y227.865 E19.3710
G1 X153.803 Y228.564 E19.4161
G1 X153.691 Y229.271 E19.4611
G1 X153.624 Y229.985 E19.5061
G1 X153.601 Y230.700 E19.5511
G1 X153.624 Y231.415 E19.5961
G1 X153.691 Y232.129 E19.6412
G1 X153.803 Y232.836 E19.6862
G1 X153.960 Y233.535 E19.7312
G1 X154.159 Y234.223 E19.7762
G1 X154.402 Y234.896 E19.8212
G1 X155.303 Y236.979 E19.9639
G1 X153.615 Y239.550 E20.1572
G1 X142.819 Y239.550 E20.8359
G1 X141.150 Y237.881 E20.9843
G1 X141.150 Y212.991 E22.5489
G1 X139.898 Y212.449 E22.6346
G1 X139.817 Y212.411 E22.6402
G1 X136.592 Y210.767 E22.8678
G1 X136.513 Y210.724 E22.8734
G1 X133.397 Y208.881 E23.1010
G1 X133.321 Y208.833 E23.1067
G1 X130.328 Y206.799 E23.3342
G1 X130.255 Y206.746 E23.3398
G1 X127.395 Y204.527 E23.5674
G1 X127.326 Y204.470 E23.5730
G1 X124.611 Y202.077 E23.8005
G1 X124.546 Y202.016 E23.8062
G1 X121.985 Y199.455 E24.0338
G1 X121.924 Y199.390 E24.0394
G1 X119.530 Y196.674 E24.2670
G1 X119.473 Y196.605 E24.2726
G1 X117.254 Y193.745 E24.5002
G1 X117.201 Y193.672 E24.5059
G1 X115.167 Y190.679 E24.7334
G1 X115.119 Y190.603 E24.7390
G1 X113.276 Y187.487 E24.9666
G1 X113.233 Y187.409 E24.9722
G1 X111.589 Y184.183 E25.1998
G1 X111.551 Y184.102 E25.2054
G1 X110.113 Y180.779 E25.4330
G1 X110.080 Y180.696 E25.4386
G1 X108.854 Y177.290 E25.6662
G1 X108.826 Y177.205 E25.6718
G1 X107.816 Y173.728 E25.8994
G1 X107.794 Y173.641 E25.9050
G1 X107.004 Y170.108 E26.1326
G1 X106.988 Y170.020 E26.1382
G1 X106.421 Y166.445 E26.3658
G1 X106.410 Y166.356 E26.3714
G1 X106.069 Y162.753 E26.5989
G1 X106.064 Y162.663 E26.6046
G1 X105.950 Y159.045 E26.8321
G1 X105.950 Y158.955 E26.8378
G1 X106.064 Y155.337 E27.0654
G1 X106.069 Y155.247 E27.0710
G1 X106.410 Y151.644 E27.2985
G1 X106.421 Y151.555 E27.3041
G1 X106.987 Y147.980 E27.5317
G1 X107.004 Y147.892 E27.5373
G1 X107.794 Y144.359 E27.7649
G1 X107.816 Y144.272 E27.7705
G1 X108.826 Y140.795 E27.9981
G1 X108.854 Y140.710 E28.0037
G1 X110.080 Y137.304 E28.2313
G1 X110.113 Y137.221 E28.2369
G1 X111.551 Y133.898 E28.4645
G1 X111.589 Y133.817 E28.4701
G1 X113.233 Y130.592 E28.6977
G1 X113.276 Y130.513 E28.7033
G1 X115.119 Y127.397 E28.9309
G1 X115.167 Y127.321 E28.9365
G1 X117.201 Y124.328 E29.1641
G1 X117.254 Y124.255 E29.1697
G1 X119.473 Y121.395 E29.3973
G1 X119.530 Y121.326 E29.4029
G1 X121.924 Y118.610 E29.6305
G92 E0.0000
G1 E-5.0000 F4800
G1 X122.368 Y119.014 F4800
G1 E-0.1000 F4800
G92 E0.0000
G1 X122.416 Y118.963 E0.0044 F1500
G1 X124.963 Y116.416 E0.2309
G1 X125.015 Y116.367 E0.2353
G1 X127.715 Y113.986 E0.4617
G1 X127.770 Y113.941 E0.4661
G1 X130.616 Y111.734 E0.6925
G1 X130.673 Y111.692 E0.6969
G1 X133.651 Y109.668 E0.9233
G1 X133.711 Y109.630 E0.9277
G1 X136.811 Y107.797 E1.1541
G1 X136.872 Y107.763 E1.1586
G1 X140.081 Y106.128 E1.3850
G1 X140.145 Y106.098 E1.3894
G1 X143.450 Y104.668 E1.6158
G1 X143.516 Y104.642 E1.6202
G1 X146.904 Y103.422 E1.8466
G1 X146.972 Y103.400 E1.8511
G1 X150.430 Y102.395 E2.0775
G1 X150.499 Y102.377 E2.0819
G1 X154.013 Y101.592 E2.3083
G1 X154.083 Y101.579 E2.3127
G1 X157.639 Y101.015 E2.5391
G1 X157.709 Y101.007 E2.5435
G1 X157.750 Y101.003 E2.5461
G1 X157.750 Y92.368 E3.0889
G1 X159.068 Y91.050 E3.2061
G1 X164.432 Y91.050 E3.5432
G1 X165.000 Y91.618 E3.5937
G1 X165.568 Y91.050 E3.6442
G1 X170.932 Y91.050 E3.9814
G1 X172.250 Y92.368 E4.0986
G1 X172.250 Y101.003 E4.6414
G1 X172.291 Y101.007 E4.6439
G1 X172.361 Y101.015 E4.6484
G1 X175.917 Y101.579 E4.8747
G1 X175.987 Y101.592 E4.8792
G1 X179.501 Y102.377 E5.1056
G1 X179.570 Y102.395 E5.1100
G1 X183.028 Y103.400 E5.3364
G1 X183.096 Y103.422 E5.3409
G1 X186.484 Y104.642 E5.5672
G1 X186.550 Y104.668 E5.5717
G1 X189.855 Y106.098 E5.7981
G1 X189.919 Y106.128 E5.8025
G1 X193.128 Y107.763 E6.0289
G1 X193.190 Y107.797 E6.0334
G1 X196.289 Y109.630 E6.2597
G1 X196.349 Y109.668 E6.2642
G1 X199.327 Y111.692 E6.4905
G1 X199.384 Y111.733 E6.4950
G1 X202.230 Y113.941 E6.7214
G1 X202.285 Y113.986 E6.7258
G1 X204.986 Y116.368 E6.9522
G1 X205.037 Y116.416 E6.9566
G1 X207.584 Y118.963 E7.1830
G1 X207.632 Y119.014 E7.1875
G1 X210.014 Y121.715 E7.4138
G1 X210.059 Y121.770 E7.4183
G1 X212.267 Y124.616 E7.6447
G1 X212.308 Y124.673 E7.6491
G1 X214.332 Y127.651 E7.8755
G1 X214.370 Y127.711 E7.8799
G1 X216.203 Y130.811 E8.1063
G1 X216.237 Y130.872 E8.1108
G1 X217.872 Y134.081 E8.3372
G1 X217.902 Y134.145 E8.3416
G1 X219.332 Y137.450 E8.5680
G1 X219.358 Y137.516 E8.5724
G1 X220.578 Y140.904 E8.7988
G1 X220.600 Y140.972 E8.8032
G1 X221.605 Y144.430 E9.0297
G1 X221.623 Y144.499 E9.0341
G1 X222.408 Y148.013 E9.2605
G1 X222.421 Y148.083 E9.2649
G1 X222.985 Y151.640 E9.4913
G1 X222.994 Y151.710 E9.4957
G1 X223.332 Y155.294 E9.7221
G1 X223.337 Y155.365 E9.7265
G1 X223.450 Y158.965 E9.9529
G1 X223.450 Y159.035 E9.9574
G1 X223.337 Y162.635 E10.1838
G1 X223.332 Y162.706 E10.1882
G1 X222.993 Y166.291 E10.4146
G1 X222.985 Y166.361 E10.4190
G1 X222.421 Y169.917 E10.6454
G1 X222.408 Y169.987 E10.6498
G1 X221.623 Y173.501 E10.8762
G1 X221.605 Y173.570 E10.8806
G1 X220.600 Y177.028 E11.1070
G1 X220.578 Y177.096 E11.1115
G1 X219.358 Y180.484 E11.3379
G1 X219.332 Y180.550 E11.3423
