; G-Code generated by Simplify3D(R) Version 4.1.2
; May 2, 2020 at 10:23:55 PM
; Settings Summary
;   processName,Process1
;   applyToModels,MirrorHolder
;   profileName,X5X-ABSpro (modified)
;   profileVersion,2020-04-22 09:40:43
;   baseProfile,TRONXY X5S
;   printMaterial,PLA
;   printQuality,Medium
;   printExtruders,
;   extruderName,Primary Extruder
;   extruderToolheadNumber,0
;   extruderDiameter,0.4
;   extruderAutoWidth,0
;   extruderWidth,0.4
;   extrusionMultiplier,1.05
;   extruderUseRetract,1
;   extruderRetractionDistance,5
;   extruderExtraRestartDistance,-0.1
;   extruderRetractionZLift,0
;   extruderRetractionSpeed,4800
;   extruderUseCoasting,0
;   extruderCoastingDistance,0.2
;   extruderUseWipe,0
;   extruderWipeDistance,5
;   primaryExtruder,0
;   layerHeight,0.2
;   topSolidLayers,3
;   bottomSolidLayers,3
;   perimeterOutlines,5
;   printPerimetersInsideOut,0
;   startPointOption,2
;   startPointOriginX,0
;   startPointOriginY,0
;   sequentialIslands,0
;   spiralVaseMode,0
;   firstLayerHeightPercentage,120
;   firstLayerWidthPercentage,150
;   firstLayerUnderspeed,0.5
;   useRaft,0
;   raftExtruder,0
;   raftTopLayers,3
;   raftBaseLayers,2
;   raftOffset,0
;   raftSeparationDistance,0
;   raftTopInfill,100
;   aboveRaftSpeedMultiplier,0.3
;   useSkirt,1
;   skirtExtruder,0
;   skirtLayers,1
;   skirtOutlines,3
;   skirtOffset,0.15
;   usePrimePillar,0
;   primePillarExtruder,999
;   primePillarWidth,12
;   primePillarLocation,7
;   primePillarSpeedMultiplier,1
;   useOozeShield,0
;   oozeShieldExtruder,999
;   oozeShieldOffset,2
;   oozeShieldOutlines,1
;   oozeShieldSidewallShape,1
;   oozeShieldSidewallAngle,30
;   oozeShieldSpeedMultiplier,1
;   infillExtruder,0
;   internalInfillPattern,Rectilinear
;   externalInfillPattern,Rectilinear
;   infillPercentage,20
;   outlineOverlapPercentage,15
;   infillExtrusionWidthPercentage,100
;   minInfillLength,5
;   infillLayerInterval,1
;   internalInfillAngles,45,-45
;   overlapInternalInfillAngles,0
;   externalInfillAngles,45,-45
;   generateSupport,0
;   supportExtruder,0
;   supportInfillPercentage,30
;   supportExtraInflation,0
;   supportBaseLayers,0
;   denseSupportExtruder,0
;   denseSupportLayers,0
;   denseSupportInfillPercentage,70
;   supportLayerInterval,1
;   supportHorizontalPartOffset,0.3
;   supportUpperSeparationLayers,1
;   supportLowerSeparationLayers,1
;   supportType,0
;   supportGridSpacing,3
;   maxOverhangAngle,70
;   supportAngles,0
;   temperatureName,Primary Extruder,Heated Bed
;   temperatureNumber,0,0
;   temperatureSetpointCount,1,1
;   temperatureSetpointLayers,1,1
;   temperatureSetpointTemperatures,240,90
;   temperatureStabilizeAtStartup,1,1
;   temperatureHeatedBed,0,1
;   fanLayers,1
;   fanSpeeds,0
;   blipFanToFullPower,0
;   adjustSpeedForCooling,1
;   minSpeedLayerTime,15
;   minCoolingSpeedSlowdown,20
;   increaseFanForCooling,0
;   minFanLayerTime,45
;   maxCoolingFanSpeed,100
;   increaseFanForBridging,0
;   bridgingFanSpeed,100
;   use5D,1
;   relativeEdistances,0
;   allowEaxisZeroing,1
;   independentExtruderAxes,0
;   includeM10123,0
;   stickySupport,1
;   applyToolheadOffsets,0
;   gcodeXoffset,0
;   gcodeYoffset,0
;   gcodeZoffset,0
;   overrideMachineDefinition,1
;   machineTypeOverride,0
;   strokeXoverride,330
;   strokeYoverride,330
;   strokeZoverride,400
;   originOffsetXoverride,0
;   originOffsetYoverride,0
;   originOffsetZoverride,0
;   homeXdirOverride,-1
;   homeYdirOverride,-1
;   homeZdirOverride,-1
;   flipXoverride,1
;   flipYoverride,-1
;   flipZoverride,1
;   toolheadOffsets,0,0|0,0|0,0|0,0|0,0|0,0
;   overrideFirmwareConfiguration,1
;   firmwareTypeOverride,RepRap (Marlin/Repetier/Sprinter)
;   GPXconfigOverride,r2
;   baudRateOverride,250000
;   overridePrinterModels,1
;   printerModelsOverride
;   startingGcode,G28 ; home all axes,G1 Z0.2 F3000 ; get ready to prime,G92 E0 ; reset extrusion distance,G1 X100 E10 F600 ; prime nozzle
;   layerChangeGcode,
;   retractionGcode,
;   toolChangeGcode,
;   endingGcode,G28 X0 ; home x axis,M106 S0 ; turn off cooling fan,M104 S0 ; turn off extruder,M140 S0 ; turn off bed,M84 ; disable motors
;   exportFileFormat,gcode
;   celebration,0
;   celebrationSong,Funky Town
;   postProcessing,
;   defaultSpeed,3000
;   outlineUnderspeed,0.5
;   solidInfillUnderspeed,0.8
;   supportUnderspeed,0.8
;   rapidXYspeed,4800
;   rapidZspeed,1002
;   minBridgingArea,5
;   bridgingExtraInflation,2
;   bridgingExtrusionMultiplier,1
;   bridgingSpeedMultiplier,1
;   useFixedBridgingAngle,1
;   fixedBridgingAngle,0
;   applyBridgingToPerimeters,0
;   filamentDiameters,1.75|1.75|1.75|1.75|1.75|1.75
;   filamentPricesPerKg,46|46|46|46|46|46
;   filamentDensities,1.25|1.25|1.25|1.25|1.25|1.25
;   useMinPrintHeight,0
;   minPrintHeight,0
;   useMaxPrintHeight,0
;   maxPrintHeight,40
;   useDiaphragm,0
;   diaphragmLayerInterval,20
;   robustSlicing,1
;   mergeAllIntoSolid,0
;   onlyRetractWhenCrossingOutline,1
;   retractBetweenLayers,1
;   useRetractionMinTravel,0
;   retractionMinTravel,3
;   retractWhileWiping,0
;   onlyWipeOutlines,1
;   avoidCrossingOutline,0
;   maxMovementDetourFactor,3
;   toolChangeRetractionDistance,12
;   toolChangeExtraRestartDistance,-0.5
;   toolChangeRetractionSpeed,600
;   externalThinWallType,0
;   internalThinWallType,2
;   thinWallAllowedOverlapPercentage,10
;   singleExtrusionMinLength,1
;   singleExtrusionMinPrintingWidthPercentage,50
;   singleExtrusionMaxPrintingWidthPercentage,200
;   singleExtrusionEndpointExtension,0.2
;   horizontalSizeCompensation,0
G90
M82
M106 S0
M140 S90
M190 S90
M104 S240 T0
M109 S240 T0
G28 ; home all axes
G1 Z0.2 F3000 ; get ready to prime
G92 E0 ; reset extrusion distance
G1 X100 E10 F600 ; prime nozzle
; process Process1
; layer 1, Z = 0.240
T0
G92 E0.0000
G1 E-5.0000 F4800
; feature skirt
; tool H0.240 W0.600
G1 Z0.240 F1002
G1 X114.316 Y159.359 F4800
G1 E-0.1000 F4800
G92 E0.0000
G1 X215.683 Y159.350 E6.3721 F1500
G1 X216.650 Y160.317 E6.4580
G1 X216.650 Y169.683 E7.0468
G1 X215.683 Y170.650 E7.1328
G1 X114.317 Y170.650 E13.5049
G1 X113.350 Y169.683 E13.5908
G1 X113.350 Y160.325 E14.1790
G1 X114.316 Y159.359 E14.2650
G92 E0.0000
G1 E-5.0000 F4800
G1 X114.565 Y159.959 F4800
G1 E-0.1000 F4800
G92 E0.0000
G1 X215.435 Y159.950 E6.3408 F1500
G1 X216.050 Y160.565 E6.3955
G1 X216.050 Y169.435 E6.9531
G1 X215.435 Y170.050 E7.0078
G1 X114.565 Y170.050 E13.3486
G1 X113.950 Y169.435 E13.4033
G1 X113.950 Y160.574 E13.9603
G1 X114.565 Y159.959 E14.0150
G92 E0.0000
G1 E-5.0000 F4800
G1 X114.814 Y160.559 F4800
G1 E-0.1000 F4800
G92 E0.0000
G1 X215.186 Y160.550 E6.3096 F1500
G1 X215.450 Y160.814 E6.3330
G1 X215.450 Y169.186 E6.8594
G1 X215.186 Y169.450 E6.8828
G1 X114.814 Y169.450 E13.1924
G1 X114.550 Y169.186 E13.2158
G1 X114.550 Y160.822 E13.7416
G1 X114.814 Y160.559 E13.7650
G92 E0.0000
G1 E-5.0000 F4800
; feature outer perimeter
G1 X115.300 Y161.309 F4800
G1 E-0.1000 F4800
G92 E0.0000
G1 X214.700 Y161.300 E6.2484 F750
G1 X214.700 Y168.700 E6.7136
G1 X115.300 Y168.700 E12.9621
G1 X115.300 Y161.309 E13.4267
; feature inner perimeter
G1 X115.900 Y161.909 F4800
G92 E0.0000
G1 X214.100 Y161.900 E6.1730 F1125
G1 X214.100 Y168.100 E6.5628
G1 X115.900 Y168.100 E12.7358
G1 X115.900 Y161.909 E13.1250
G1 X116.500 Y162.509 F4800
G92 E0.0000
G1 X163.262 Y162.505 E2.9396 F1125
G1 X162.683 Y163.083 E2.9910
G1 X162.365 Y163.552 E3.0266
G1 X162.140 Y164.071 E3.0622
G1 X162.022 Y164.600 E3.0962
G1 X161.997 Y165.000 E3.1214
G1 X162.022 Y165.400 E3.1466
G1 X162.140 Y165.929 E3.1807
G1 X162.365 Y166.448 E3.2163
G1 X162.683 Y166.917 E3.2519
G1 X163.267 Y167.500 E3.3037
G1 X116.500 Y167.500 E6.2436
G1 X116.500 Y162.509 E6.5573
G1 X166.852 Y162.504 F4800
G92 E0.0000
G1 X213.500 Y162.500 E2.9324 F1125
G1 X213.500 Y167.500 E3.2467
G1 X166.733 Y167.500 E6.1865
G1 X167.317 Y166.917 E6.2384
G1 X167.635 Y166.448 E6.2739
G1 X167.859 Y165.929 E6.3095
G1 X167.978 Y165.400 E6.3436
G1 X168.003 Y165.000 E6.3688
G1 X167.976 Y164.576 E6.3955
G1 X167.806 Y163.914 E6.4384
G1 X167.539 Y163.389 E6.4755
G1 X166.852 Y162.504 E6.5459
G1 X168.067 Y163.104 F4800
G92 E0.0000
G1 X212.900 Y163.100 E2.8183 F1125
G1 X212.900 Y166.900 E3.0571
G1 X168.093 Y166.900 E5.8738
G1 X168.433 Y166.115 E5.9275
G1 X168.574 Y165.485 E5.9681
G1 X168.604 Y165.000 E5.9987
G1 X168.572 Y164.482 E6.0313
G1 X168.371 Y163.701 E6.0820
G1 X168.067 Y163.104 E6.1241
G1 X161.905 Y163.105 F4800
G92 E0.0000
G1 X161.567 Y163.885 E0.0534 F1125
G1 X161.426 Y164.515 E0.0940
G1 X161.396 Y165.000 E0.1246
G1 X161.426 Y165.485 E0.1551
G1 X161.567 Y166.115 E0.1957
G1 X161.907 Y166.900 E0.2495
G1 X117.100 Y166.900 E3.0661
G1 X117.100 Y163.109 E3.3044
G1 X161.905 Y163.105 E6.1209
G1 X160.993 Y163.705 F4800
G92 E0.0000
G1 X160.831 Y164.430 E0.0467 F1125
G1 X160.795 Y165.000 E0.0826
G1 X160.831 Y165.570 E0.1185
G1 X160.994 Y166.300 E0.1655
G1 X117.700 Y166.300 E2.8871
G1 X117.700 Y163.709 E3.0500
G1 X160.993 Y163.705 E5.7714
G92 E0.0000
G1 E-5.0000 F4800
G1 X168.991 Y163.704 F4800
G1 E-0.1000 F4800
G92 E0.0000
G1 X212.300 Y163.700 E2.7225 F1125
G1 X212.300 Y166.300 E2.8859
G1 X169.006 Y166.300 E5.6074
G1 X169.169 Y165.570 E5.6544
G1 X169.205 Y165.000 E5.6903
G1 X169.167 Y164.388 E5.7289
G1 X168.991 Y163.704 E5.7733
; feature outer perimeter
G1 X166.677 Y164.341 F4800
G92 E0.0000
G1 X166.521 Y164.035 E0.0216 F750
G1 X166.313 Y163.767 E0.0429
G1 X166.059 Y163.543 E0.0642
G1 X165.767 Y163.370 E0.0856
G1 X165.448 Y163.255 E0.1069
G1 X165.113 Y163.202 E0.1282
G1 X164.774 Y163.213 E0.1495
G1 X164.443 Y163.287 E0.1708
G1 X164.132 Y163.421 E0.1921
G1 X163.852 Y163.612 E0.2134
G1 X163.612 Y163.852 E0.2347
G1 X163.421 Y164.132 E0.2561
G1 X163.287 Y164.443 E0.2774
G1 X163.214 Y164.770 E0.2984
G1 X163.199 Y165.000 E0.3129
G1 X163.214 Y165.230 E0.3274
G1 X163.287 Y165.557 E0.3484
G1 X163.421 Y165.868 E0.3697
G1 X163.612 Y166.148 E0.3910
G1 X163.852 Y166.388 E0.4124
G1 X164.132 Y166.579 E0.4337
G1 X164.443 Y166.713 E0.4550
G1 X164.770 Y166.786 E0.4760
G1 X165.000 Y166.801 E0.4905
G1 X165.230 Y166.786 E0.5050
G1 X165.557 Y166.713 E0.5260
G1 X165.868 Y166.579 E0.5473
G1 X166.148 Y166.388 E0.5687
G1 X166.388 Y166.148 E0.5900
G1 X166.579 Y165.868 E0.6113
G1 X166.713 Y165.557 E0.6326
G1 X166.786 Y165.230 E0.6536
G1 X166.801 Y165.000 E0.6681
G1 X166.786 Y164.765 E0.6829
G1 X166.677 Y164.341 E0.7104
; feature inner perimeter
G1 X167.242 Y164.128 F4800
G92 E0.0000
G1 X167.030 Y163.712 E0.0293 F1125
G1 X166.752 Y163.354 E0.0578
G1 X166.413 Y163.055 E0.0862
G1 X166.024 Y162.825 E0.1147
G1 X165.598 Y162.672 E0.1431
G1 X165.151 Y162.601 E0.1716
G1 X164.699 Y162.615 E0.2000
G1 X164.257 Y162.714 E0.2284
G1 X163.842 Y162.893 E0.2569
G1 X163.468 Y163.148 E0.2853
G1 X163.148 Y163.468 E0.3138
G1 X162.893 Y163.842 E0.3422
G1 X162.714 Y164.257 E0.3707
G1 X162.618 Y164.685 E0.3982
G1 X162.598 Y165.000 E0.4181
G1 X162.618 Y165.315 E0.4379
G1 X162.714 Y165.743 E0.4655
G1 X162.893 Y166.158 E0.4939
G1 X163.148 Y166.532 E0.5223
G1 X163.468 Y166.852 E0.5508
G1 X163.842 Y167.107 E0.5792
G1 X164.257 Y167.286 E0.6077
G1 X164.685 Y167.382 E0.6352
G1 X165.000 Y167.402 E0.6551
G1 X165.315 Y167.382 E0.6749
G1 X165.743 Y167.286 E0.7025
G1 X166.158 Y167.107 E0.7309
G1 X166.532 Y166.852 E0.7594
G1 X166.852 Y166.532 E0.7878
G1 X167.107 Y166.158 E0.8163
G1 X167.286 Y165.743 E0.8447
G1 X167.382 Y165.315 E0.8722
G1 X167.402 Y165.000 E0.8921
G1 X167.381 Y164.671 E0.9129
G1 X167.242 Y164.128 E0.9481
; feature gap fill
; tool H0.240 W0.400
G1 X164.053 Y162.355 F4800
G92 E0.0000
G1 X164.026 Y162.329 E0.0016 F1500
G92 E0.0000
G1 E-5.0000 F4800
G1 X165.947 Y167.645 F4800
G1 E-0.1000 F4800
G92 E0.0000
G1 X165.974 Y167.671 E0.0016 F1500
; feature solid layer
; tool H0.240 W0.600
G1 X169.688 Y165.446 F4800
G92 E0.0000
G1 X170.033 Y165.790 E0.0306 F1200
G1 X170.881 Y165.790 E0.0840
G1 X169.691 Y164.600 E0.1897
G1 X169.673 Y164.308 E0.2082
G1 X169.649 Y164.214 E0.2142
G1 X170.154 Y164.214 E0.2460
G1 X171.730 Y165.790 E0.3861
G1 X172.578 Y165.790 E0.4394
G1 X171.002 Y164.214 E0.5795
G1 X171.851 Y164.214 E0.6329
G1 X173.427 Y165.790 E0.7730
G1 X174.275 Y165.790 E0.8263
G1 X172.699 Y164.214 E0.9665
G1 X173.547 Y164.214 E1.0198
G1 X175.124 Y165.790 E1.1599
G1 X175.972 Y165.790 E1.2133
G1 X174.396 Y164.214 E1.3534
G1 X175.244 Y164.213 E1.4068
G1 X176.821 Y165.790 E1.5469
G1 X177.669 Y165.790 E1.6003
G1 X176.093 Y164.213 E1.7404
G1 X176.941 Y164.213 E1.7937
G1 X178.518 Y165.790 E1.9339
G1 X179.366 Y165.790 E1.9873
G1 X177.790 Y164.213 E2.1274
G1 X178.638 Y164.213 E2.1808
G1 X180.215 Y165.790 E2.3209
G1 X181.064 Y165.790 E2.3743
G1 X179.487 Y164.213 E2.5145
G1 X180.335 Y164.213 E2.5678
G1 X181.912 Y165.790 E2.7080
G1 X182.761 Y165.790 E2.7613
G1 X181.184 Y164.213 E2.9015
G1 X182.032 Y164.213 E2.9549
G1 X183.609 Y165.790 E3.0951
G1 X184.458 Y165.790 E3.1484
G1 X182.880 Y164.213 E3.2886
G1 X183.729 Y164.213 E3.3419
G1 X185.306 Y165.790 E3.4822
G1 X186.155 Y165.790 E3.5355
G1 X184.577 Y164.213 E3.6757
G1 X185.426 Y164.213 E3.7291
G1 X187.003 Y165.790 E3.8693
G1 X187.852 Y165.790 E3.9226
G1 X186.274 Y164.213 E4.0629
G1 X187.123 Y164.212 E4.1162
G1 X188.700 Y165.790 E4.2564
G1 X189.549 Y165.790 E4.3098
G1 X187.971 Y164.212 E4.4500
G1 X188.820 Y164.212 E4.5034
G1 X190.397 Y165.790 E4.6436
G1 X191.246 Y165.790 E4.6970
G1 X189.668 Y164.212 E4.8372
G1 X190.517 Y164.212 E4.8906
G1 X192.094 Y165.790 E5.0308
G1 X192.943 Y165.790 E5.0842
G1 X191.365 Y164.212 E5.2245
G1 X192.213 Y164.212 E5.2778
G1 X193.791 Y165.790 E5.4181
G1 X194.640 Y165.790 E5.4714
G1 X193.062 Y164.212 E5.6117
G1 X193.910 Y164.212 E5.6650
G1 X195.488 Y165.790 E5.8053
G1 X196.337 Y165.790 E5.8587
G1 X194.759 Y164.212 E5.9990
G1 X195.607 Y164.212 E6.0523
G1 X197.186 Y165.790 E6.1926
G1 X198.034 Y165.790 E6.2460
G1 X196.456 Y164.212 E6.3863
G1 X197.304 Y164.212 E6.4396
G1 X198.883 Y165.790 E6.5799
G1 X199.731 Y165.790 E6.6333
G1 X198.153 Y164.211 E6.7736
G1 X199.001 Y164.211 E6.8269
G1 X200.580 Y165.790 E6.9673
G1 X201.428 Y165.790 E7.0206
G1 X199.850 Y164.211 E7.1610
G1 X200.698 Y164.211 E7.2143
G1 X202.277 Y165.790 E7.3546
G1 X203.125 Y165.790 E7.4080
G1 X201.546 Y164.211 E7.5483
G1 X202.395 Y164.211 E7.6017
G1 X203.974 Y165.790 E7.7420
G1 X204.822 Y165.790 E7.7954
G1 X203.243 Y164.211 E7.9357
G1 X204.092 Y164.211 E7.9891
G1 X205.671 Y165.790 E8.1295
G1 X206.519 Y165.790 E8.1828
G1 X204.940 Y164.211 E8.3232
G1 X205.789 Y164.211 E8.3765
G1 X207.368 Y165.790 E8.5169
G1 X208.216 Y165.790 E8.5702
G1 X206.637 Y164.211 E8.7106
G1 X207.486 Y164.211 E8.7640
G1 X209.065 Y165.790 E8.9044
G1 X209.913 Y165.790 E8.9577
G1 X208.334 Y164.211 E9.0981
G1 X209.183 Y164.211 E9.1515
G1 X210.762 Y165.790 E9.2919
G1 X211.611 Y165.790 E9.3452
G1 X210.031 Y164.210 E9.4856
G1 X210.879 Y164.210 E9.5390
G1 X211.790 Y165.121 E9.6199
G1 X211.790 Y164.272 E9.6733
G1 X211.728 Y164.210 E9.6788
G92 E0.0000
G1 E-5.0000 F4800
G1 X159.972 Y164.215 F4800
G1 E-0.1000 F4800
G92 E0.0000
G1 X160.312 Y164.554 E0.0302 F1200
G1 X160.284 Y165.000 E0.0583
G1 X160.309 Y165.400 E0.0834
G1 X159.124 Y164.215 E0.1888
G1 X158.275 Y164.215 E0.2421
G1 X159.850 Y165.790 E0.3821
G1 X159.002 Y165.790 E0.4355
G1 X157.427 Y164.215 E0.5755
G1 X156.578 Y164.215 E0.6288
G1 X158.153 Y165.790 E0.7688
G1 X157.305 Y165.790 E0.8222
G1 X155.730 Y164.215 E0.9622
G1 X154.881 Y164.215 E1.0155
G1 X156.456 Y165.790 E1.1555
G1 X155.608 Y165.790 E1.2088
G1 X154.033 Y164.215 E1.3488
G1 X153.185 Y164.215 E1.4022
G1 X154.759 Y165.790 E1.5421
G1 X153.911 Y165.790 E1.5955
G1 X152.336 Y164.216 E1.7355
G1 X151.488 Y164.216 E1.7888
G1 X153.062 Y165.790 E1.9288
G1 X152.214 Y165.790 E1.9821
G1 X150.639 Y164.216 E2.1220
G1 X149.791 Y164.216 E2.1754
G1 X151.365 Y165.790 E2.3153
G1 X150.517 Y165.790 E2.3687
G1 X148.942 Y164.216 E2.5086
G1 X148.094 Y164.216 E2.5620
G1 X149.668 Y165.790 E2.7019
G1 X148.819 Y165.790 E2.7552
G1 X147.245 Y164.216 E2.8952
G1 X146.397 Y164.216 E2.9485
G1 X147.971 Y165.790 E3.0884
G1 X147.122 Y165.790 E3.1418
G1 X145.549 Y164.216 E3.2817
G1 X144.700 Y164.216 E3.3350
G1 X146.274 Y165.790 E3.4749
G1 X145.425 Y165.790 E3.5283
