; G-Code generated by Simplify3D(R) Version 4.1.2
; May 2, 2020 at 6:33:55 PM
; Settings Summary
;   processName,Process1
;   applyToModels,MirrorRetainer
;   profileName,X5X-ABSpro
;   profileVersion,2020-04-22 09:40:43
;   baseProfile,TRONXY X5S
;   printMaterial,PLA
;   printQuality,Medium
;   printExtruders,
;   extruderName,Primary Extruder
;   extruderToolheadNumber,0
;   extruderDiameter,0.4
;   extruderAutoWidth,0
;   extruderWidth,0.4
;   extrusionMultiplier,1.05
;   extruderUseRetract,1
;   extruderRetractionDistance,5
;   extruderExtraRestartDistance,-0.1
;   extruderRetractionZLift,0
;   extruderRetractionSpeed,4800
;   extruderUseCoasting,0
;   extruderCoastingDistance,0.2
;   extruderUseWipe,0
;   extruderWipeDistance,5
;   primaryExtruder,0
;   layerHeight,0.2
;   topSolidLayers,3
;   bottomSolidLayers,3
;   perimeterOutlines,5
;   printPerimetersInsideOut,0
;   startPointOption,2
;   startPointOriginX,0
;   startPointOriginY,0
;   sequentialIslands,0
;   spiralVaseMode,0
;   firstLayerHeightPercentage,120
;   firstLayerWidthPercentage,150
;   firstLayerUnderspeed,0.5
;   useRaft,0
;   raftExtruder,0
;   raftTopLayers,3
;   raftBaseLayers,2
;   raftOffset,0
;   raftSeparationDistance,0
;   raftTopInfill,100
;   aboveRaftSpeedMultiplier,0.3
;   useSkirt,1
;   skirtExtruder,0
;   skirtLayers,1
;   skirtOutlines,3
;   skirtOffset,0.15
;   usePrimePillar,0
;   primePillarExtruder,999
;   primePillarWidth,12
;   primePillarLocation,7
;   primePillarSpeedMultiplier,1
;   useOozeShield,0
;   oozeShieldExtruder,999
;   oozeShieldOffset,2
;   oozeShieldOutlines,1
;   oozeShieldSidewallShape,1
;   oozeShieldSidewallAngle,30
;   oozeShieldSpeedMultiplier,1
;   infillExtruder,0
;   internalInfillPattern,Rectilinear
;   externalInfillPattern,Rectilinear
;   infillPercentage,20
;   outlineOverlapPercentage,15
;   infillExtrusionWidthPercentage,100
;   minInfillLength,5
;   infillLayerInterval,1
;   internalInfillAngles,45,-45
;   overlapInternalInfillAngles,0
;   externalInfillAngles,45,-45
;   generateSupport,1
;   supportExtruder,0
;   supportInfillPercentage,30
;   supportExtraInflation,0
;   supportBaseLayers,0
;   denseSupportExtruder,0
;   denseSupportLayers,0
;   denseSupportInfillPercentage,70
;   supportLayerInterval,1
;   supportHorizontalPartOffset,0.3
;   supportUpperSeparationLayers,1
;   supportLowerSeparationLayers,1
;   supportType,0
;   supportGridSpacing,3
;   maxOverhangAngle,70
;   supportAngles,0
;   temperatureName,Primary Extruder,Heated Bed
;   temperatureNumber,0,0
;   temperatureSetpointCount,1,1
;   temperatureSetpointLayers,1,1
;   temperatureSetpointTemperatures,240,90
;   temperatureStabilizeAtStartup,1,1
;   temperatureHeatedBed,0,1
;   fanLayers,1
;   fanSpeeds,0
;   blipFanToFullPower,0
;   adjustSpeedForCooling,1
;   minSpeedLayerTime,15
;   minCoolingSpeedSlowdown,20
;   increaseFanForCooling,0
;   minFanLayerTime,45
;   maxCoolingFanSpeed,100
;   increaseFanForBridging,0
;   bridgingFanSpeed,100
;   use5D,1
;   relativeEdistances,0
;   allowEaxisZeroing,1
;   independentExtruderAxes,0
;   includeM10123,0
;   stickySupport,1
;   applyToolheadOffsets,0
;   gcodeXoffset,0
;   gcodeYoffset,0
;   gcodeZoffset,0
;   overrideMachineDefinition,1
;   machineTypeOverride,0
;   strokeXoverride,330
;   strokeYoverride,330
;   strokeZoverride,400
;   originOffsetXoverride,0
;   originOffsetYoverride,0
;   originOffsetZoverride,0
;   homeXdirOverride,-1
;   homeYdirOverride,-1
;   homeZdirOverride,-1
;   flipXoverride,1
;   flipYoverride,-1
;   flipZoverride,1
;   toolheadOffsets,0,0|0,0|0,0|0,0|0,0|0,0
;   overrideFirmwareConfiguration,1
;   firmwareTypeOverride,RepRap (Marlin/Repetier/Sprinter)
;   GPXconfigOverride,r2
;   baudRateOverride,250000
;   overridePrinterModels,1
;   printerModelsOverride
;   startingGcode,G28 ; home all axes,G1 Z0.2 F3000 ; get ready to prime,G92 E0 ; reset extrusion distance,G1 X100 E10 F600 ; prime nozzle
;   layerChangeGcode,
;   retractionGcode,
;   toolChangeGcode,
;   endingGcode,G28 X0 ; home x axis,M106 S0 ; turn off cooling fan,M104 S0 ; turn off extruder,M140 S0 ; turn off bed,M84 ; disable motors
;   exportFileFormat,gcode
;   celebration,0
;   celebrationSong,Funky Town
;   postProcessing,
;   defaultSpeed,3000
;   outlineUnderspeed,0.5
;   solidInfillUnderspeed,0.8
;   supportUnderspeed,0.8
;   rapidXYspeed,4800
;   rapidZspeed,1002
;   minBridgingArea,5
;   bridgingExtraInflation,2
;   bridgingExtrusionMultiplier,1
;   bridgingSpeedMultiplier,1
;   useFixedBridgingAngle,1
;   fixedBridgingAngle,0
;   applyBridgingToPerimeters,0
;   filamentDiameters,1.75|1.75|1.75|1.75|1.75|1.75
;   filamentPricesPerKg,46|46|46|46|46|46
;   filamentDensities,1.25|1.25|1.25|1.25|1.25|1.25
;   useMinPrintHeight,0
;   minPrintHeight,0
;   useMaxPrintHeight,0
;   maxPrintHeight,40
;   useDiaphragm,0
;   diaphragmLayerInterval,20
;   robustSlicing,1
;   mergeAllIntoSolid,0
;   onlyRetractWhenCrossingOutline,1
;   retractBetweenLayers,1
;   useRetractionMinTravel,0
;   retractionMinTravel,3
;   retractWhileWiping,0
;   onlyWipeOutlines,1
;   avoidCrossingOutline,0
;   maxMovementDetourFactor,3
;   toolChangeRetractionDistance,12
;   toolChangeExtraRestartDistance,-0.5
;   toolChangeRetractionSpeed,600
;   externalThinWallType,0
;   internalThinWallType,2
;   thinWallAllowedOverlapPercentage,10
;   singleExtrusionMinLength,1
;   singleExtrusionMinPrintingWidthPercentage,50
;   singleExtrusionMaxPrintingWidthPercentage,200
;   singleExtrusionEndpointExtension,0.2
;   horizontalSizeCompensation,0
G90
M82
M106 S0
M140 S90
M190 S90
M104 S240 T0
M109 S240 T0
G28 ; home all axes
G1 Z0.2 F3000 ; get ready to prime
G92 E0 ; reset extrusion distance
G1 X100 E10 F600 ; prime nozzle
; process Process1
; layer 1, Z = 0.240
T0
G92 E0.0000
G1 E-5.0000 F4800
; feature skirt
; tool H0.240 W0.600
G1 Z0.240 F1002
G1 X154.182 Y153.518 F4800
G1 E-0.1000 F4800
G92 E0.0000
G1 X154.220 Y153.483 E0.0033 F1500
G1 X154.925 Y152.862 E0.0623
G1 X154.965 Y152.829 E0.0656
G1 X155.706 Y152.253 E0.1246
G1 X155.748 Y152.223 E0.1278
G1 X156.525 Y151.695 E0.1869
G1 X156.569 Y151.667 E0.1901
G1 X157.377 Y151.189 E0.2492
G1 X157.423 Y151.164 E0.2524
G1 X158.260 Y150.737 E0.3115
G1 X158.307 Y150.715 E0.3148
G1 X159.169 Y150.342 E0.3738
G1 X159.217 Y150.323 E0.3771
G1 X160.100 Y150.005 E0.4361
G1 X160.150 Y149.989 E0.4393
G1 X161.052 Y149.727 E0.4984
G1 X161.102 Y149.714 E0.5016
G1 X162.019 Y149.509 E0.5607
G1 X162.070 Y149.500 E0.5639
G1 X162.997 Y149.353 E0.6230
G1 X163.049 Y149.346 E0.6262
G1 X163.983 Y149.258 E0.6853
G1 X164.035 Y149.255 E0.6885
G1 X164.974 Y149.225 E0.7476
G1 X165.026 Y149.225 E0.7508
G1 X165.965 Y149.255 E0.8099
G1 X166.017 Y149.258 E0.8131
G1 X166.951 Y149.346 E0.8722
G1 X167.003 Y149.353 E0.8754
G1 X167.930 Y149.500 E0.9345
G1 X167.981 Y149.509 E0.9377
G1 X168.898 Y149.714 E0.9968
G1 X168.948 Y149.727 E1.0000
G1 X169.850 Y149.989 E1.0591
G1 X169.900 Y150.005 E1.0623
G1 X170.783 Y150.323 E1.1214
G1 X170.831 Y150.342 E1.1246
G1 X171.693 Y150.715 E1.1836
G1 X171.740 Y150.737 E1.1869
G1 X172.577 Y151.164 E1.2460
G1 X172.623 Y151.189 E1.2492
G1 X173.431 Y151.667 E1.3083
G1 X173.475 Y151.695 E1.3115
G1 X174.251 Y152.223 E1.3706
G1 X174.293 Y152.253 E1.3738
G1 X175.035 Y152.829 E1.4329
G1 X175.075 Y152.862 E1.4361
G1 X175.780 Y153.483 E1.4951
G1 X175.818 Y153.518 E1.4984
G1 X176.482 Y154.182 E1.5575
G1 X176.517 Y154.220 E1.5607
G1 X177.139 Y154.925 E1.6198
G1 X177.172 Y154.965 E1.6230
G1 X177.747 Y155.707 E1.6820
G1 X177.777 Y155.749 E1.6853
G1 X178.305 Y156.525 E1.7443
G1 X178.333 Y156.569 E1.7476
G1 X178.811 Y157.377 E1.8066
G1 X178.836 Y157.423 E1.8099
G1 X179.263 Y158.260 E1.8689
G1 X179.285 Y158.307 E1.8722
G1 X179.658 Y159.169 E1.9312
G1 X179.677 Y159.217 E1.9345
G1 X179.995 Y160.100 E1.9935
G1 X180.011 Y160.150 E1.9968
G1 X180.273 Y161.052 E2.0558
G1 X180.286 Y161.102 E2.0591
G1 X180.491 Y162.019 E2.1181
G1 X180.500 Y162.070 E2.1214
G1 X180.647 Y162.997 E2.1804
G1 X180.654 Y163.049 E2.1837
G1 X180.742 Y163.983 E2.2427
G1 X180.745 Y164.035 E2.2460
G1 X180.775 Y164.974 E2.3050
G1 X180.775 Y165.026 E2.3083
G1 X180.745 Y165.965 E2.3673
G1 X180.742 Y166.017 E2.3706
G1 X180.654 Y166.951 E2.4296
G1 X180.647 Y167.003 E2.4329
G1 X180.500 Y167.930 E2.4919
G1 X180.491 Y167.981 E2.4952
G1 X180.286 Y168.898 E2.5542
G1 X180.273 Y168.948 E2.5575
G1 X180.011 Y169.850 E2.6165
G1 X179.995 Y169.900 E2.6198
G1 X179.677 Y170.783 E2.6788
G1 X179.658 Y170.831 E2.6821
G1 X179.285 Y171.693 E2.7411
G1 X179.263 Y171.740 E2.7444
G1 X178.836 Y172.577 E2.8034
G1 X178.811 Y172.622 E2.8067
G1 X178.333 Y173.431 E2.8657
G1 X178.305 Y173.475 E2.8690
G1 X177.778 Y174.251 E2.9280
G1 X177.747 Y174.293 E2.9312
G1 X177.172 Y175.035 E2.9903
G1 X177.139 Y175.075 E2.9935
G1 X176.517 Y175.780 E3.0526
G1 X176.482 Y175.818 E3.0559
G1 X175.818 Y176.482 E3.1149
G1 X175.780 Y176.517 E3.1182
G1 X175.075 Y177.139 E3.1772
G1 X175.035 Y177.172 E3.1805
G1 X174.293 Y177.747 E3.2395
G1 X174.251 Y177.778 E3.2428
G1 X173.475 Y178.305 E3.3018
G1 X173.431 Y178.333 E3.3050
G1 X172.622 Y178.811 E3.3641
G1 X172.577 Y178.836 E3.3673
G1 X171.740 Y179.263 E3.4264
G1 X171.693 Y179.285 E3.4297
G1 X170.831 Y179.658 E3.4887
G1 X170.783 Y179.677 E3.4920
G1 X169.900 Y179.995 E3.5510
G1 X169.850 Y180.011 E3.5542
G1 X168.948 Y180.273 E3.6133
G1 X168.898 Y180.286 E3.6165
G1 X167.981 Y180.491 E3.6756
G1 X167.930 Y180.500 E3.6789
G1 X167.003 Y180.647 E3.7379
G1 X166.951 Y180.654 E3.7411
G1 X166.017 Y180.742 E3.8002
G1 X165.965 Y180.745 E3.8034
G1 X165.026 Y180.775 E3.8625
G1 X164.974 Y180.775 E3.8657
G1 X164.035 Y180.745 E3.9248
G1 X163.983 Y180.742 E3.9280
G1 X163.049 Y180.654 E3.9871
G1 X162.997 Y180.647 E3.9903
G1 X162.070 Y180.500 E4.0494
G1 X162.019 Y180.491 E4.0526
G1 X161.102 Y180.286 E4.1117
G1 X161.052 Y180.273 E4.1149
G1 X160.150 Y180.011 E4.1740
G1 X160.100 Y179.995 E4.1772
G1 X159.217 Y179.677 E4.2362
G1 X159.169 Y179.658 E4.2395
G1 X158.307 Y179.285 E4.2986
G1 X158.260 Y179.263 E4.3018
G1 X157.423 Y178.836 E4.3609
G1 X157.377 Y178.811 E4.3641
G1 X156.569 Y178.333 E4.4232
G1 X156.525 Y178.305 E4.4264
G1 X155.749 Y177.777 E4.4855
G1 X155.707 Y177.747 E4.4887
G1 X154.965 Y177.172 E4.5477
G1 X154.925 Y177.139 E4.5510
G1 X154.220 Y176.517 E4.6100
G1 X154.182 Y176.482 E4.6133
G1 X153.518 Y175.818 E4.6724
G1 X153.483 Y175.780 E4.6756
G1 X152.862 Y175.075 E4.7346
G1 X152.829 Y175.035 E4.7379
G1 X152.253 Y174.293 E4.7969
G1 X152.223 Y174.251 E4.8002
G1 X151.695 Y173.475 E4.8592
G1 X151.667 Y173.431 E4.8625
G1 X151.189 Y172.623 E4.9215
G1 X151.164 Y172.577 E4.9248
G1 X150.737 Y171.740 E4.9839
G1 X150.715 Y171.693 E4.9871
G1 X150.342 Y170.831 E5.0461
G1 X150.323 Y170.783 E5.0494
G1 X150.005 Y169.900 E5.1084
G1 X149.989 Y169.850 E5.1117
G1 X149.727 Y168.948 E5.1707
G1 X149.714 Y168.898 E5.1740
G1 X149.509 Y167.981 E5.2330
G1 X149.500 Y167.930 E5.2363
G1 X149.353 Y167.003 E5.2953
G1 X149.346 Y166.951 E5.2986
G1 X149.258 Y166.017 E5.3576
G1 X149.255 Y165.965 E5.3609
G1 X149.225 Y165.026 E5.4199
G1 X149.225 Y164.974 E5.4232
G1 X149.255 Y164.035 E5.4822
G1 X149.258 Y163.983 E5.4855
G1 X149.346 Y163.049 E5.5445
G1 X149.353 Y162.997 E5.5478
G1 X149.500 Y162.070 E5.6068
G1 X149.509 Y162.019 E5.6101
G1 X149.714 Y161.102 E5.6691
G1 X149.727 Y161.052 E5.6724
G1 X149.989 Y160.150 E5.7314
G1 X150.005 Y160.100 E5.7347
G1 X150.323 Y159.217 E5.7937
G1 X150.342 Y159.169 E5.7970
G1 X150.715 Y158.307 E5.8560
G1 X150.737 Y158.260 E5.8593
G1 X151.164 Y157.423 E5.9183
G1 X151.189 Y157.377 E5.9216
G1 X151.667 Y156.569 E5.9806
G1 X151.695 Y156.525 E5.9839
G1 X152.223 Y155.748 E6.0429
G1 X152.253 Y155.706 E6.0462
G1 X152.829 Y154.965 E6.1052
G1 X152.862 Y154.925 E6.1085
G1 X153.483 Y154.220 E6.1675
G1 X153.518 Y154.182 E6.1708
G1 X154.182 Y153.518 E6.2298
G92 E0.0000
G1 E-5.0000 F4800
G1 X154.600 Y153.949 F4800
G1 E-0.1000 F4800
G92 E0.0000
G1 X154.624 Y153.927 E0.0021 F1500
G1 X155.314 Y153.318 E0.0599
G1 X155.340 Y153.297 E0.0620
G1 X156.067 Y152.733 E0.1198
G1 X156.094 Y152.714 E0.1219
G1 X156.855 Y152.196 E0.1798
G1 X156.883 Y152.179 E0.1818
G1 X157.675 Y151.710 E0.2397
G1 X157.704 Y151.694 E0.2418
G1 X158.524 Y151.276 E0.2996
G1 X158.554 Y151.262 E0.3017
G1 X159.398 Y150.897 E0.3596
G1 X159.429 Y150.885 E0.3616
G1 X160.295 Y150.573 E0.4195
G1 X160.326 Y150.563 E0.4216
G1 X161.210 Y150.306 E0.4794
G1 X161.242 Y150.298 E0.4815
G1 X162.140 Y150.097 E0.5394
G1 X162.173 Y150.091 E0.5414
G1 X163.082 Y149.947 E0.5993
G1 X163.114 Y149.943 E0.6014
G1 X164.031 Y149.856 E0.6592
G1 X164.064 Y149.854 E0.6613
G1 X164.983 Y149.825 E0.7191
G1 X165.017 Y149.825 E0.7212
G1 X165.936 Y149.854 E0.7791
G1 X165.969 Y149.856 E0.7811
G1 X166.886 Y149.943 E0.8390
G1 X166.918 Y149.947 E0.8411
G1 X167.827 Y150.091 E0.8989
G1 X167.860 Y150.097 E0.9010
G1 X168.758 Y150.298 E0.9588
G1 X168.790 Y150.306 E0.9609
G1 X169.674 Y150.563 E1.0188
G1 X169.705 Y150.573 E1.0209
G1 X170.571 Y150.885 E1.0787
G1 X170.602 Y150.897 E1.0808
G1 X171.446 Y151.262 E1.1386
G1 X171.476 Y151.276 E1.1407
G1 X172.296 Y151.694 E1.1986
G1 X172.325 Y151.710 E1.2006
G1 X173.117 Y152.179 E1.2585
G1 X173.145 Y152.196 E1.2606
G1 X173.906 Y152.713 E1.3184
G1 X173.933 Y152.733 E1.3205
G1 X174.660 Y153.297 E1.3783
G1 X174.686 Y153.318 E1.3804
G1 X175.376 Y153.927 E1.4383
G1 X175.400 Y153.949 E1.4403
G1 X176.051 Y154.600 E1.4982
G1 X176.073 Y154.624 E1.5003
G1 X176.682 Y155.314 E1.5581
G1 X176.703 Y155.340 E1.5602
G1 X177.267 Y156.067 E1.6181
G1 X177.287 Y156.094 E1.6201
G1 X177.804 Y156.855 E1.6780
G1 X177.821 Y156.883 E1.6801
G1 X178.290 Y157.675 E1.7379
G1 X178.306 Y157.704 E1.7400
G1 X178.724 Y158.524 E1.7978
G1 X178.738 Y158.554 E1.7999
G1 X179.103 Y159.398 E1.8578
G1 X179.115 Y159.429 E1.8598
G1 X179.427 Y160.295 E1.9177
G1 X179.437 Y160.326 E1.9198
G1 X179.694 Y161.210 E1.9776
G1 X179.702 Y161.242 E1.9797
G1 X179.903 Y162.140 E2.0376
G1 X179.909 Y162.173 E2.0396
G1 X180.053 Y163.082 E2.0975
G1 X180.057 Y163.114 E2.0996
G1 X180.144 Y164.031 E2.1574
G1 X180.146 Y164.064 E2.1595
G1 X180.175 Y164.983 E2.2173
G1 X180.175 Y165.017 E2.2194
G1 X180.146 Y165.936 E2.2773
G1 X180.144 Y165.969 E2.2793
G1 X180.057 Y166.886 E2.3372
G1 X180.053 Y166.918 E2.3393
G1 X179.909 Y167.827 E2.3971
G1 X179.903 Y167.860 E2.3992
G1 X179.702 Y168.758 E2.4571
G1 X179.694 Y168.790 E2.4591
G1 X179.437 Y169.674 E2.5170
G1 X179.427 Y169.705 E2.5191
G1 X179.115 Y170.571 E2.5769
G1 X179.103 Y170.602 E2.5790
G1 X178.738 Y171.446 E2.6368
G1 X178.724 Y171.476 E2.6389
G1 X178.306 Y172.296 E2.6968
G1 X178.290 Y172.325 E2.6988
G1 X177.821 Y173.117 E2.7567
G1 X177.804 Y173.145 E2.7588
G1 X177.287 Y173.906 E2.8166
G1 X177.267 Y173.933 E2.8187
G1 X176.703 Y174.660 E2.8765
G1 X176.682 Y174.685 E2.8786
G1 X176.073 Y175.376 E2.9365
G1 X176.051 Y175.400 E2.9385
G1 X175.400 Y176.051 E2.9964
G1 X175.376 Y176.073 E2.9985
G1 X174.685 Y176.682 E3.0563
G1 X174.660 Y176.703 E3.0584
G1 X173.933 Y177.267 E3.1163
G1 X173.906 Y177.287 E3.1183
G1 X173.145 Y177.804 E3.1762
G1 X173.117 Y177.821 E3.1783
G1 X172.325 Y178.290 E3.2361
G1 X172.296 Y178.306 E3.2382
G1 X171.476 Y178.724 E3.2960
G1 X171.446 Y178.738 E3.2981
G1 X170.602 Y179.103 E3.3560
G1 X170.571 Y179.115 E3.3580
G1 X169.705 Y179.427 E3.4159
G1 X169.674 Y179.437 E3.4180
G1 X168.790 Y179.694 E3.4758
G1 X168.758 Y179.702 E3.4779
G1 X167.860 Y179.903 E3.5358
G1 X167.827 Y179.909 E3.5378
G1 X166.918 Y180.053 E3.5957
G1 X166.886 Y180.057 E3.5978
G1 X165.969 Y180.144 E3.6556
G1 X165.936 Y180.146 E3.6577
G1 X165.017 Y180.175 E3.7155
G1 X164.983 Y180.175 E3.7176
G1 X164.064 Y180.146 E3.7755
G1 X164.031 Y180.144 E3.7775
G1 X163.114 Y180.057 E3.8354
G1 X163.082 Y180.053 E3.8375
G1 X162.173 Y179.909 E3.8953
G1 X162.140 Y179.903 E3.8974
G1 X161.242 Y179.702 E3.9553
G1 X161.210 Y179.694 E3.9573
G1 X160.326 Y179.437 E4.0152
G1 X160.295 Y179.427 E4.0173
G1 X159.429 Y179.115 E4.0751
G1 X159.398 Y179.103 E4.0772
G1 X158.554 Y178.738 E4.1350
G1 X158.524 Y178.724 E4.1371
G1 X157.704 Y178.306 E4.1950
G1 X157.675 Y178.290 E4.1970
G1 X156.883 Y177.821 E4.2549
G1 X156.855 Y177.804 E4.2570
G1 X156.094 Y177.287 E4.3148
