; G-Code generated by Simplify3D(R) Version 4.1.2
; May 3, 2020 at 8:05:09 PM
; Settings Summary
;   processName,Process1
;   applyToModels,MirrorGear
;   profileName,X5X-ABSpro (modified)
;   profileVersion,2020-04-22 09:40:43
;   baseProfile,TRONXY X5S
;   printMaterial,PLA
;   printQuality,Medium
;   printExtruders,
;   extruderName,Primary Extruder
;   extruderToolheadNumber,0
;   extruderDiameter,0.4
;   extruderAutoWidth,0
;   extruderWidth,0.4
;   extrusionMultiplier,1.05
;   extruderUseRetract,1
;   extruderRetractionDistance,5
;   extruderExtraRestartDistance,-0.1
;   extruderRetractionZLift,0
;   extruderRetractionSpeed,4800
;   extruderUseCoasting,0
;   extruderCoastingDistance,0.2
;   extruderUseWipe,0
;   extruderWipeDistance,5
;   primaryExtruder,0
;   layerHeight,0.2
;   topSolidLayers,3
;   bottomSolidLayers,3
;   perimeterOutlines,5
;   printPerimetersInsideOut,0
;   startPointOption,2
;   startPointOriginX,0
;   startPointOriginY,0
;   sequentialIslands,0
;   spiralVaseMode,0
;   firstLayerHeightPercentage,120
;   firstLayerWidthPercentage,150
;   firstLayerUnderspeed,0.5
;   useRaft,0
;   raftExtruder,0
;   raftTopLayers,3
;   raftBaseLayers,2
;   raftOffset,0
;   raftSeparationDistance,0
;   raftTopInfill,100
;   aboveRaftSpeedMultiplier,0.3
;   useSkirt,1
;   skirtExtruder,0
;   skirtLayers,1
;   skirtOutlines,5
;   skirtOffset,0.15
;   usePrimePillar,0
;   primePillarExtruder,999
;   primePillarWidth,12
;   primePillarLocation,7
;   primePillarSpeedMultiplier,1
;   useOozeShield,0
;   oozeShieldExtruder,999
;   oozeShieldOffset,2
;   oozeShieldOutlines,1
;   oozeShieldSidewallShape,1
;   oozeShieldSidewallAngle,30
;   oozeShieldSpeedMultiplier,1
;   infillExtruder,0
;   internalInfillPattern,Rectilinear
;   externalInfillPattern,Rectilinear
;   infillPercentage,20
;   outlineOverlapPercentage,15
;   infillExtrusionWidthPercentage,100
;   minInfillLength,5
;   infillLayerInterval,1
;   internalInfillAngles,45,-45
;   overlapInternalInfillAngles,0
;   externalInfillAngles,45,-45
;   generateSupport,0
;   supportExtruder,0
;   supportInfillPercentage,30
;   supportExtraInflation,0
;   supportBaseLayers,0
;   denseSupportExtruder,0
;   denseSupportLayers,0
;   denseSupportInfillPercentage,70
;   supportLayerInterval,1
;   supportHorizontalPartOffset,0.3
;   supportUpperSeparationLayers,1
;   supportLowerSeparationLayers,1
;   supportType,0
;   supportGridSpacing,3
;   maxOverhangAngle,70
;   supportAngles,0
;   temperatureName,Primary Extruder,Heated Bed
;   temperatureNumber,0,0
;   temperatureSetpointCount,1,1
;   temperatureSetpointLayers,1,1
;   temperatureSetpointTemperatures,240,90
;   temperatureStabilizeAtStartup,1,1
;   temperatureHeatedBed,0,1
;   fanLayers,1
;   fanSpeeds,0
;   blipFanToFullPower,0
;   adjustSpeedForCooling,1
;   minSpeedLayerTime,15
;   minCoolingSpeedSlowdown,20
;   increaseFanForCooling,0
;   minFanLayerTime,45
;   maxCoolingFanSpeed,100
;   increaseFanForBridging,0
;   bridgingFanSpeed,100
;   use5D,1
;   relativeEdistances,0
;   allowEaxisZeroing,1
;   independentExtruderAxes,0
;   includeM10123,0
;   stickySupport,1
;   applyToolheadOffsets,0
;   gcodeXoffset,0
;   gcodeYoffset,0
;   gcodeZoffset,0
;   overrideMachineDefinition,1
;   machineTypeOverride,0
;   strokeXoverride,330
;   strokeYoverride,330
;   strokeZoverride,400
;   originOffsetXoverride,0
;   originOffsetYoverride,0
;   originOffsetZoverride,0
;   homeXdirOverride,-1
;   homeYdirOverride,-1
;   homeZdirOverride,-1
;   flipXoverride,1
;   flipYoverride,-1
;   flipZoverride,1
;   toolheadOffsets,0,0|0,0|0,0|0,0|0,0|0,0
;   overrideFirmwareConfiguration,1
;   firmwareTypeOverride,RepRap (Marlin/Repetier/Sprinter)
;   GPXconfigOverride,r2
;   baudRateOverride,250000
;   overridePrinterModels,1
;   printerModelsOverride
;   startingGcode,G28 ; home all axes,G1 Z0.2 F3000 ; get ready to prime,G92 E0 ; reset extrusion distance,G1 X100 E10 F600 ; prime nozzle
;   layerChangeGcode,
;   retractionGcode,
;   toolChangeGcode,
;   endingGcode,G28 X0 ; home x axis,M106 S0 ; turn off cooling fan,M104 S0 ; turn off extruder,M140 S0 ; turn off bed,M84 ; disable motors
;   exportFileFormat,gcode
;   celebration,0
;   celebrationSong,Funky Town
;   postProcessing,
;   defaultSpeed,3000
;   outlineUnderspeed,0.5
;   solidInfillUnderspeed,0.8
;   supportUnderspeed,0.8
;   rapidXYspeed,4800
;   rapidZspeed,1002
;   minBridgingArea,5
;   bridgingExtraInflation,2
;   bridgingExtrusionMultiplier,1
;   bridgingSpeedMultiplier,1
;   useFixedBridgingAngle,1
;   fixedBridgingAngle,0
;   applyBridgingToPerimeters,0
;   filamentDiameters,1.75|1.75|1.75|1.75|1.75|1.75
;   filamentPricesPerKg,46|46|46|46|46|46
;   filamentDensities,1.25|1.25|1.25|1.25|1.25|1.25
;   useMinPrintHeight,0
;   minPrintHeight,0
;   useMaxPrintHeight,0
;   maxPrintHeight,40
;   useDiaphragm,0
;   diaphragmLayerInterval,20
;   robustSlicing,1
;   mergeAllIntoSolid,0
;   onlyRetractWhenCrossingOutline,1
;   retractBetweenLayers,1
;   useRetractionMinTravel,0
;   retractionMinTravel,3
;   retractWhileWiping,0
;   onlyWipeOutlines,1
;   avoidCrossingOutline,0
;   maxMovementDetourFactor,3
;   toolChangeRetractionDistance,12
;   toolChangeExtraRestartDistance,-0.5
;   toolChangeRetractionSpeed,600
;   externalThinWallType,0
;   internalThinWallType,2
;   thinWallAllowedOverlapPercentage,10
;   singleExtrusionMinLength,1
;   singleExtrusionMinPrintingWidthPercentage,50
;   singleExtrusionMaxPrintingWidthPercentage,200
;   singleExtrusionEndpointExtension,0.2
;   horizontalSizeCompensation,0
G90
M82
M106 S0
M140 S90
M190 S90
M104 S240 T0
M109 S240 T0
G28 ; home all axes
G1 Z0.2 F3000 ; get ready to prime
G92 E0 ; reset extrusion distance
G1 X100 E10 F600 ; prime nozzle
; process Process1
; layer 1, Z = 0.240
T0
G92 E0.0000
G1 E-5.0000 F4800
; feature skirt
; tool H0.240 W0.600
G1 Z0.240 F1002
G1 X128.648 Y128.421 F4800
G1 E-0.1000 F4800
G92 E0.0000
G1 X130.070 Y127.062 E0.1237 F1500
G1 X130.262 Y127.015 E0.1361
G1 X130.326 Y126.827 E0.1486
G1 X131.808 Y125.533 E0.2723
G1 X132.002 Y125.495 E0.2847
G1 X132.075 Y125.310 E0.2972
G1 X133.613 Y124.084 E0.4208
G1 X133.809 Y124.054 E0.4333
G1 X133.890 Y123.873 E0.4457
G1 X135.481 Y122.717 E0.5694
G1 X135.678 Y122.696 E0.5819
G1 X135.767 Y122.519 E0.5943
G1 X137.408 Y121.435 E0.7180
G1 X137.606 Y121.423 E0.7304
G1 X137.703 Y121.250 E0.7429
G1 X139.392 Y120.241 E0.8666
G1 X139.590 Y120.238 E0.8790
G1 X139.694 Y120.070 E0.8915
G1 X141.427 Y119.137 E1.0152
G1 X141.625 Y119.143 E1.0276
G1 X141.736 Y118.980 E1.0401
G1 X143.509 Y118.126 E1.1637
G1 X143.707 Y118.141 E1.1762
G1 X143.825 Y117.982 E1.1887
G1 X145.634 Y117.209 E1.3123
G1 X145.831 Y117.232 E1.3248
G1 X145.957 Y117.079 E1.3373
G1 X147.799 Y116.388 E1.4609
G1 X147.994 Y116.421 E1.4734
G1 X148.127 Y116.274 E1.4858
G1 X149.998 Y115.665 E1.6095
G1 X150.192 Y115.707 E1.6220
G1 X150.331 Y115.566 E1.6344
G1 X152.227 Y115.042 E1.7581
G1 X152.419 Y115.092 E1.7706
G1 X152.565 Y114.957 E1.7830
G1 X154.483 Y114.519 E1.9067
G1 X154.672 Y114.578 E1.9191
G1 X154.823 Y114.449 E1.9316
G1 X156.759 Y114.098 E2.0553
G1 X156.945 Y114.165 E2.0677
G1 X157.102 Y114.044 E2.0802
G1 X159.052 Y113.780 E2.2039
G1 X159.235 Y113.855 E2.2163
G1 X159.397 Y113.741 E2.2288
G1 X161.357 Y113.565 E2.3524
G1 X161.536 Y113.648 E2.3649
G1 X161.703 Y113.541 E2.3773
G1 X163.669 Y113.453 E2.5010
G1 X163.845 Y113.544 E2.5135
G1 X164.016 Y113.445 E2.5259
G1 X166.181 Y113.445 E2.6620
G1 X167.850 Y115.115 E2.8104
G1 X167.850 Y118.329 E3.0125
G1 X166.181 Y119.999 E3.1609
G1 X166.090 Y119.999 E3.1666
G1 X166.090 Y146.172 E4.8119
G1 X166.590 Y146.672 E4.8563
G1 X166.590 Y150.811 E5.1165
G1 X167.850 Y152.071 E5.2285
G1 X167.850 Y162.700 E5.8967
G1 X166.181 Y164.370 E6.0451
G1 X159.850 Y164.370 E6.4431
G1 X159.850 Y165.670 E6.5248
G1 X166.181 Y165.670 E6.9227
G1 X167.850 Y167.339 E7.0711
G1 X167.850 Y177.968 E7.7393
G1 X166.590 Y179.228 E7.8513
G1 X166.590 Y183.368 E8.1115
G1 X166.090 Y183.868 E8.1560
G1 X166.090 Y210.040 E9.8012
G1 X166.181 Y210.040 E9.8069
G1 X167.850 Y211.710 E9.9553
G1 X167.850 Y214.700 E10.1433
G1 X166.181 Y216.370 E10.2917
G1 X164.086 Y216.370 E10.4234
G1 X163.669 Y216.586 E10.4530
G1 X161.703 Y216.498 E10.5766
G1 X161.536 Y216.391 E10.5891
G1 X161.357 Y216.475 E10.6015
G1 X159.397 Y216.298 E10.7252
G1 X159.235 Y216.184 E10.7377
G1 X159.052 Y216.259 E10.7501
G1 X157.102 Y215.995 E10.8738
G1 X156.945 Y215.874 E10.8862
G1 X156.759 Y215.941 E10.8987
G1 X154.823 Y215.590 E11.0224
G1 X154.672 Y215.462 E11.0348
G1 X154.483 Y215.520 E11.0473
G1 X152.565 Y215.082 E11.1710
G1 X152.419 Y214.947 E11.1834
G1 X152.227 Y214.997 E11.1959
G1 X150.331 Y214.474 E11.3196
G1 X150.192 Y214.333 E11.3320
G1 X149.998 Y214.374 E11.3445
G1 X148.127 Y213.766 E11.4681
G1 X147.994 Y213.619 E11.4806
G1 X147.799 Y213.651 E11.4931
G1 X145.957 Y212.960 E11.6167
G1 X145.831 Y212.807 E11.6292
G1 X145.634 Y212.830 E11.6416
G1 X143.825 Y212.057 E11.7653
G1 X143.707 Y211.899 E11.7778
G1 X143.509 Y211.913 E11.7902
G1 X141.736 Y211.060 E11.9139
G1 X141.625 Y210.896 E11.9264
G1 X141.426 Y210.902 E11.9388
G1 X139.694 Y209.970 E12.0625
G1 X139.590 Y209.801 E12.0749
G1 X139.392 Y209.798 E12.0874
G1 X137.703 Y208.789 E12.2111
G1 X137.606 Y208.616 E12.2235
G1 X137.408 Y208.604 E12.2360
G1 X135.767 Y207.520 E12.3597
G1 X135.678 Y207.343 E12.3721
G1 X135.481 Y207.322 E12.3846
G1 X133.890 Y206.166 E12.5082
G1 X133.809 Y205.985 E12.5207
G1 X133.613 Y205.956 E12.5331
G1 X132.075 Y204.729 E12.6568
G1 X132.002 Y204.544 E12.6693
G1 X131.808 Y204.506 E12.6817
G1 X130.327 Y203.212 E12.8054
G1 X130.262 Y203.024 E12.8179
G1 X130.070 Y202.977 E12.8303
G1 X128.648 Y201.618 E12.9540
G1 X128.592 Y201.427 E12.9665
G1 X128.402 Y201.372 E12.9789
G1 X127.042 Y199.949 E13.1026
G1 X126.995 Y199.757 E13.1150
G1 X126.807 Y199.693 E13.1275
G1 X125.513 Y198.211 E13.2512
G1 X125.475 Y198.017 E13.2636
G1 X125.291 Y197.945 E13.2761
G1 X124.064 Y196.407 E13.3998
G1 X124.035 Y196.211 E13.4122
G1 X123.853 Y196.130 E13.4247
G1 X122.697 Y194.538 E13.5484
G1 X122.677 Y194.341 E13.5608
G1 X122.499 Y194.253 E13.5732
G1 X121.416 Y192.611 E13.6969
G1 X121.404 Y192.413 E13.7094
G1 X121.231 Y192.317 E13.7218
G1 X120.221 Y190.628 E13.8455
G1 X120.218 Y190.429 E13.8580
G1 X120.050 Y190.325 E13.8704
G1 X119.118 Y188.593 E13.9941
G1 X119.124 Y188.395 E14.0066
G1 X118.960 Y188.283 E14.0190
G1 X118.106 Y186.511 E14.1427
G1 X118.121 Y186.313 E14.1552
G1 X117.963 Y186.194 E14.1676
G1 X117.189 Y184.385 E14.2913
G1 X117.213 Y184.188 E14.3037
G1 X117.060 Y184.063 E14.3162
G1 X116.369 Y182.221 E14.4398
G1 X116.401 Y182.025 E14.4523
G1 X116.254 Y181.893 E14.4648
G1 X115.646 Y180.022 E14.5884
G1 X115.687 Y179.828 E14.6009
G1 X115.546 Y179.689 E14.6134
G1 X115.022 Y177.792 E14.7370
G1 X115.072 Y177.600 E14.7495
G1 X114.937 Y177.455 E14.7620
G1 X114.500 Y175.537 E14.8856
G1 X114.558 Y175.348 E14.8981
G1 X114.430 Y175.196 E14.9106
G1 X114.079 Y173.261 E15.0342
G1 X114.146 Y173.074 E15.0467
G1 X114.024 Y172.917 E15.0591
G1 X113.760 Y170.968 E15.1828
G1 X113.835 Y170.784 E15.1953
G1 X113.721 Y170.622 E15.2077
G1 X113.545 Y168.663 E15.3314
G1 X113.628 Y168.483 E15.3438
G1 X113.522 Y168.316 E15.3563
G1 X113.433 Y166.351 E15.4799
G1 X113.525 Y166.175 E15.4924
G1 X113.425 Y166.003 E15.5049
G1 X113.425 Y164.036 E15.6286
G1 X113.525 Y163.864 E15.6410
G1 X113.433 Y163.688 E15.6535
G1 X113.522 Y161.723 E15.7772
G1 X113.628 Y161.556 E15.7896
G1 X113.545 Y161.376 E15.8021
G1 X113.721 Y159.417 E15.9257
G1 X113.835 Y159.255 E15.9382
G1 X113.760 Y159.071 E15.9506
G1 X114.024 Y157.122 E16.0743
G1 X114.146 Y156.965 E16.0868
G1 X114.079 Y156.779 E16.0992
G1 X114.430 Y154.843 E16.2229
G1 X114.558 Y154.692 E16.2354
G1 X114.500 Y154.502 E16.2478
G1 X114.937 Y152.584 E16.3715
G1 X115.072 Y152.439 E16.3839
G1 X115.022 Y152.247 E16.3964
G1 X115.546 Y150.350 E16.5201
G1 X115.687 Y150.211 E16.5325
G1 X115.646 Y150.017 E16.5450
G1 X116.254 Y148.147 E16.6687
G1 X116.401 Y148.014 E16.6811
G1 X116.369 Y147.818 E16.6936
G1 X117.060 Y145.977 E16.8173
G1 X117.213 Y145.851 E16.8297
G1 X117.189 Y145.654 E16.8422
G1 X117.963 Y143.845 E16.9658
G1 X118.121 Y143.726 E16.9783
G1 X118.106 Y143.528 E16.9908
G1 X118.960 Y141.756 E17.1144
G1 X119.124 Y141.644 E17.1269
G1 X119.118 Y141.446 E17.1393
G1 X120.050 Y139.714 E17.2630
G1 X120.218 Y139.610 E17.2755
G1 X120.221 Y139.411 E17.2879
G1 X121.231 Y137.723 E17.4116
G1 X121.404 Y137.626 E17.4241
G1 X121.416 Y137.428 E17.4366
G1 X122.500 Y135.786 E17.5602
G1 X122.677 Y135.698 E17.5726
G1 X122.697 Y135.501 E17.5851
G1 X123.853 Y133.909 E17.7088
G1 X124.035 Y133.829 E17.7212
G1 X124.064 Y133.633 E17.7337
G1 X125.291 Y132.094 E17.8573
G1 X125.475 Y132.022 E17.8698
G1 X125.513 Y131.828 E17.8822
G1 X126.808 Y130.346 E18.0059
G1 X126.995 Y130.282 E18.0184
G1 X127.042 Y130.090 E18.0308
G1 X128.402 Y128.668 E18.1545
G1 X128.592 Y128.612 E18.1670
G1 X128.648 Y128.421 E18.1795
G92 E0.0000
G1 E-5.0000 F4800
G1 X129.076 Y129.096 F4800
G1 E-0.1000 F4800
G92 E0.0000
G1 X129.179 Y128.744 E0.0230 F1500
G1 X130.369 Y127.607 E0.1265
G1 X130.724 Y127.520 E0.1495
G1 X130.842 Y127.173 E0.1725
G1 X132.082 Y126.091 E0.2760
G1 X132.441 Y126.020 E0.2990
G1 X132.575 Y125.679 E0.3220
G1 X133.861 Y124.653 E0.4255
G1 X134.223 Y124.598 E0.4485
G1 X134.372 Y124.264 E0.4715
G1 X135.704 Y123.297 E0.5749
G1 X136.068 Y123.258 E0.5979
G1 X136.232 Y122.931 E0.6209
G1 X137.605 Y122.025 E0.7244
G1 X137.970 Y122.003 E0.7474
G1 X138.149 Y121.683 E0.7704
G1 X139.562 Y120.839 E0.8739
G1 X139.928 Y120.833 E0.8969
G1 X140.120 Y120.522 E0.9199
G1 X141.569 Y119.742 E1.0234
G1 X141.935 Y119.753 E1.0464
G1 X142.142 Y119.450 E1.0694
G1 X143.624 Y118.736 E1.1729
G1 X143.990 Y118.764 E1.1959
G1 X144.209 Y118.471 E1.2189
G1 X145.722 Y117.824 E1.3223
G1 X146.086 Y117.867 E1.3454
G1 X146.318 Y117.585 E1.3684
G1 X147.859 Y117.006 E1.4718
G1 X148.220 Y117.066 E1.4948
G1 X148.465 Y116.794 E1.5179
G1 X150.030 Y116.286 E1.6213
G1 X150.389 Y116.362 E1.6443
G1 X150.645 Y116.101 E1.6673
G1 X152.232 Y115.663 E1.7708
G1 X152.586 Y115.755 E1.7938
G1 X152.855 Y115.506 E1.8168
G1 X154.460 Y115.140 E1.9203
G1 X154.809 Y115.248 E1.9433
G1 X155.089 Y115.011 E1.9663
G1 X156.708 Y114.717 E2.0698
G1 X157.052 Y114.841 E2.0928
G1 X157.342 Y114.617 E2.1158
G1 X158.973 Y114.396 E2.2193
G1 X159.312 Y114.535 E2.2423
G1 X159.611 Y114.324 E2.2653
G1 X161.250 Y114.177 E2.3688
G1 X161.451 Y114.270 E2.3827
G1 X161.678 Y114.270 E2.3969
G1 X161.891 Y114.134 E2.4128
G1 X163.535 Y114.059 E2.5163
G1 X163.860 Y114.228 E2.5393
G1 X164.177 Y114.045 E2.5623
G1 X165.932 Y114.045 E2.6726
G1 X167.250 Y115.363 E2.7898
G1 X167.250 Y118.081 E2.9606
G1 X165.932 Y119.399 E3.0778
G1 X165.490 Y119.399 E3.1056
G1 X165.490 Y146.420 E4.8042
G1 X165.990 Y146.920 E4.8486
G1 X165.990 Y151.059 E5.1088
G1 X167.250 Y152.319 E5.2208
G1 X167.250 Y162.452 E5.8578
G1 X165.932 Y163.770 E5.9749
G1 X159.250 Y163.770 E6.3950
G1 X159.250 Y166.270 E6.5521
G1 X165.932 Y166.270 E6.9722
G1 X167.250 Y167.588 E7.0893
G1 X167.250 Y177.720 E7.7263
G1 X165.990 Y178.980 E7.8383
G1 X165.990 Y183.119 E8.0985
G1 X165.490 Y183.619 E8.1429
G1 X165.490 Y210.640 E9.8415
G1 X165.932 Y210.640 E9.8693
G1 X167.250 Y211.958 E9.9865
G1 X167.250 Y214.452 E10.1432
G1 X165.932 Y215.770 E10.2604
G1 X163.940 Y215.770 E10.3856
G1 X163.535 Y215.980 E10.4143
G1 X161.891 Y215.906 E10.5178
G1 X161.678 Y215.770 E10.5336
G1 X161.451 Y215.770 E10.5479
G1 X161.250 Y215.863 E10.5618
G1 X159.611 Y215.715 E10.6653
G1 X159.312 Y215.504 E10.6883
G1 X158.973 Y215.643 E10.7113
G1 X157.342 Y215.422 E10.8147
G1 X157.052 Y215.198 E10.8378
G1 X156.708 Y215.322 E10.8608
G1 X155.089 Y215.028 E10.9642
G1 X154.809 Y214.791 E10.9873
G1 X154.460 Y214.899 E11.0103
G1 X152.855 Y214.533 E11.1137
G1 X152.586 Y214.284 E11.1367
G1 X152.232 Y214.376 E11.1598
G1 X150.645 Y213.938 E11.2632
G1 X150.389 Y213.677 E11.2862
G1 X150.030 Y213.754 E11.3093
G1 X148.465 Y213.245 E11.4127
G1 X148.220 Y212.973 E11.4357
G1 X147.859 Y213.033 E11.4587
G1 X146.318 Y212.454 E11.5622
G1 X146.086 Y212.172 E11.5852
G1 X145.722 Y212.216 E11.6082
