; G-Code generated by Simplify3D(R) Version 4.1.2
; May 3, 2020 at 10:03:59 AM
; Settings Summary
;   processName,Process1
;   applyToModels,MirrorHolder
;   profileName,X5X-ABSpro (modified)
;   profileVersion,2020-04-22 09:40:43
;   baseProfile,TRONXY X5S
;   printMaterial,PLA
;   printQuality,Medium
;   printExtruders,
;   extruderName,Primary Extruder
;   extruderToolheadNumber,0
;   extruderDiameter,0.4
;   extruderAutoWidth,0
;   extruderWidth,0.4
;   extrusionMultiplier,1.05
;   extruderUseRetract,1
;   extruderRetractionDistance,5
;   extruderExtraRestartDistance,-0.1
;   extruderRetractionZLift,0
;   extruderRetractionSpeed,4800
;   extruderUseCoasting,0
;   extruderCoastingDistance,0.2
;   extruderUseWipe,0
;   extruderWipeDistance,5
;   primaryExtruder,0
;   layerHeight,0.2
;   topSolidLayers,3
;   bottomSolidLayers,3
;   perimeterOutlines,5
;   printPerimetersInsideOut,0
;   startPointOption,2
;   startPointOriginX,0
;   startPointOriginY,0
;   sequentialIslands,0
;   spiralVaseMode,0
;   firstLayerHeightPercentage,120
;   firstLayerWidthPercentage,150
;   firstLayerUnderspeed,0.5
;   useRaft,0
;   raftExtruder,0
;   raftTopLayers,3
;   raftBaseLayers,2
;   raftOffset,0
;   raftSeparationDistance,0
;   raftTopInfill,100
;   aboveRaftSpeedMultiplier,0.3
;   useSkirt,1
;   skirtExtruder,0
;   skirtLayers,1
;   skirtOutlines,3
;   skirtOffset,0.15
;   usePrimePillar,0
;   primePillarExtruder,999
;   primePillarWidth,12
;   primePillarLocation,7
;   primePillarSpeedMultiplier,1
;   useOozeShield,0
;   oozeShieldExtruder,999
;   oozeShieldOffset,2
;   oozeShieldOutlines,1
;   oozeShieldSidewallShape,1
;   oozeShieldSidewallAngle,30
;   oozeShieldSpeedMultiplier,1
;   infillExtruder,0
;   internalInfillPattern,Rectilinear
;   externalInfillPattern,Rectilinear
;   infillPercentage,20
;   outlineOverlapPercentage,15
;   infillExtrusionWidthPercentage,100
;   minInfillLength,5
;   infillLayerInterval,1
;   internalInfillAngles,45,-45
;   overlapInternalInfillAngles,0
;   externalInfillAngles,45,-45
;   generateSupport,1
;   supportExtruder,0
;   supportInfillPercentage,30
;   supportExtraInflation,0
;   supportBaseLayers,0
;   denseSupportExtruder,0
;   denseSupportLayers,0
;   denseSupportInfillPercentage,70
;   supportLayerInterval,1
;   supportHorizontalPartOffset,0.3
;   supportUpperSeparationLayers,1
;   supportLowerSeparationLayers,1
;   supportType,0
;   supportGridSpacing,3
;   maxOverhangAngle,70
;   supportAngles,0
;   temperatureName,Primary Extruder,Heated Bed
;   temperatureNumber,0,0
;   temperatureSetpointCount,1,1
;   temperatureSetpointLayers,1,1
;   temperatureSetpointTemperatures,240,90
;   temperatureStabilizeAtStartup,1,1
;   temperatureHeatedBed,0,1
;   fanLayers,1
;   fanSpeeds,0
;   blipFanToFullPower,0
;   adjustSpeedForCooling,1
;   minSpeedLayerTime,15
;   minCoolingSpeedSlowdown,20
;   increaseFanForCooling,0
;   minFanLayerTime,45
;   maxCoolingFanSpeed,100
;   increaseFanForBridging,0
;   bridgingFanSpeed,100
;   use5D,1
;   relativeEdistances,0
;   allowEaxisZeroing,1
;   independentExtruderAxes,0
;   includeM10123,0
;   stickySupport,1
;   applyToolheadOffsets,0
;   gcodeXoffset,0
;   gcodeYoffset,0
;   gcodeZoffset,0
;   overrideMachineDefinition,1
;   machineTypeOverride,0
;   strokeXoverride,330
;   strokeYoverride,330
;   strokeZoverride,400
;   originOffsetXoverride,0
;   originOffsetYoverride,0
;   originOffsetZoverride,0
;   homeXdirOverride,-1
;   homeYdirOverride,-1
;   homeZdirOverride,-1
;   flipXoverride,1
;   flipYoverride,-1
;   flipZoverride,1
;   toolheadOffsets,0,0|0,0|0,0|0,0|0,0|0,0
;   overrideFirmwareConfiguration,1
;   firmwareTypeOverride,RepRap (Marlin/Repetier/Sprinter)
;   GPXconfigOverride,r2
;   baudRateOverride,250000
;   overridePrinterModels,1
;   printerModelsOverride
;   startingGcode,G28 ; home all axes,G1 Z0.2 F3000 ; get ready to prime,G92 E0 ; reset extrusion distance,G1 X100 E10 F600 ; prime nozzle
;   layerChangeGcode,
;   retractionGcode,
;   toolChangeGcode,
;   endingGcode,G28 X0 ; home x axis,M106 S0 ; turn off cooling fan,M104 S0 ; turn off extruder,M140 S0 ; turn off bed,M84 ; disable motors
;   exportFileFormat,gcode
;   celebration,0
;   celebrationSong,Funky Town
;   postProcessing,
;   defaultSpeed,3000
;   outlineUnderspeed,0.5
;   solidInfillUnderspeed,0.8
;   supportUnderspeed,0.8
;   rapidXYspeed,4800
;   rapidZspeed,1002
;   minBridgingArea,5
;   bridgingExtraInflation,2
;   bridgingExtrusionMultiplier,1
;   bridgingSpeedMultiplier,1
;   useFixedBridgingAngle,1
;   fixedBridgingAngle,0
;   applyBridgingToPerimeters,0
;   filamentDiameters,1.75|1.75|1.75|1.75|1.75|1.75
;   filamentPricesPerKg,46|46|46|46|46|46
;   filamentDensities,1.25|1.25|1.25|1.25|1.25|1.25
;   useMinPrintHeight,0
;   minPrintHeight,0
;   useMaxPrintHeight,0
;   maxPrintHeight,40
;   useDiaphragm,0
;   diaphragmLayerInterval,20
;   robustSlicing,1
;   mergeAllIntoSolid,0
;   onlyRetractWhenCrossingOutline,1
;   retractBetweenLayers,1
;   useRetractionMinTravel,0
;   retractionMinTravel,3
;   retractWhileWiping,0
;   onlyWipeOutlines,1
;   avoidCrossingOutline,0
;   maxMovementDetourFactor,3
;   toolChangeRetractionDistance,12
;   toolChangeExtraRestartDistance,-0.5
;   toolChangeRetractionSpeed,600
;   externalThinWallType,0
;   internalThinWallType,2
;   thinWallAllowedOverlapPercentage,10
;   singleExtrusionMinLength,1
;   singleExtrusionMinPrintingWidthPercentage,50
;   singleExtrusionMaxPrintingWidthPercentage,200
;   singleExtrusionEndpointExtension,0.2
;   horizontalSizeCompensation,0
G90
M82
M106 S0
M140 S90
M190 S90
M104 S240 T0
M109 S240 T0
G28 ; home all axes
G1 Z0.2 F3000 ; get ready to prime
G92 E0 ; reset extrusion distance
G1 X100 E10 F600 ; prime nozzle
; process Process1
; layer 1, Z = 0.240
T0
G92 E0.0000
G1 E-5.0000 F4800
; feature skirt
; tool H0.240 W0.600
G1 Z0.240 F1002
G1 X109.094 Y162.830 F4800
G1 E-0.1000 F4800
G92 E0.0000
G1 X112.906 Y162.830 E0.2397 F1500
G1 X113.170 Y163.094 E0.2631
G1 X113.170 Y166.906 E0.5028
G1 X112.906 Y167.170 E0.5262
G1 X109.094 Y167.170 E0.7659
G1 X108.830 Y166.906 E0.7893
G1 X108.830 Y163.094 E1.0290
G1 X109.094 Y162.830 E1.0525
G92 E0.0000
G1 E-5.0000 F4800
G1 X108.597 Y161.630 F4800
G1 E-0.1000 F4800
G92 E0.0000
G1 X112.350 Y161.630 E0.2359 F1500
G1 X112.350 Y160.317 E0.3185
G1 X113.317 Y159.350 E0.4044
G1 X216.683 Y159.350 E6.9023
G1 X217.650 Y160.317 E6.9882
G1 X217.650 Y161.630 E7.0707
G1 X221.403 Y161.630 E7.3067
G1 X222.370 Y162.597 E7.3926
G1 X222.370 Y167.403 E7.6948
G1 X221.403 Y168.370 E7.7807
G1 X217.650 Y168.370 E8.0167
G1 X217.650 Y169.683 E8.0992
G1 X216.683 Y170.650 E8.1852
G1 X113.317 Y170.650 E14.6830
G1 X112.350 Y169.683 E14.7689
G1 X112.350 Y168.370 E14.8515
G1 X108.597 Y168.370 E15.0874
G1 X107.630 Y167.403 E15.1733
G1 X107.630 Y162.597 E15.4755
G1 X108.597 Y161.630 E15.5614
G92 E0.0000
G1 E-5.0000 F4800
G1 X108.845 Y162.230 F4800
G1 E-0.1000 F4800
G92 E0.0000
G1 X112.950 Y162.230 E0.2580 F1500
G1 X112.950 Y160.565 E0.3627
G1 X113.565 Y159.950 E0.4174
G1 X216.435 Y159.950 E6.8840
G1 X217.050 Y160.565 E6.9386
G1 X217.050 Y162.230 E7.0433
G1 X221.155 Y162.230 E7.3013
G1 X221.770 Y162.845 E7.3560
G1 X221.770 Y167.155 E7.6269
G1 X221.155 Y167.770 E7.6816
G1 X217.050 Y167.770 E7.9397
G1 X217.050 Y169.435 E8.0443
G1 X216.435 Y170.050 E8.0990
G1 X113.565 Y170.050 E14.5656
G1 X112.950 Y169.435 E14.6203
G1 X112.950 Y167.770 E14.7249
G1 X108.845 Y167.770 E14.9830
G1 X108.230 Y167.155 E15.0376
G1 X108.230 Y162.845 E15.3086
G1 X108.845 Y162.230 E15.3632
G92 E0.0000
G1 E-5.0000 F4800
G1 X113.550 Y160.814 F4800
G1 E-0.1000 F4800
G92 E0.0000
G1 X113.814 Y160.550 E0.0234 F1500
G1 X216.186 Y160.550 E6.4588
G1 X216.450 Y160.814 E6.4822
G1 X216.450 Y162.830 E6.6089
G1 X220.906 Y162.830 E6.8891
G1 X221.170 Y163.094 E6.9125
G1 X221.170 Y166.906 E7.1522
G1 X220.906 Y167.170 E7.1756
G1 X216.450 Y167.170 E7.4558
G1 X216.450 Y169.186 E7.5825
G1 X216.186 Y169.450 E7.6060
G1 X113.814 Y169.450 E14.0413
G1 X113.550 Y169.186 E14.0647
G1 X113.550 Y160.814 E14.5910
G92 E0.0000
G1 E-5.0000 F4800
; feature outer perimeter
G1 X114.300 Y161.300 F4800
G1 E-0.1000 F4800
G92 E0.0000
G1 X215.700 Y161.300 E6.3742 F750
G1 X215.700 Y168.700 E6.8393
G1 X114.300 Y168.700 E13.2135
G1 X114.300 Y161.300 E13.6787
; feature inner perimeter
G1 X114.900 Y161.900 F4800
G92 E0.0000
G1 X215.100 Y161.900 E6.2987 F1125
G1 X215.100 Y168.100 E6.6885
G1 X114.900 Y168.100 E12.9872
G1 X114.900 Y161.900 E13.3770
G1 X115.500 Y162.500 F4800
G92 E0.0000
G1 X214.500 Y162.500 E6.2233 F1125
G1 X214.500 Y167.500 E6.5376
G1 X115.500 Y167.500 E12.7609
G1 X115.500 Y162.500 E13.0752
G1 X116.100 Y163.100 F4800
G92 E0.0000
G1 X213.900 Y163.100 E6.1479 F1125
G1 X213.900 Y166.900 E6.3867
G1 X116.100 Y166.900 E12.5346
G1 X116.100 Y163.100 E12.7735
G1 X116.700 Y163.700 F4800
G92 E0.0000
G1 X213.300 Y163.700 E6.0724 F1125
G1 X213.300 Y166.300 E6.2359
G1 X116.700 Y166.300 E12.3083
G1 X116.700 Y163.700 E12.4718
; feature solid layer
G1 X117.424 Y165.790 F4800
G92 E0.0000
G1 X117.210 Y165.576 E0.0190 F1200
G1 X117.210 Y164.728 E0.0724
G1 X118.272 Y165.790 E0.1668
G1 X119.121 Y165.790 E0.2201
G1 X117.541 Y164.210 E0.3606
G1 X118.389 Y164.210 E0.4139
G1 X119.969 Y165.790 E0.5544
G1 X120.818 Y165.790 E0.6077
G1 X119.238 Y164.210 E0.7482
G1 X120.087 Y164.210 E0.8016
G1 X121.667 Y165.790 E0.9420
G1 X122.515 Y165.790 E0.9954
G1 X120.935 Y164.210 E1.1358
G1 X121.784 Y164.210 E1.1892
G1 X123.364 Y165.790 E1.3296
G1 X124.212 Y165.790 E1.3830
G1 X122.632 Y164.210 E1.5234
G1 X123.481 Y164.210 E1.5768
G1 X125.061 Y165.790 E1.7172
G1 X125.909 Y165.790 E1.7706
G1 X124.329 Y164.210 E1.9110
G1 X125.178 Y164.210 E1.9644
G1 X126.758 Y165.790 E2.1048
G1 X127.606 Y165.790 E2.1582
G1 X126.026 Y164.210 E2.2986
G1 X126.875 Y164.210 E2.3520
G1 X128.455 Y165.790 E2.4924
G1 X129.303 Y165.790 E2.5458
G1 X127.723 Y164.210 E2.6862
G1 X128.572 Y164.210 E2.7396
G1 X130.152 Y165.790 E2.8800
G1 X131.000 Y165.790 E2.9334
G1 X129.420 Y164.210 E3.0738
G1 X130.269 Y164.210 E3.1272
G1 X131.849 Y165.790 E3.2676
G1 X132.697 Y165.790 E3.3210
G1 X131.117 Y164.210 E3.4614
G1 X131.966 Y164.210 E3.5148
G1 X133.546 Y165.790 E3.6552
G1 X134.394 Y165.790 E3.7086
G1 X132.814 Y164.210 E3.8490
G1 X133.663 Y164.210 E3.9024
G1 X135.243 Y165.790 E4.0428
G1 X136.092 Y165.790 E4.0962
G1 X134.512 Y164.210 E4.2366
G1 X135.360 Y164.210 E4.2900
G1 X136.940 Y165.790 E4.4304
G1 X137.789 Y165.790 E4.4838
G1 X136.209 Y164.210 E4.6242
G1 X137.057 Y164.210 E4.6776
G1 X138.637 Y165.790 E4.8180
G1 X139.486 Y165.790 E4.8714
G1 X137.906 Y164.210 E5.0118
G1 X138.754 Y164.210 E5.0652
G1 X140.334 Y165.790 E5.2056
G1 X141.183 Y165.790 E5.2590
G1 X139.603 Y164.210 E5.3994
G1 X140.451 Y164.210 E5.4528
G1 X142.031 Y165.790 E5.5933
G1 X142.880 Y165.790 E5.6466
G1 X141.300 Y164.210 E5.7871
G1 X142.148 Y164.210 E5.8404
G1 X143.728 Y165.790 E5.9809
G1 X144.577 Y165.790 E6.0342
G1 X142.997 Y164.210 E6.1747
G1 X143.845 Y164.210 E6.2280
G1 X145.425 Y165.790 E6.3685
G1 X146.274 Y165.790 E6.4218
G1 X144.694 Y164.210 E6.5623
G1 X145.542 Y164.210 E6.6156
G1 X147.122 Y165.790 E6.7561
G1 X147.971 Y165.790 E6.8094
G1 X146.391 Y164.210 E6.9499
G1 X147.239 Y164.210 E7.0032
G1 X148.819 Y165.790 E7.1437
G1 X149.668 Y165.790 E7.1970
G1 X148.088 Y164.210 E7.3375
G1 X148.937 Y164.210 E7.3908
G1 X150.517 Y165.790 E7.5313
G1 X151.365 Y165.790 E7.5846
G1 X149.785 Y164.210 E7.7251
G1 X150.634 Y164.210 E7.7784
G1 X152.214 Y165.790 E7.9189
G1 X153.062 Y165.790 E7.9722
G1 X151.482 Y164.210 E8.1127
G1 X152.331 Y164.210 E8.1660
G1 X153.911 Y165.790 E8.3065
G1 X154.759 Y165.790 E8.3598
G1 X153.179 Y164.210 E8.5003
G1 X154.028 Y164.210 E8.5536
G1 X155.608 Y165.790 E8.6941
G1 X156.456 Y165.790 E8.7474
G1 X154.876 Y164.210 E8.8879
G1 X155.725 Y164.210 E8.9412
G1 X157.305 Y165.790 E9.0817
G1 X158.153 Y165.790 E9.1350
G1 X156.573 Y164.210 E9.2755
G1 X157.422 Y164.210 E9.3288
G1 X159.002 Y165.790 E9.4693
G1 X159.850 Y165.790 E9.5226
G1 X158.270 Y164.210 E9.6631
G1 X159.119 Y164.210 E9.7164
G1 X160.699 Y165.790 E9.8569
G1 X161.547 Y165.790 E9.9102
G1 X159.967 Y164.210 E10.0507
G1 X160.816 Y164.210 E10.1040
G1 X162.396 Y165.790 E10.2445
G1 X163.244 Y165.790 E10.2978
G1 X161.664 Y164.210 E10.4383
G1 X162.513 Y164.210 E10.4916
G1 X164.093 Y165.790 E10.6321
G1 X164.941 Y165.790 E10.6854
G1 X163.361 Y164.210 E10.8259
G1 X164.210 Y164.210 E10.8792
G1 X165.790 Y165.790 E11.0197
G1 X166.639 Y165.790 E11.0730
G1 X165.059 Y164.210 E11.2135
G1 X165.907 Y164.210 E11.2668
G1 X167.487 Y165.790 E11.4073
G1 X168.336 Y165.790 E11.4606
G1 X166.756 Y164.210 E11.6011
G1 X167.604 Y164.210 E11.6544
G1 X169.184 Y165.790 E11.7949
G1 X170.033 Y165.790 E11.8482
G1 X168.453 Y164.210 E11.9887
G1 X169.301 Y164.210 E12.0420
G1 X170.881 Y165.790 E12.1825
G1 X171.730 Y165.790 E12.2358
G1 X170.150 Y164.210 E12.3763
G1 X170.998 Y164.210 E12.4296
G1 X172.578 Y165.790 E12.5701
G1 X173.427 Y165.790 E12.6234
G1 X171.847 Y164.210 E12.7639
G1 X172.695 Y164.210 E12.8172
G1 X174.275 Y165.790 E12.9577
G1 X175.124 Y165.790 E13.0111
G1 X173.544 Y164.210 E13.1515
G1 X174.392 Y164.210 E13.2049
G1 X175.972 Y165.790 E13.3453
G1 X176.821 Y165.790 E13.3987
G1 X175.241 Y164.210 E13.5391
G1 X176.089 Y164.210 E13.5925
G1 X177.669 Y165.790 E13.7329
G1 X178.518 Y165.790 E13.7863
G1 X176.938 Y164.210 E13.9267
G1 X177.786 Y164.210 E13.9801
G1 X179.366 Y165.790 E14.1205
G1 X180.215 Y165.790 E14.1739
G1 X178.635 Y164.210 E14.3143
G1 X179.484 Y164.210 E14.3677
G1 X181.064 Y165.790 E14.5081
G1 X181.912 Y165.790 E14.5615
G1 X180.332 Y164.210 E14.7019
G1 X181.181 Y164.210 E14.7553
G1 X182.761 Y165.790 E14.8957
G1 X183.609 Y165.790 E14.9491
G1 X182.029 Y164.210 E15.0895
G1 X182.878 Y164.210 E15.1429
G1 X184.458 Y165.790 E15.2833
G1 X185.306 Y165.790 E15.3367
G1 X183.726 Y164.210 E15.4771
G1 X184.575 Y164.210 E15.5305
G1 X186.155 Y165.790 E15.6709
G1 X187.003 Y165.790 E15.7243
G1 X185.423 Y164.210 E15.8647
G1 X186.272 Y164.210 E15.9181
G1 X187.852 Y165.790 E16.0585
G1 X188.700 Y165.790 E16.1119
G1 X187.120 Y164.210 E16.2523
G1 X187.969 Y164.210 E16.3057
G1 X189.549 Y165.790 E16.4461
G1 X190.397 Y165.790 E16.4995
G1 X188.817 Y164.210 E16.6399
G1 X189.666 Y164.210 E16.6933
G1 X191.246 Y165.790 E16.8337
G1 X192.094 Y165.790 E16.8871
G1 X190.514 Y164.210 E17.0275
G1 X191.363 Y164.210 E17.0809
G1 X192.943 Y165.790 E17.2213
G1 X193.791 Y165.790 E17.2747
G1 X192.211 Y164.210 E17.4151
G1 X193.060 Y164.210 E17.4685
G1 X194.640 Y165.790 E17.6089
G1 X195.488 Y165.790 E17.6623
G1 X193.908 Y164.210 E17.8027
G1 X194.757 Y164.210 E17.8561
G1 X196.337 Y165.790 E17.9966
G1 X197.186 Y165.790 E18.0499
G1 X195.606 Y164.210 E18.1904
G1 X196.454 Y164.210 E18.2437
G1 X198.034 Y165.790 E18.3842
G1 X198.883 Y165.790 E18.4375
G1 X197.303 Y164.210 E18.5780
G1 X198.151 Y164.210 E18.6313
G1 X199.731 Y165.790 E18.7718
G1 X200.580 Y165.790 E18.8251
G1 X199.000 Y164.210 E18.9656
G1 X199.848 Y164.210 E19.0189
G1 X201.428 Y165.790 E19.1594
G1 X202.277 Y165.790 E19.2127
G1 X200.697 Y164.210 E19.3532
G1 X201.545 Y164.210 E19.4065
G1 X203.125 Y165.790 E19.5470
G1 X203.974 Y165.790 E19.6003
G1 X202.394 Y164.210 E19.7408
G1 X203.242 Y164.210 E19.7941
G1 X204.822 Y165.790 E19.9346
G1 X205.671 Y165.790 E19.9879
G1 X204.091 Y164.210 E20.1284
G1 X204.939 Y164.210 E20.1817
G1 X206.519 Y165.790 E20.3222
G1 X207.368 Y165.790 E20.3755
G1 X205.788 Y164.210 E20.5160
G1 X206.636 Y164.210 E20.5693
G1 X208.216 Y165.790 E20.7098
G1 X209.065 Y165.790 E20.7631
G1 X207.485 Y164.210 E20.9036
G1 X208.333 Y164.210 E20.9569
G1 X209.913 Y165.790 E21.0974
G1 X210.762 Y165.790 E21.1507
G1 X209.182 Y164.210 E21.2912
G1 X210.031 Y164.210 E21.3445
G1 X211.611 Y165.790 E21.4850
G1 X212.459 Y165.790 E21.5383
G1 X210.879 Y164.210 E21.6788
G1 X211.728 Y164.210 E21.7321
G1 X212.790 Y165.272 E21.8266
G1 X212.790 Y164.424 E21.8799
G1 X212.576 Y164.210 E21.8989
G92 E0.0000
G1 E-5.0000 F4800
; feature support
G1 X216.610 Y163.667 F4800
G1 E-0.1000 F4800
G92 E0.0000
G1 X220.410 Y163.667 E0.2389 F1200
G1 X220.410 Y165.000 E0.3227
G1 X216.610 Y165.000 E0.5616
G1 X216.610 Y166.333 E0.6454
