; G-Code generated by Simplify3D(R) Version 4.1.2
; May 3, 2020 at 2:57:15 PM
; Settings Summary
;   processName,Process1
;   applyToModels,MirrorGear
;   profileName,X5X-ABSpro (modified)
;   profileVersion,2020-04-22 09:40:43
;   baseProfile,TRONXY X5S
;   printMaterial,PLA
;   printQuality,Medium
;   printExtruders,
;   extruderName,Primary Extruder
;   extruderToolheadNumber,0
;   extruderDiameter,0.4
;   extruderAutoWidth,0
;   extruderWidth,0.4
;   extrusionMultiplier,1.05
;   extruderUseRetract,1
;   extruderRetractionDistance,5
;   extruderExtraRestartDistance,-0.1
;   extruderRetractionZLift,0
;   extruderRetractionSpeed,4800
;   extruderUseCoasting,0
;   extruderCoastingDistance,0.2
;   extruderUseWipe,0
;   extruderWipeDistance,5
;   primaryExtruder,0
;   layerHeight,0.2
;   topSolidLayers,3
;   bottomSolidLayers,3
;   perimeterOutlines,5
;   printPerimetersInsideOut,0
;   startPointOption,2
;   startPointOriginX,0
;   startPointOriginY,0
;   sequentialIslands,0
;   spiralVaseMode,0
;   firstLayerHeightPercentage,120
;   firstLayerWidthPercentage,150
;   firstLayerUnderspeed,0.5
;   useRaft,0
;   raftExtruder,0
;   raftTopLayers,3
;   raftBaseLayers,2
;   raftOffset,0
;   raftSeparationDistance,0
;   raftTopInfill,100
;   aboveRaftSpeedMultiplier,0.3
;   useSkirt,1
;   skirtExtruder,0
;   skirtLayers,1
;   skirtOutlines,3
;   skirtOffset,0.15
;   usePrimePillar,0
;   primePillarExtruder,999
;   primePillarWidth,12
;   primePillarLocation,7
;   primePillarSpeedMultiplier,1
;   useOozeShield,0
;   oozeShieldExtruder,999
;   oozeShieldOffset,2
;   oozeShieldOutlines,1
;   oozeShieldSidewallShape,1
;   oozeShieldSidewallAngle,30
;   oozeShieldSpeedMultiplier,1
;   infillExtruder,0
;   internalInfillPattern,Rectilinear
;   externalInfillPattern,Rectilinear
;   infillPercentage,20
;   outlineOverlapPercentage,15
;   infillExtrusionWidthPercentage,100
;   minInfillLength,5
;   infillLayerInterval,1
;   internalInfillAngles,45,-45
;   overlapInternalInfillAngles,0
;   externalInfillAngles,45,-45
;   generateSupport,0
;   supportExtruder,0
;   supportInfillPercentage,30
;   supportExtraInflation,0
;   supportBaseLayers,0
;   denseSupportExtruder,0
;   denseSupportLayers,0
;   denseSupportInfillPercentage,70
;   supportLayerInterval,1
;   supportHorizontalPartOffset,0.3
;   supportUpperSeparationLayers,1
;   supportLowerSeparationLayers,1
;   supportType,0
;   supportGridSpacing,3
;   maxOverhangAngle,70
;   supportAngles,0
;   temperatureName,Primary Extruder,Heated Bed
;   temperatureNumber,0,0
;   temperatureSetpointCount,1,1
;   temperatureSetpointLayers,1,1
;   temperatureSetpointTemperatures,240,90
;   temperatureStabilizeAtStartup,1,1
;   temperatureHeatedBed,0,1
;   fanLayers,1
;   fanSpeeds,0
;   blipFanToFullPower,0
;   adjustSpeedForCooling,1
;   minSpeedLayerTime,15
;   minCoolingSpeedSlowdown,20
;   increaseFanForCooling,0
;   minFanLayerTime,45
;   maxCoolingFanSpeed,100
;   increaseFanForBridging,0
;   bridgingFanSpeed,100
;   use5D,1
;   relativeEdistances,0
;   allowEaxisZeroing,1
;   independentExtruderAxes,0
;   includeM10123,0
;   stickySupport,1
;   applyToolheadOffsets,0
;   gcodeXoffset,0
;   gcodeYoffset,0
;   gcodeZoffset,0
;   overrideMachineDefinition,1
;   machineTypeOverride,0
;   strokeXoverride,330
;   strokeYoverride,330
;   strokeZoverride,400
;   originOffsetXoverride,0
;   originOffsetYoverride,0
;   originOffsetZoverride,0
;   homeXdirOverride,-1
;   homeYdirOverride,-1
;   homeZdirOverride,-1
;   flipXoverride,1
;   flipYoverride,-1
;   flipZoverride,1
;   toolheadOffsets,0,0|0,0|0,0|0,0|0,0|0,0
;   overrideFirmwareConfiguration,1
;   firmwareTypeOverride,RepRap (Marlin/Repetier/Sprinter)
;   GPXconfigOverride,r2
;   baudRateOverride,250000
;   overridePrinterModels,1
;   printerModelsOverride
;   startingGcode,G28 ; home all axes,G1 Z0.2 F3000 ; get ready to prime,G92 E0 ; reset extrusion distance,G1 X100 E10 F600 ; prime nozzle
;   layerChangeGcode,
;   retractionGcode,
;   toolChangeGcode,
;   endingGcode,G28 X0 ; home x axis,M106 S0 ; turn off cooling fan,M104 S0 ; turn off extruder,M140 S0 ; turn off bed,M84 ; disable motors
;   exportFileFormat,gcode
;   celebration,0
;   celebrationSong,Funky Town
;   postProcessing,
;   defaultSpeed,3000
;   outlineUnderspeed,0.5
;   solidInfillUnderspeed,0.8
;   supportUnderspeed,0.8
;   rapidXYspeed,4800
;   rapidZspeed,1002
;   minBridgingArea,5
;   bridgingExtraInflation,2
;   bridgingExtrusionMultiplier,1
;   bridgingSpeedMultiplier,1
;   useFixedBridgingAngle,1
;   fixedBridgingAngle,0
;   applyBridgingToPerimeters,0
;   filamentDiameters,1.75|1.75|1.75|1.75|1.75|1.75
;   filamentPricesPerKg,46|46|46|46|46|46
;   filamentDensities,1.25|1.25|1.25|1.25|1.25|1.25
;   useMinPrintHeight,0
;   minPrintHeight,0
;   useMaxPrintHeight,0
;   maxPrintHeight,40
;   useDiaphragm,0
;   diaphragmLayerInterval,20
;   robustSlicing,1
;   mergeAllIntoSolid,0
;   onlyRetractWhenCrossingOutline,1
;   retractBetweenLayers,1
;   useRetractionMinTravel,0
;   retractionMinTravel,3
;   retractWhileWiping,0
;   onlyWipeOutlines,1
;   avoidCrossingOutline,0
;   maxMovementDetourFactor,3
;   toolChangeRetractionDistance,12
;   toolChangeExtraRestartDistance,-0.5
;   toolChangeRetractionSpeed,600
;   externalThinWallType,0
;   internalThinWallType,2
;   thinWallAllowedOverlapPercentage,10
;   singleExtrusionMinLength,1
;   singleExtrusionMinPrintingWidthPercentage,50
;   singleExtrusionMaxPrintingWidthPercentage,200
;   singleExtrusionEndpointExtension,0.2
;   horizontalSizeCompensation,0
G90
M82
M106 S0
M140 S90
M190 S90
M104 S240 T0
M109 S240 T0
G28 ; home all axes
G1 Z0.2 F3000 ; get ready to prime
G92 E0 ; reset extrusion distance
G1 X100 E10 F600 ; prime nozzle
; process Process1
; layer 1, Z = 0.240
T0
G92 E0.0000
G1 E-5.0000 F4800
; feature skirt
; tool H0.240 W0.600
G1 Z0.240 F1002
G1 X164.317 Y115.556 F4800
G1 E-0.1000 F4800
G92 E0.0000
G1 X164.801 Y115.556 E0.0305 F1500
G1 X165.072 Y115.087 E0.0645
G1 X165.838 Y114.645 E0.1201
G1 X167.162 Y114.645 E0.2033
G1 X167.551 Y114.870 E0.2316
G1 X167.707 Y114.870 E0.2414
G1 X168.099 Y114.666 E0.2691
G1 X169.422 Y114.726 E0.3524
G1 X169.647 Y114.870 E0.3692
G1 X170.187 Y114.870 E0.4031
G1 X170.379 Y114.783 E0.4164
G1 X171.180 Y114.870 E0.4670
G1 X172.183 Y114.870 E0.5301
G1 X172.407 Y115.094 E0.5500
G1 X172.606 Y115.012 E0.5635
G1 X173.918 Y115.190 E0.6467
G1 X174.341 Y115.517 E0.6803
G1 X174.843 Y115.337 E0.7139
G1 X176.146 Y115.573 E0.7971
G1 X176.554 Y115.918 E0.8307
G1 X177.064 Y115.761 E0.8642
G1 X178.355 Y116.055 E0.9475
G1 X178.746 Y116.419 E0.9811
G1 X179.263 Y116.284 E1.0146
G1 X180.540 Y116.637 E1.0979
G1 X180.914 Y117.017 E1.1315
G1 X181.437 Y116.906 E1.1650
G1 X182.696 Y117.315 E1.2483
G1 X183.054 Y117.712 E1.2818
G1 X183.580 Y117.625 E1.3154
G1 X184.820 Y118.090 E1.3986
G1 X185.159 Y118.502 E1.4322
G1 X185.690 Y118.439 E1.4658
G1 X186.907 Y118.959 E1.5490
G1 X187.227 Y119.386 E1.5826
G1 X187.760 Y119.346 E1.6162
G1 X188.953 Y119.921 E1.6994
G1 X189.254 Y120.362 E1.7330
G1 X189.788 Y120.346 E1.7666
G1 X190.954 Y120.974 E1.8498
G1 X191.235 Y121.428 E1.8834
G1 X191.769 Y121.436 E1.9169
G1 X192.905 Y122.115 E2.0002
G1 X193.165 Y122.582 E2.0338
G1 X193.699 Y122.614 E2.0673
G1 X194.804 Y123.343 E2.1506
G1 X195.043 Y123.821 E2.1841
G1 X195.574 Y123.877 E2.2177
G1 X196.645 Y124.655 E2.3009
G1 X196.862 Y125.143 E2.3345
G1 X197.390 Y125.222 E2.3681
G1 X198.426 Y126.048 E2.4513
G1 X198.621 Y126.545 E2.4849
G1 X199.144 Y126.648 E2.5185
G1 X200.142 Y127.519 E2.6017
G1 X200.315 Y128.025 E2.6353
G1 X200.833 Y128.152 E2.6688
G1 X201.790 Y129.067 E2.7521
G1 X201.940 Y129.579 E2.7857
G1 X202.453 Y129.729 E2.8193
G1 X203.368 Y130.687 E2.9025
G1 X203.494 Y131.205 E2.9360
G1 X204.000 Y131.378 E2.9696
G1 X204.871 Y132.375 E3.0529
G1 X204.974 Y132.899 E3.0864
G1 X205.472 Y133.094 E3.1200
G1 X206.297 Y134.129 E3.2033
G1 X206.377 Y134.657 E3.2368
G1 X206.865 Y134.875 E3.2704
G1 X207.643 Y135.946 E3.3536
G1 X207.699 Y136.477 E3.3872
G1 X208.176 Y136.716 E3.4208
G1 X208.906 Y137.821 E3.5040
G1 X208.938 Y138.354 E3.5376
G1 X209.404 Y138.614 E3.5711
G1 X210.084 Y139.751 E3.6544
G1 X210.091 Y140.285 E3.6880
G1 X210.546 Y140.566 E3.7215
G1 X211.173 Y141.732 E3.8048
G1 X211.157 Y142.266 E3.8384
G1 X211.598 Y142.566 E3.8719
G1 X212.173 Y143.759 E3.9552
G1 X212.133 Y144.292 E3.9887
G1 X212.560 Y144.612 E4.0223
G1 X213.081 Y145.830 E4.1056
G1 X213.017 Y146.360 E4.1391
G1 X213.430 Y146.699 E4.1727
G1 X213.895 Y147.939 E4.2559
G1 X213.807 Y148.466 E4.2895
G1 X214.204 Y148.823 E4.3231
G1 X214.614 Y150.083 E4.4063
G1 X214.503 Y150.605 E4.4399
G1 X214.883 Y150.980 E4.4734
G1 X215.235 Y152.256 E4.5567
G1 X215.101 Y152.773 E4.5903
G1 X215.464 Y153.165 E4.6238
G1 X215.759 Y154.456 E4.7071
G1 X215.601 Y154.966 E4.7407
G1 X215.947 Y155.374 E4.7742
G1 X216.183 Y156.677 E4.8575
G1 X216.003 Y157.179 E4.8910
G1 X216.330 Y157.602 E4.9246
G1 X216.507 Y158.914 E5.0079
G1 X216.305 Y159.408 E5.0414
G1 X216.612 Y159.845 E5.0750
G1 X216.731 Y161.164 E5.1582
G1 X216.506 Y161.648 E5.1918
G1 X216.794 Y162.098 E5.2254
G1 X216.854 Y163.421 E5.3086
G1 X216.607 Y163.895 E5.3422
G1 X216.875 Y164.357 E5.3758
G1 X216.875 Y165.682 E5.4590
G1 X216.607 Y166.144 E5.4926
G1 X216.854 Y166.618 E5.5262
G1 X216.794 Y167.941 E5.6094
G1 X216.506 Y168.391 E5.6430
G1 X216.731 Y168.876 E5.6765
G1 X216.612 Y170.194 E5.7598
G1 X216.305 Y170.631 E5.7933
G1 X216.507 Y171.125 E5.8269
G1 X216.330 Y172.438 E5.9101
G1 X216.003 Y172.860 E5.9437
G1 X216.183 Y173.363 E5.9773
G1 X215.947 Y174.666 E6.0605
G1 X215.601 Y175.073 E6.0941
G1 X215.759 Y175.583 E6.1277
G1 X215.464 Y176.874 E6.2109
G1 X215.101 Y177.266 E6.2445
G1 X215.235 Y177.783 E6.2781
G1 X214.883 Y179.059 E6.3613
G1 X214.503 Y179.434 E6.3949
G1 X214.614 Y179.957 E6.4285
G1 X214.204 Y181.216 E6.5117
G1 X213.807 Y181.573 E6.5453
G1 X213.895 Y182.100 E6.5788
G1 X213.430 Y183.340 E6.6621
G1 X213.017 Y183.679 E6.6956
G1 X213.081 Y184.209 E6.7292
G1 X212.560 Y185.427 E6.8125
G1 X212.133 Y185.747 E6.8460
G1 X212.173 Y186.280 E6.8796
G1 X211.598 Y187.473 E6.9628
G1 X211.157 Y187.774 E6.9964
G1 X211.173 Y188.308 E7.0300
G1 X210.546 Y189.474 E7.1132
G1 X210.091 Y189.754 E7.1468
G1 X210.084 Y190.288 E7.1804
G1 X209.404 Y191.425 E7.2636
G1 X208.938 Y191.685 E7.2972
G1 X208.906 Y192.218 E7.3308
G1 X208.176 Y193.323 E7.4140
G1 X207.699 Y193.562 E7.4475
G1 X207.643 Y194.093 E7.4811
G1 X206.865 Y195.165 E7.5644
G1 X206.377 Y195.382 E7.5979
G1 X206.297 Y195.910 E7.6315
G1 X205.472 Y196.945 E7.7147
G1 X204.974 Y197.140 E7.7483
G1 X204.871 Y197.664 E7.7819
G1 X204.000 Y198.661 E7.8651
G1 X203.494 Y198.834 E7.8987
G1 X203.368 Y199.353 E7.9323
G1 X202.453 Y200.310 E8.0155
G1 X201.940 Y200.460 E8.0491
G1 X201.790 Y200.973 E8.0827
G1 X200.833 Y201.888 E8.1659
G1 X200.315 Y202.014 E8.1995
G1 X200.142 Y202.520 E8.2331
G1 X199.144 Y203.391 E8.3163
G1 X198.621 Y203.494 E8.3498
G1 X198.426 Y203.991 E8.3834
G1 X197.390 Y204.817 E8.4667
G1 X196.862 Y204.896 E8.5002
G1 X196.645 Y205.384 E8.5338
G1 X195.574 Y206.163 E8.6171
G1 X195.042 Y206.218 E8.6506
G1 X194.804 Y206.696 E8.6842
G1 X193.699 Y207.425 E8.7674
G1 X193.165 Y207.457 E8.8010
G1 X192.905 Y207.924 E8.8346
G1 X191.769 Y208.603 E8.9178
G1 X191.235 Y208.611 E8.9514
G1 X190.954 Y209.065 E8.9850
G1 X189.788 Y209.693 E9.0682
G1 X189.254 Y209.677 E9.1018
G1 X188.953 Y210.118 E9.1353
G1 X187.760 Y210.693 E9.2186
G1 X187.228 Y210.653 E9.2522
G1 X186.907 Y211.080 E9.2857
G1 X185.690 Y211.601 E9.3690
G1 X185.159 Y211.537 E9.4025
G1 X184.820 Y211.949 E9.4361
G1 X183.580 Y212.415 E9.5193
G1 X183.054 Y212.327 E9.5529
G1 X182.696 Y212.724 E9.5865
G1 X181.437 Y213.133 E9.6697
G1 X180.914 Y213.022 E9.7033
G1 X180.540 Y213.402 E9.7369
G1 X179.263 Y213.755 E9.8201
G1 X178.746 Y213.621 E9.8537
G1 X178.355 Y213.984 E9.8873
G1 X177.064 Y214.278 E9.9705
G1 X176.554 Y214.121 E10.0041
G1 X176.146 Y214.466 E10.0377
G1 X174.843 Y214.703 E10.1209
G1 X174.341 Y214.523 E10.1545
G1 X173.918 Y214.849 E10.1880
G1 X172.606 Y215.027 E10.2713
G1 X172.407 Y214.946 E10.2848
G1 X172.183 Y215.170 E10.3047
G1 X171.180 Y215.170 E10.3677
G1 X170.379 Y215.257 E10.4184
G1 X170.187 Y215.170 E10.4317
G1 X169.647 Y215.170 E10.4656
G1 X169.422 Y215.314 E10.4824
G1 X168.099 Y215.373 E10.5656
G1 X167.707 Y215.170 E10.5934
G1 X165.817 Y215.170 E10.7122
G1 X164.850 Y214.203 E10.7981
G1 X164.850 Y212.160 E10.9266
G1 X165.437 Y211.572 E10.9788
G1 X165.322 Y208.997 E11.1409
G1 X166.244 Y207.988 E11.2268
G1 X166.610 Y207.971 E11.2498
G1 X166.610 Y183.259 E12.8033
G1 X166.110 Y182.759 E12.8478
G1 X166.110 Y178.552 E13.1122
G1 X165.817 Y178.552 E13.1307
G1 X164.850 Y177.585 E13.2166
G1 X164.850 Y168.336 E13.7980
G1 X165.817 Y167.370 E13.8839
G1 X173.850 Y167.370 E14.3889
G1 X173.850 Y162.670 E14.6844
G1 X165.817 Y162.670 E15.1894
G1 X164.850 Y161.703 E15.2753
G1 X164.850 Y152.454 E15.8567
G1 X165.817 Y151.488 E15.9426
G1 X166.110 Y151.488 E15.9611
G1 X166.110 Y147.280 E16.2255
G1 X166.610 Y146.780 E16.2700
G1 X166.610 Y122.106 E17.8211
G1 X164.317 Y122.106 E17.9652
G1 X163.350 Y121.140 E18.0511
G1 X163.350 Y116.523 E18.3414
G1 X164.317 Y115.556 E18.4273
G92 E0.0000
G1 E-5.0000 F4800
G1 X165.148 Y116.156 F4800
G1 E-0.1000 F4800
G92 E0.0000
G1 X165.511 Y115.526 E0.0457 F1500
G1 X165.999 Y115.245 E0.0811
G1 X167.001 Y115.245 E0.1441
G1 X167.390 Y115.470 E0.1723
G1 X167.853 Y115.470 E0.2014
G1 X168.232 Y115.273 E0.2283
G1 X169.234 Y115.318 E0.2913
G1 X169.472 Y115.470 E0.3091
G1 X170.316 Y115.470 E0.3621
G1 X170.477 Y115.397 E0.3732
G1 X171.148 Y115.470 E0.4156
G1 X171.935 Y115.470 E0.4651
G1 X172.265 Y115.800 E0.4945
G1 X172.684 Y115.628 E0.5230
G1 X173.678 Y115.763 E0.5860
G1 X174.123 Y116.107 E0.6214
G1 X174.213 Y116.325 E0.6362
G1 X174.365 Y116.145 E0.6510
G1 X174.894 Y115.956 E0.6863
G1 X175.881 Y116.134 E0.7494
G1 X176.310 Y116.498 E0.7847
G1 X176.389 Y116.720 E0.7995
G1 X176.549 Y116.547 E0.8143
G1 X177.087 Y116.382 E0.8497
G1 X178.065 Y116.605 E0.9127
G1 X178.477 Y116.987 E0.9481
G1 X178.546 Y117.212 E0.9629
G1 X178.714 Y117.047 E0.9776
G1 X179.259 Y116.905 E1.0130
G1 X180.225 Y117.172 E1.0761
G1 X180.620 Y117.573 E1.1114
G1 X180.679 Y117.801 E1.1262
G1 X180.854 Y117.643 E1.1410
G1 X181.405 Y117.526 E1.1764
G1 X182.358 Y117.836 E1.2394
G1 X182.734 Y118.254 E1.2748
G1 X182.783 Y118.484 E1.2895
G1 X182.965 Y118.335 E1.3043
G1 X183.520 Y118.243 E1.3397
G1 X184.459 Y118.595 E1.4027
G1 X184.816 Y119.030 E1.4381
G1 X184.855 Y119.262 E1.4529
G1 X185.043 Y119.121 E1.4677
G1 X185.602 Y119.054 E1.5030
G1 X186.524 Y119.448 E1.5661
G1 X186.861 Y119.898 E1.6014
G1 X186.889 Y120.131 E1.6162
G1 X187.084 Y119.999 E1.6310
G1 X187.645 Y119.957 E1.6664
G1 X188.548 Y120.392 E1.7294
G1 X188.865 Y120.857 E1.7648
G1 X188.883 Y121.091 E1.7796
G1 X189.083 Y120.968 E1.7944
G1 X189.645 Y120.951 E1.8297
G1 X190.528 Y121.426 E1.8928
G1 X190.824 Y121.905 E1.9281
G1 X190.831 Y122.140 E1.9429
G1 X191.036 Y122.025 E1.9577
G1 X191.599 Y122.034 E1.9931
G1 X192.460 Y122.548 E2.0561
G1 X192.734 Y123.039 E2.0915
G1 X192.730 Y123.275 E2.1063
G1 X192.941 Y123.169 E2.1211
G1 X193.502 Y123.203 E2.1564
G1 X194.339 Y123.755 E2.2194
G1 X194.591 Y124.259 E2.2548
G1 X194.577 Y124.493 E2.2696
G1 X194.792 Y124.398 E2.2844
G1 X195.351 Y124.457 E2.3198
G1 X196.162 Y125.046 E2.3828
G1 X196.391 Y125.560 E2.4182
G1 X196.367 Y125.794 E2.4329
G1 X196.585 Y125.708 E2.4477
G1 X197.142 Y125.792 E2.4831
G1 X197.926 Y126.417 E2.5461
G1 X198.131 Y126.941 E2.5815
G1 X198.096 Y127.173 E2.5963
G1 X198.319 Y127.097 E2.6111
G1 X198.871 Y127.206 E2.6464
G1 X199.626 Y127.866 E2.7095
G1 X199.808 Y128.398 E2.7448
G1 X199.763 Y128.629 E2.7596
G1 X199.988 Y128.563 E2.7744
G1 X200.535 Y128.696 E2.8098
G1 X201.260 Y129.389 E2.8728
G1 X201.417 Y129.929 E2.9082
G1 X201.362 Y130.158 E2.9230
G1 X201.590 Y130.102 E2.9377
G1 X202.130 Y130.260 E2.9731
G1 X202.823 Y130.985 E3.0362
G1 X202.957 Y131.531 E3.0715
G1 X202.891 Y131.757 E3.0863
G1 X203.121 Y131.712 E3.1011
G1 X203.654 Y131.894 E3.1365
G1 X204.314 Y132.649 E3.1995
G1 X204.422 Y133.201 E3.2349
G1 X204.346 Y133.423 E3.2496
