; G-Code generated by Simplify3D(R) Version 4.1.2
; May 2, 2020 at 2:41:19 PM
; Settings Summary
;   processName,Process1
;   applyToModels,MirrorShaft
;   profileName,Default (modified)
;   profileVersion,2019-05-20 06:10:20
;   baseProfile,TRONXY X5S
;   printMaterial,ABS
;   printQuality,Medium
;   printExtruders,
;   extruderName,Primary Extruder
;   extruderToolheadNumber,0
;   extruderDiameter,0.4
;   extruderAutoWidth,0
;   extruderWidth,0.4
;   extrusionMultiplier,1.05
;   extruderUseRetract,1
;   extruderRetractionDistance,5
;   extruderExtraRestartDistance,-0.1
;   extruderRetractionZLift,0
;   extruderRetractionSpeed,4800
;   extruderUseCoasting,0
;   extruderCoastingDistance,0.2
;   extruderUseWipe,0
;   extruderWipeDistance,5
;   primaryExtruder,0
;   layerHeight,0.2
;   topSolidLayers,3
;   bottomSolidLayers,3
;   perimeterOutlines,5
;   printPerimetersInsideOut,0
;   startPointOption,2
;   startPointOriginX,0
;   startPointOriginY,0
;   sequentialIslands,0
;   spiralVaseMode,0
;   firstLayerHeightPercentage,120
;   firstLayerWidthPercentage,150
;   firstLayerUnderspeed,0.5
;   useRaft,0
;   raftExtruder,0
;   raftTopLayers,3
;   raftBaseLayers,2
;   raftOffset,0
;   raftSeparationDistance,0
;   raftTopInfill,100
;   aboveRaftSpeedMultiplier,0.3
;   useSkirt,1
;   skirtExtruder,0
;   skirtLayers,1
;   skirtOutlines,3
;   skirtOffset,0.15
;   usePrimePillar,0
;   primePillarExtruder,999
;   primePillarWidth,12
;   primePillarLocation,7
;   primePillarSpeedMultiplier,1
;   useOozeShield,0
;   oozeShieldExtruder,999
;   oozeShieldOffset,2
;   oozeShieldOutlines,1
;   oozeShieldSidewallShape,1
;   oozeShieldSidewallAngle,30
;   oozeShieldSpeedMultiplier,1
;   infillExtruder,0
;   internalInfillPattern,Rectilinear
;   externalInfillPattern,Rectilinear
;   infillPercentage,20
;   outlineOverlapPercentage,15
;   infillExtrusionWidthPercentage,100
;   minInfillLength,5
;   infillLayerInterval,1
;   internalInfillAngles,45,-45
;   overlapInternalInfillAngles,0
;   externalInfillAngles,45,-45
;   generateSupport,0
;   supportExtruder,0
;   supportInfillPercentage,30
;   supportExtraInflation,0
;   supportBaseLayers,0
;   denseSupportExtruder,0
;   denseSupportLayers,0
;   denseSupportInfillPercentage,70
;   supportLayerInterval,1
;   supportHorizontalPartOffset,0.3
;   supportUpperSeparationLayers,1
;   supportLowerSeparationLayers,1
;   supportType,0
;   supportGridSpacing,3
;   maxOverhangAngle,70
;   supportAngles,0
;   temperatureName,Primary Extruder,Heated Bed
;   temperatureNumber,0,0
;   temperatureSetpointCount,1,1
;   temperatureSetpointLayers,1,1
;   temperatureSetpointTemperatures,240,90
;   temperatureStabilizeAtStartup,1,1
;   temperatureHeatedBed,0,1
;   fanLayers,1
;   fanSpeeds,0
;   blipFanToFullPower,0
;   adjustSpeedForCooling,1
;   minSpeedLayerTime,15
;   minCoolingSpeedSlowdown,20
;   increaseFanForCooling,0
;   minFanLayerTime,45
;   maxCoolingFanSpeed,100
;   increaseFanForBridging,0
;   bridgingFanSpeed,100
;   use5D,1
;   relativeEdistances,0
;   allowEaxisZeroing,1
;   independentExtruderAxes,0
;   includeM10123,0
;   stickySupport,1
;   applyToolheadOffsets,0
;   gcodeXoffset,0
;   gcodeYoffset,0
;   gcodeZoffset,0
;   overrideMachineDefinition,1
;   machineTypeOverride,0
;   strokeXoverride,330
;   strokeYoverride,330
;   strokeZoverride,400
;   originOffsetXoverride,0
;   originOffsetYoverride,0
;   originOffsetZoverride,0
;   homeXdirOverride,-1
;   homeYdirOverride,-1
;   homeZdirOverride,-1
;   flipXoverride,1
;   flipYoverride,-1
;   flipZoverride,1
;   toolheadOffsets,0,0|0,0|0,0|0,0|0,0|0,0
;   overrideFirmwareConfiguration,1
;   firmwareTypeOverride,RepRap (Marlin/Repetier/Sprinter)
;   GPXconfigOverride,r2
;   baudRateOverride,250000
;   overridePrinterModels,1
;   printerModelsOverride
;   startingGcode,G28 ; home all axes,G1 Z0.2 F3000 ; get ready to prime,G92 E0 ; reset extrusion distance,G1 X100 E10 F600 ; prime nozzle
;   layerChangeGcode,
;   retractionGcode,
;   toolChangeGcode,
;   endingGcode,G28 X0 ; home x axis,M106 S0 ; turn off cooling fan,M104 S0 ; turn off extruder,M140 S0 ; turn off bed,M84 ; disable motors
;   exportFileFormat,gcode
;   celebration,0
;   celebrationSong,Funky Town
;   postProcessing,
;   defaultSpeed,3000
;   outlineUnderspeed,0.5
;   solidInfillUnderspeed,0.8
;   supportUnderspeed,0.8
;   rapidXYspeed,4800
;   rapidZspeed,1002
;   minBridgingArea,5
;   bridgingExtraInflation,2
;   bridgingExtrusionMultiplier,1
;   bridgingSpeedMultiplier,1
;   useFixedBridgingAngle,1
;   fixedBridgingAngle,0
;   applyBridgingToPerimeters,0
;   filamentDiameters,1.75|1.75|1.75|1.75|1.75|1.75
;   filamentPricesPerKg,46|46|46|46|46|46
;   filamentDensities,1.25|1.25|1.25|1.25|1.25|1.25
;   useMinPrintHeight,0
;   minPrintHeight,0
;   useMaxPrintHeight,0
;   maxPrintHeight,40
;   useDiaphragm,0
;   diaphragmLayerInterval,20
;   robustSlicing,1
;   mergeAllIntoSolid,0
;   onlyRetractWhenCrossingOutline,1
;   retractBetweenLayers,1
;   useRetractionMinTravel,0
;   retractionMinTravel,3
;   retractWhileWiping,0
;   onlyWipeOutlines,1
;   avoidCrossingOutline,0
;   maxMovementDetourFactor,3
;   toolChangeRetractionDistance,12
;   toolChangeExtraRestartDistance,-0.5
;   toolChangeRetractionSpeed,600
;   externalThinWallType,0
;   internalThinWallType,2
;   thinWallAllowedOverlapPercentage,10
;   singleExtrusionMinLength,1
;   singleExtrusionMinPrintingWidthPercentage,50
;   singleExtrusionMaxPrintingWidthPercentage,200
;   singleExtrusionEndpointExtension,0.2
;   horizontalSizeCompensation,0
G90
M82
M106 S0
M140 S90
M190 S90
M104 S240 T0
M109 S240 T0
G28 ; home all axes
G1 Z0.2 F3000 ; get ready to prime
G92 E0 ; reset extrusion distance
G1 X100 E10 F600 ; prime nozzle
; process Process1
; layer 1, Z = 0.240
T0
G92 E0.0000
G1 E-5.0000 F4800
; feature skirt
; tool H0.240 W0.600
G1 Z0.240 F1002
G1 X155.250 Y93.169 F4800
G1 E-0.1000 F4800
G92 E0.0000
G1 X155.278 Y93.125 E0.0033 F1500
G1 X155.597 Y92.656 E0.0389
G1 X155.644 Y92.594 E0.0438
G1 X156.342 Y91.750 E0.1127
G1 X156.413 Y91.674 E0.1192
G1 X157.221 Y90.915 E0.1889
G1 X157.301 Y90.849 E0.1954
G1 X158.187 Y90.205 E0.2642
G1 X158.252 Y90.163 E0.2691
G1 X158.751 Y89.867 E0.3056
G1 X158.820 Y89.831 E0.3105
G1 X159.800 Y89.370 E0.3785
G1 X159.872 Y89.340 E0.3834
G1 X160.418 Y89.144 E0.4199
G1 X160.492 Y89.121 E0.4248
G1 X161.540 Y88.852 E0.4928
G1 X161.616 Y88.836 E0.4977
G1 X162.190 Y88.745 E0.5342
G1 X162.267 Y88.736 E0.5391
G1 X163.347 Y88.668 E0.6071
G1 X163.425 Y88.667 E0.6120
G1 X164.005 Y88.685 E0.6485
G1 X164.082 Y88.692 E0.6534
G1 X165.156 Y88.827 E0.7214
G1 X165.233 Y88.841 E0.7263
G1 X165.800 Y88.967 E0.7628
G1 X165.875 Y88.988 E0.7677
G1 X166.904 Y89.322 E0.8357
G1 X166.976 Y89.350 E0.8406
G1 X167.497 Y89.575 E0.8763
G1 X167.544 Y89.597 E0.8795
G1 X168.050 Y89.855 E0.9152
G1 X168.117 Y89.893 E0.9201
G1 X169.031 Y90.473 E0.9881
G1 X169.095 Y90.518 E0.9930
G1 X169.553 Y90.874 E1.0295
G1 X169.613 Y90.924 E1.0344
G1 X170.411 Y91.674 E1.1033
G1 X170.482 Y91.749 E1.1098
G1 X171.180 Y92.593 E1.1786
G1 X171.227 Y92.656 E1.1835
G1 X171.553 Y93.136 E1.2200
G1 X171.594 Y93.202 E1.2249
G1 X172.115 Y94.151 E1.2929
G1 X172.149 Y94.220 E1.2978
G1 X172.375 Y94.741 E1.3335
G1 X172.394 Y94.790 E1.3368
G1 X172.586 Y95.323 E1.3724
G1 X172.609 Y95.398 E1.3773
G1 X172.881 Y96.458 E1.4462
G1 X172.901 Y96.560 E1.4527
G1 X173.040 Y97.660 E1.5224
G1 X173.046 Y97.763 E1.5289
G1 X173.046 Y98.872 E1.5986
G1 X173.040 Y98.975 E1.6051
G1 X172.902 Y100.062 E1.6739
G1 X172.889 Y100.139 E1.6788
G1 X172.762 Y100.705 E1.7153
G1 X172.742 Y100.780 E1.7202
G1 X172.407 Y101.809 E1.7882
G1 X172.380 Y101.882 E1.7931
G1 X172.149 Y102.415 E1.8296
G1 X172.115 Y102.485 E1.8345
G1 X171.594 Y103.433 E1.9025
G1 X171.553 Y103.500 E1.9074
G1 X171.227 Y103.980 E1.9439
G1 X171.180 Y104.042 E1.9488
G1 X170.490 Y104.876 E2.0168
G1 X170.438 Y104.933 E2.0217
G1 X170.037 Y105.335 E2.0574
G1 X169.999 Y105.370 E2.0607
G1 X169.573 Y105.745 E2.0963
G1 X169.513 Y105.794 E2.1012
G1 X168.637 Y106.430 E2.1692
G1 X168.572 Y106.473 E2.1741
G1 X168.073 Y106.768 E2.2106
G1 X168.004 Y106.804 E2.2155
G1 X167.024 Y107.265 E2.2835
G1 X166.952 Y107.295 E2.2884
G1 X166.406 Y107.492 E2.3249
G1 X166.332 Y107.515 E2.3298
G1 X165.271 Y107.787 E2.3987
G1 X165.169 Y107.806 E2.4052
G1 X164.070 Y107.945 E2.4748
G1 X163.966 Y107.952 E2.4814
G1 X162.858 Y107.952 E2.5510
G1 X162.754 Y107.945 E2.5576
G1 X161.668 Y107.808 E2.6264
G1 X161.591 Y107.795 E2.6313
G1 X161.024 Y107.668 E2.6678
G1 X160.949 Y107.647 E2.6727
G1 X159.920 Y107.313 E2.7407
G1 X159.847 Y107.286 E2.7456
G1 X159.315 Y107.055 E2.7821
G1 X159.245 Y107.021 E2.7870
G1 X158.296 Y106.499 E2.8550
G1 X158.230 Y106.459 E2.8599
G1 X157.750 Y106.133 E2.8964
G1 X157.688 Y106.086 E2.9013
G1 X156.854 Y105.396 E2.9693
G1 X156.796 Y105.344 E2.9742
G1 X156.386 Y104.933 E3.0107
G1 X156.334 Y104.876 E3.0156
G1 X155.644 Y104.042 E3.0836
G1 X155.597 Y103.979 E3.0885
G1 X155.278 Y103.510 E3.1242
G1 X155.250 Y103.467 E3.1274
G1 X154.962 Y102.978 E3.1631
G1 X154.925 Y102.910 E3.1680
G1 X154.464 Y101.930 E3.2360
G1 X154.434 Y101.858 E3.2409
G1 X154.238 Y101.312 E3.2774
G1 X154.215 Y101.238 E3.2823
G1 X153.946 Y100.189 E3.3503
G1 X153.930 Y100.113 E3.3552
G1 X153.839 Y99.540 E3.3917
G1 X153.831 Y99.463 E3.3966
G1 X153.762 Y98.370 E3.4655
G1 X153.762 Y98.266 E3.4720
G1 X153.831 Y97.172 E3.5408
G1 X153.839 Y97.095 E3.5457
G1 X153.930 Y96.522 E3.5822
G1 X153.946 Y96.446 E3.5871
G1 X154.215 Y95.397 E3.6551
G1 X154.238 Y95.323 E3.6600
G1 X154.434 Y94.777 E3.6965
G1 X154.464 Y94.705 E3.7014
G1 X154.925 Y93.726 E3.7694
G1 X154.962 Y93.657 E3.7743
G1 X155.250 Y93.169 E3.8100
G92 E0.0000
G1 E-5.0000 F4800
G1 X155.762 Y93.482 F4800
G1 E-0.1000 F4800
G92 E0.0000
G1 X155.780 Y93.454 E0.0021 F1500
G1 X156.085 Y93.005 E0.0362
G1 X156.115 Y92.965 E0.0394
G1 X156.792 Y92.147 E0.1062
G1 X156.837 Y92.098 E0.1103
G1 X157.618 Y91.366 E0.1776
G1 X157.669 Y91.323 E0.1818
G1 X158.528 Y90.699 E0.2485
G1 X158.569 Y90.672 E0.2516
G1 X159.045 Y90.391 E0.2863
G1 X159.088 Y90.368 E0.2894
G1 X160.042 Y89.919 E0.3557
G1 X160.088 Y89.900 E0.3588
G1 X160.607 Y89.713 E0.3935
G1 X160.655 Y89.698 E0.3966
G1 X161.676 Y89.436 E0.4629
G1 X161.724 Y89.426 E0.4660
G1 X162.269 Y89.340 E0.5007
G1 X162.319 Y89.334 E0.5038
G1 X163.371 Y89.268 E0.5701
G1 X163.420 Y89.267 E0.5732
G1 X163.972 Y89.285 E0.6079
G1 X164.021 Y89.289 E0.6110
G1 X165.067 Y89.421 E0.6773
G1 X165.116 Y89.429 E0.6804
G1 X165.655 Y89.550 E0.7151
G1 X165.702 Y89.563 E0.7182
G1 X166.705 Y89.888 E0.7845
G1 X166.751 Y89.906 E0.7876
G1 X167.250 Y90.122 E0.8218
G1 X167.280 Y90.136 E0.8238
G1 X167.765 Y90.383 E0.8580
G1 X167.808 Y90.407 E0.8611
G1 X168.698 Y90.972 E0.9274
G1 X168.738 Y91.001 E0.9305
G1 X169.174 Y91.339 E0.9652
G1 X169.212 Y91.371 E0.9683
G1 X169.987 Y92.098 E1.0351
G1 X170.032 Y92.147 E1.0393
G1 X170.709 Y92.965 E1.1060
G1 X170.739 Y93.005 E1.1092
G1 X171.049 Y93.461 E1.1439
G1 X171.075 Y93.504 E1.1470
G1 X171.583 Y94.427 E1.2132
G1 X171.604 Y94.472 E1.2164
G1 X171.820 Y94.971 E1.2505
G1 X171.833 Y95.002 E1.2526
G1 X172.017 Y95.513 E1.2868
G1 X172.031 Y95.561 E1.2899
G1 X172.296 Y96.589 E1.3567
G1 X172.308 Y96.654 E1.3608
G1 X172.442 Y97.716 E1.4281
G1 X172.446 Y97.782 E1.4323
G1 X172.446 Y98.853 E1.4996
G1 X172.442 Y98.919 E1.5037
G1 X172.309 Y99.973 E1.5705
G1 X172.300 Y100.022 E1.5736
G1 X172.180 Y100.560 E1.6083
G1 X172.167 Y100.608 E1.6115
G1 X171.841 Y101.611 E1.6777
G1 X171.824 Y101.657 E1.6808
G1 X171.604 Y102.164 E1.7155
G1 X171.583 Y102.208 E1.7186
G1 X171.075 Y103.132 E1.7849
G1 X171.049 Y103.174 E1.7880
G1 X170.739 Y103.631 E1.8227
G1 X170.709 Y103.670 E1.8258
G1 X170.037 Y104.482 E1.8921
G1 X170.004 Y104.519 E1.8952
G1 X169.619 Y104.904 E1.9294
G1 X169.595 Y104.926 E1.9315
G1 X169.187 Y105.286 E1.9657
G1 X169.149 Y105.317 E1.9688
G1 X168.296 Y105.936 E2.0350
G1 X168.254 Y105.963 E2.0381
G1 X167.779 Y106.244 E2.0728
G1 X167.736 Y106.268 E2.0759
G1 X166.782 Y106.716 E2.1422
G1 X166.736 Y106.735 E2.1453
G1 X166.216 Y106.922 E2.1800
G1 X166.169 Y106.937 E2.1831
G1 X165.140 Y107.201 E2.2499
G1 X165.075 Y107.214 E2.2541
G1 X164.013 Y107.348 E2.3214
G1 X163.947 Y107.352 E2.3255
G1 X162.877 Y107.352 E2.3928
G1 X162.811 Y107.348 E2.3970
G1 X161.757 Y107.215 E2.4638
G1 X161.708 Y107.206 E2.4669
G1 X161.169 Y107.086 E2.5016
G1 X161.121 Y107.073 E2.5047
G1 X160.119 Y106.747 E2.5710
G1 X160.073 Y106.729 E2.5741
G1 X159.566 Y106.510 E2.6088
G1 X159.522 Y106.488 E2.6119
G1 X158.598 Y105.980 E2.6781
G1 X158.556 Y105.955 E2.6813
G1 X158.099 Y105.644 E2.7160
G1 X158.060 Y105.615 E2.7191
G1 X157.247 Y104.943 E2.7853
G1 X157.211 Y104.909 E2.7884
G1 X156.820 Y104.519 E2.8232
G1 X156.787 Y104.482 E2.8263
G1 X156.115 Y103.670 E2.8925
G1 X156.085 Y103.631 E2.8956
G1 X155.780 Y103.181 E2.9298
G1 X155.762 Y103.153 E2.9319
G1 X155.485 Y102.685 E2.9661
G1 X155.462 Y102.641 E2.9692
G1 X155.013 Y101.687 E3.0355
G1 X154.994 Y101.642 E3.0386
G1 X154.807 Y101.122 E3.0733
G1 X154.793 Y101.075 E3.0764
G1 X154.531 Y100.054 E3.1426
G1 X154.520 Y100.005 E3.1458
G1 X154.434 Y99.460 E3.1805
G1 X154.429 Y99.411 E3.1836
G1 X154.362 Y98.351 E3.2504
G1 X154.362 Y98.285 E3.2545
G1 X154.429 Y97.224 E3.3213
G1 X154.434 Y97.175 E3.3244
G1 X154.520 Y96.630 E3.3591
G1 X154.531 Y96.581 E3.3622
G1 X154.793 Y95.560 E3.4285
G1 X154.807 Y95.513 E3.4316
G1 X154.994 Y94.994 E3.4663
G1 X155.013 Y94.948 E3.4694
G1 X155.462 Y93.994 E3.5357
G1 X155.485 Y93.950 E3.5388
G1 X155.762 Y93.482 E3.5730
G92 E0.0000
G1 E-5.0000 F4800
G1 X156.274 Y93.796 F4800
G1 E-0.1000 F4800
G92 E0.0000
G1 X156.281 Y93.784 E0.0009 F1500
G1 X156.574 Y93.354 E0.0336
G1 X156.586 Y93.337 E0.0349
G1 X157.243 Y92.544 E0.0996
G1 X157.262 Y92.523 E0.1014
G1 X158.015 Y91.816 E0.1663
G1 X158.037 Y91.798 E0.1681
G1 X158.869 Y91.193 E0.2328
G1 X158.887 Y91.181 E0.2342
G1 X159.338 Y90.914 E0.2671
G1 X159.357 Y90.905 E0.2684
G1 X160.285 Y90.468 E0.3329
G1 X160.305 Y90.460 E0.3342
G1 X160.797 Y90.282 E0.3672
G1 X160.818 Y90.276 E0.3685
G1 X161.811 Y90.021 E0.4330
G1 X161.832 Y90.017 E0.4343
G1 X162.349 Y89.935 E0.4673
G1 X162.370 Y89.932 E0.4686
G1 X163.394 Y89.868 E0.5331
G1 X163.416 Y89.868 E0.5344
G1 X163.939 Y89.884 E0.5673
G1 X163.960 Y89.886 E0.5687
G1 X164.978 Y90.014 E0.6332
G1 X164.999 Y90.018 E0.6345
G1 X165.510 Y90.132 E0.6674
G1 X165.530 Y90.138 E0.6687
G1 X166.506 Y90.455 E0.7332
G1 X166.526 Y90.462 E0.7346
G1 X167.003 Y90.669 E0.7673
G1 X167.016 Y90.675 E0.7682
G1 X167.480 Y90.911 E0.8009
G1 X167.498 Y90.922 E0.8022
G1 X168.364 Y91.471 E0.8667
G1 X168.382 Y91.483 E0.8680
G1 X168.796 Y91.804 E0.9009
G1 X168.812 Y91.818 E0.9023
G1 X169.562 Y92.523 E0.9670
G1 X169.581 Y92.544 E0.9688
G1 X170.238 Y93.337 E1.0335
G1 X170.250 Y93.354 E1.0348
G1 X170.545 Y93.787 E1.0677
G1 X170.556 Y93.805 E1.0691
G1 X171.050 Y94.704 E1.1335
G1 X171.059 Y94.723 E1.1349
G1 X171.266 Y95.200 E1.1676
G1 X171.271 Y95.214 E1.1685
G1 X171.447 Y95.703 E1.2012
G1 X171.454 Y95.723 E1.2025
G1 X171.710 Y96.720 E1.2672
G1 X171.715 Y96.748 E1.2690
G1 X171.844 Y97.773 E1.3339
G1 X171.846 Y97.801 E1.3357
G1 X171.846 Y98.834 E1.4006
G1 X171.844 Y98.862 E1.4024
G1 X171.715 Y99.884 E1.4671
G1 X171.712 Y99.905 E1.4685
G1 X171.597 Y100.416 E1.5014
G1 X171.592 Y100.436 E1.5027
G1 X171.275 Y101.412 E1.5672
G1 X171.267 Y101.432 E1.5685
G1 X171.059 Y101.912 E1.6015
G1 X171.050 Y101.931 E1.6028
G1 X170.556 Y102.830 E1.6673
G1 X170.545 Y102.848 E1.6686
G1 X170.250 Y103.282 E1.7015
G1 X170.238 Y103.299 E1.7029
G1 X169.584 Y104.089 E1.7674
G1 X169.569 Y104.105 E1.7687
G1 X169.202 Y104.473 E1.8014
G1 X169.191 Y104.482 E1.8023
G1 X168.801 Y104.826 E1.8350
G1 X168.784 Y104.840 E1.8363
G1 X167.955 Y105.443 E1.9008
G1 X167.937 Y105.454 E1.9021
G1 X167.486 Y105.721 E1.9351
G1 X167.467 Y105.731 E1.9364
G1 X166.539 Y106.168 E2.0009
G1 X166.519 Y106.176 E2.0022
G1 X166.027 Y106.353 E2.0352
G1 X166.006 Y106.359 E2.0365
G1 X165.009 Y106.615 E2.1012
G1 X164.981 Y106.621 E2.1030
G1 X163.957 Y106.750 E2.1679
G1 X163.928 Y106.752 E2.1697
G1 X162.896 Y106.752 E2.2346
G1 X162.867 Y106.750 E2.2364
G1 X161.846 Y106.621 E2.3011
