; G-Code generated by Simplify3D(R) Version 4.1.2
; May 4, 2020 at 4:41:48 PM
; Settings Summary
;   processName,Process1
;   applyToModels,MirrorGear
;   profileName,X5X-ABSpro (modified)
;   profileVersion,2020-04-22 09:40:43
;   baseProfile,TRONXY X5S
;   printMaterial,PLA
;   printQuality,Medium
;   printExtruders,
;   extruderName,Primary Extruder
;   extruderToolheadNumber,0
;   extruderDiameter,0.4
;   extruderAutoWidth,0
;   extruderWidth,0.4
;   extrusionMultiplier,1.05
;   extruderUseRetract,1
;   extruderRetractionDistance,5
;   extruderExtraRestartDistance,-0.1
;   extruderRetractionZLift,0
;   extruderRetractionSpeed,4800
;   extruderUseCoasting,0
;   extruderCoastingDistance,0.2
;   extruderUseWipe,0
;   extruderWipeDistance,5
;   primaryExtruder,0
;   layerHeight,0.2
;   topSolidLayers,3
;   bottomSolidLayers,3
;   perimeterOutlines,5
;   printPerimetersInsideOut,0
;   startPointOption,2
;   startPointOriginX,0
;   startPointOriginY,0
;   sequentialIslands,0
;   spiralVaseMode,0
;   firstLayerHeightPercentage,120
;   firstLayerWidthPercentage,150
;   firstLayerUnderspeed,0.5
;   useRaft,0
;   raftExtruder,0
;   raftTopLayers,3
;   raftBaseLayers,2
;   raftOffset,0
;   raftSeparationDistance,0
;   raftTopInfill,100
;   aboveRaftSpeedMultiplier,0.3
;   useSkirt,1
;   skirtExtruder,0
;   skirtLayers,1
;   skirtOutlines,5
;   skirtOffset,0.15
;   usePrimePillar,0
;   primePillarExtruder,999
;   primePillarWidth,12
;   primePillarLocation,7
;   primePillarSpeedMultiplier,1
;   useOozeShield,0
;   oozeShieldExtruder,999
;   oozeShieldOffset,2
;   oozeShieldOutlines,1
;   oozeShieldSidewallShape,1
;   oozeShieldSidewallAngle,30
;   oozeShieldSpeedMultiplier,1
;   infillExtruder,0
;   internalInfillPattern,Rectilinear
;   externalInfillPattern,Rectilinear
;   infillPercentage,20
;   outlineOverlapPercentage,15
;   infillExtrusionWidthPercentage,100
;   minInfillLength,5
;   infillLayerInterval,1
;   internalInfillAngles,45,-45
;   overlapInternalInfillAngles,0
;   externalInfillAngles,45,-45
;   generateSupport,0
;   supportExtruder,0
;   supportInfillPercentage,30
;   supportExtraInflation,0
;   supportBaseLayers,0
;   denseSupportExtruder,0
;   denseSupportLayers,0
;   denseSupportInfillPercentage,70
;   supportLayerInterval,1
;   supportHorizontalPartOffset,0.3
;   supportUpperSeparationLayers,1
;   supportLowerSeparationLayers,1
;   supportType,0
;   supportGridSpacing,3
;   maxOverhangAngle,70
;   supportAngles,0
;   temperatureName,Primary Extruder,Heated Bed
;   temperatureNumber,0,0
;   temperatureSetpointCount,1,1
;   temperatureSetpointLayers,1,1
;   temperatureSetpointTemperatures,240,90
;   temperatureStabilizeAtStartup,1,1
;   temperatureHeatedBed,0,1
;   fanLayers,1
;   fanSpeeds,0
;   blipFanToFullPower,0
;   adjustSpeedForCooling,1
;   minSpeedLayerTime,15
;   minCoolingSpeedSlowdown,20
;   increaseFanForCooling,0
;   minFanLayerTime,45
;   maxCoolingFanSpeed,100
;   increaseFanForBridging,0
;   bridgingFanSpeed,100
;   use5D,1
;   relativeEdistances,0
;   allowEaxisZeroing,1
;   independentExtruderAxes,0
;   includeM10123,0
;   stickySupport,1
;   applyToolheadOffsets,0
;   gcodeXoffset,0
;   gcodeYoffset,0
;   gcodeZoffset,0
;   overrideMachineDefinition,1
;   machineTypeOverride,0
;   strokeXoverride,330
;   strokeYoverride,330
;   strokeZoverride,400
;   originOffsetXoverride,0
;   originOffsetYoverride,0
;   originOffsetZoverride,0
;   homeXdirOverride,-1
;   homeYdirOverride,-1
;   homeZdirOverride,-1
;   flipXoverride,1
;   flipYoverride,-1
;   flipZoverride,1
;   toolheadOffsets,0,0|0,0|0,0|0,0|0,0|0,0
;   overrideFirmwareConfiguration,1
;   firmwareTypeOverride,RepRap (Marlin/Repetier/Sprinter)
;   GPXconfigOverride,r2
;   baudRateOverride,250000
;   overridePrinterModels,1
;   printerModelsOverride
;   startingGcode,G28 ; home all axes,G1 Z0.2 F3000 ; get ready to prime,G92 E0 ; reset extrusion distance,G1 X100 E10 F600 ; prime nozzle
;   layerChangeGcode,
;   retractionGcode,
;   toolChangeGcode,
;   endingGcode,G28 X0 ; home x axis,M106 S0 ; turn off cooling fan,M104 S0 ; turn off extruder,M140 S0 ; turn off bed,M84 ; disable motors
;   exportFileFormat,gcode
;   celebration,0
;   celebrationSong,Funky Town
;   postProcessing,
;   defaultSpeed,3000
;   outlineUnderspeed,0.5
;   solidInfillUnderspeed,0.8
;   supportUnderspeed,0.8
;   rapidXYspeed,4800
;   rapidZspeed,1002
;   minBridgingArea,5
;   bridgingExtraInflation,2
;   bridgingExtrusionMultiplier,1
;   bridgingSpeedMultiplier,1
;   useFixedBridgingAngle,1
;   fixedBridgingAngle,0
;   applyBridgingToPerimeters,0
;   filamentDiameters,1.75|1.75|1.75|1.75|1.75|1.75
;   filamentPricesPerKg,46|46|46|46|46|46
;   filamentDensities,1.25|1.25|1.25|1.25|1.25|1.25
;   useMinPrintHeight,0
;   minPrintHeight,0
;   useMaxPrintHeight,0
;   maxPrintHeight,40
;   useDiaphragm,0
;   diaphragmLayerInterval,20
;   robustSlicing,1
;   mergeAllIntoSolid,0
;   onlyRetractWhenCrossingOutline,1
;   retractBetweenLayers,1
;   useRetractionMinTravel,0
;   retractionMinTravel,3
;   retractWhileWiping,0
;   onlyWipeOutlines,1
;   avoidCrossingOutline,0
;   maxMovementDetourFactor,3
;   toolChangeRetractionDistance,12
;   toolChangeExtraRestartDistance,-0.5
;   toolChangeRetractionSpeed,600
;   externalThinWallType,0
;   internalThinWallType,2
;   thinWallAllowedOverlapPercentage,10
;   singleExtrusionMinLength,1
;   singleExtrusionMinPrintingWidthPercentage,50
;   singleExtrusionMaxPrintingWidthPercentage,200
;   singleExtrusionEndpointExtension,0.2
;   horizontalSizeCompensation,0
G90
M82
M106 S0
M140 S90
M190 S90
M104 S240 T0
M109 S240 T0
G28 ; home all axes
G1 Z0.2 F3000 ; get ready to prime
G92 E0 ; reset extrusion distance
G1 X100 E10 F600 ; prime nozzle
; process Process1
; layer 1, Z = 0.240
T0
G92 E0.0000
G1 E-5.0000 F4800
; feature skirt
; tool H0.240 W0.600
G1 Z0.240 F1002
G1 X129.241 Y129.137 F4800
G1 E-0.1000 F4800
G92 E0.0000
G1 X129.278 Y129.135 E0.0024 F1500
G1 X129.894 Y128.533 E0.0565
G1 X129.896 Y128.495 E0.0589
G1 X130.341 Y128.095 E0.0965
G1 X130.773 Y127.672 E0.1345
G1 X130.811 Y127.672 E0.1369
G1 X131.450 Y127.096 E0.1910
G1 X131.454 Y127.059 E0.1933
G1 X131.918 Y126.674 E0.2312
G1 X132.364 Y126.273 E0.2689
G1 X132.401 Y126.275 E0.2712
G1 X133.068 Y125.723 E0.3256
G1 X133.073 Y125.686 E0.3280
G1 X133.552 Y125.323 E0.3658
G1 X134.017 Y124.938 E0.4037
G1 X134.055 Y124.941 E0.4061
G1 X134.740 Y124.421 E0.4602
G1 X134.747 Y124.384 E0.4625
G1 X135.240 Y124.041 E0.5003
G1 X135.723 Y123.675 E0.5384
G1 X135.761 Y123.679 E0.5408
G1 X136.466 Y123.189 E0.5948
G1 X136.475 Y123.153 E0.5972
G1 X136.981 Y122.831 E0.6349
G1 X137.476 Y122.487 E0.6728
G1 X137.514 Y122.493 E0.6751
G1 X138.242 Y122.031 E0.7294
G1 X138.252 Y121.995 E0.7317
G1 X138.774 Y121.694 E0.7696
G1 X139.282 Y121.371 E0.8075
G1 X139.319 Y121.379 E0.8098
G1 X140.064 Y120.949 E0.8639
G1 X140.076 Y120.913 E0.8663
G1 X140.611 Y120.633 E0.9043
G1 X141.132 Y120.332 E0.9421
G1 X141.169 Y120.341 E0.9445
G1 X141.928 Y119.945 E0.9983
G1 X141.941 Y119.909 E1.0007
G1 X142.489 Y119.651 E1.0387
G1 X143.023 Y119.372 E1.0766
G1 X143.059 Y119.383 E1.0790
G1 X143.839 Y119.016 E1.1331
G1 X143.853 Y118.981 E1.1355
G1 X144.407 Y118.749 E1.1733
G1 X144.954 Y118.491 E1.2113
G1 X144.990 Y118.504 E1.2136
G1 X145.782 Y118.171 E1.2677
G1 X145.798 Y118.137 E1.2701
G1 X146.364 Y117.926 E1.3080
G1 X146.919 Y117.693 E1.3459
G1 X146.954 Y117.707 E1.3482
G1 X147.761 Y117.406 E1.4024
G1 X147.779 Y117.373 E1.4047
G1 X148.348 Y117.188 E1.4423
G1 X148.915 Y116.977 E1.4804
G1 X148.950 Y116.993 E1.4828
G1 X149.765 Y116.728 E1.5366
G1 X149.784 Y116.695 E1.5390
G1 X150.365 Y116.533 E1.5769
G1 X150.939 Y116.346 E1.6149
G1 X150.973 Y116.363 E1.6173
G1 X151.802 Y116.132 E1.6714
G1 X151.822 Y116.100 E1.6737
G1 X152.410 Y115.962 E1.7117
G1 X152.987 Y115.801 E1.7494
G1 X153.020 Y115.819 E1.7518
G1 X153.860 Y115.622 E1.8060
G1 X153.882 Y115.591 E1.8084
G1 X154.474 Y115.478 E1.8463
G1 X155.061 Y115.340 E1.8842
G1 X155.093 Y115.360 E1.8865
G1 X155.937 Y115.199 E1.9405
G1 X155.960 Y115.169 E1.9429
G1 X156.556 Y115.081 E1.9808
G1 X157.149 Y114.967 E2.0187
G1 X157.181 Y114.988 E2.0211
G1 X158.032 Y114.863 E2.0752
G1 X158.056 Y114.833 E2.0776
G1 X158.658 Y114.770 E2.1156
G1 X158.706 Y114.763 E2.1187
G1 X159.819 Y113.650 E2.2177
G1 X166.181 Y113.650 E2.6175
G1 X167.850 Y115.320 E2.7660
G1 X167.850 Y118.310 E2.9539
G1 X166.181 Y119.979 E3.1023
G1 X166.090 Y119.979 E3.1080
G1 X166.090 Y146.152 E4.7533
G1 X166.590 Y146.652 E4.7977
G1 X166.590 Y150.791 E5.0579
G1 X167.850 Y152.051 E5.1700
G1 X167.850 Y162.681 E5.8381
G1 X166.181 Y164.350 E5.9865
G1 X159.850 Y164.350 E6.3845
G1 X159.850 Y165.650 E6.4662
G1 X166.181 Y165.650 E6.8642
G1 X167.850 Y167.320 E7.0126
G1 X167.850 Y177.949 E7.6807
G1 X166.590 Y179.209 E7.7928
G1 X166.590 Y183.348 E8.0530
G1 X166.090 Y183.848 E8.0974
G1 X166.090 Y210.021 E9.7427
G1 X166.181 Y210.021 E9.7484
G1 X167.850 Y211.690 E9.8968
G1 X167.850 Y214.680 E10.0848
G1 X166.181 Y216.350 E10.2332
G1 X159.819 Y216.350 E10.6330
G1 X158.706 Y215.237 E10.7320
G1 X158.657 Y215.230 E10.7351
G1 X158.056 Y215.167 E10.7731
G1 X158.032 Y215.137 E10.7755
G1 X157.181 Y215.012 E10.8296
G1 X157.149 Y215.033 E10.8320
G1 X156.557 Y214.920 E10.8699
G1 X155.962 Y214.832 E10.9077
G1 X155.939 Y214.802 E10.9100
G1 X155.093 Y214.640 E10.9642
G1 X155.061 Y214.660 E10.9665
G1 X154.473 Y214.522 E11.0045
G1 X153.881 Y214.409 E11.0424
G1 X153.859 Y214.378 E11.0448
G1 X153.020 Y214.181 E11.0990
G1 X152.987 Y214.199 E11.1013
G1 X152.410 Y214.038 E11.1390
G1 X151.821 Y213.900 E11.1770
G1 X151.801 Y213.868 E11.1794
G1 X150.973 Y213.637 E11.2334
G1 X150.939 Y213.654 E11.2358
G1 X150.365 Y213.467 E11.2738
G1 X149.784 Y213.305 E11.3117
G1 X149.765 Y213.272 E11.3141
G1 X148.950 Y213.007 E11.3679
G1 X148.915 Y213.023 E11.3703
G1 X148.348 Y212.812 E11.4084
G1 X147.778 Y212.627 E11.4460
G1 X147.761 Y212.593 E11.4484
G1 X146.954 Y212.293 E11.5025
G1 X146.919 Y212.307 E11.5049
G1 X146.364 Y212.074 E11.5427
G1 X145.797 Y211.863 E11.5807
G1 X145.781 Y211.829 E11.5831
G1 X144.989 Y211.496 E11.6371
G1 X144.954 Y211.509 E11.6395
G1 X144.407 Y211.251 E11.6774
G1 X143.853 Y211.019 E11.7152
G1 X143.839 Y210.984 E11.7176
G1 X143.058 Y210.617 E11.7718
G1 X143.022 Y210.627 E11.7741
G1 X142.489 Y210.349 E11.8120
G1 X141.941 Y210.091 E11.8500
G1 X141.928 Y210.055 E11.8524
G1 X141.169 Y209.659 E11.9062
G1 X141.133 Y209.668 E11.9086
G1 X140.611 Y209.367 E11.9465
G1 X140.077 Y209.088 E11.9844
G1 X140.065 Y209.052 E11.9867
G1 X139.319 Y208.621 E12.0409
G1 X139.282 Y208.629 E12.0432
G1 X138.773 Y208.306 E12.0811
G1 X138.252 Y208.005 E12.1190
G1 X138.241 Y207.968 E12.1214
G1 X137.514 Y207.507 E12.1756
G1 X137.477 Y207.513 E12.1779
G1 X136.982 Y207.169 E12.2158
G1 X136.475 Y206.847 E12.2535
G1 X136.466 Y206.811 E12.2559
G1 X135.761 Y206.321 E12.3099
G1 X135.723 Y206.325 E12.3123
G1 X135.240 Y205.958 E12.3504
G1 X134.747 Y205.616 E12.3882
G1 X134.740 Y205.579 E12.3906
G1 X134.055 Y205.059 E12.4446
G1 X134.017 Y205.062 E12.4470
G1 X133.551 Y204.677 E12.4850
G1 X133.074 Y204.314 E12.5227
G1 X133.068 Y204.277 E12.5250
G1 X132.401 Y203.725 E12.5795
G1 X132.363 Y203.726 E12.5818
G1 X131.918 Y203.325 E12.6195
G1 X131.454 Y202.941 E12.6574
G1 X131.450 Y202.904 E12.6598
G1 X130.811 Y202.328 E12.7138
G1 X130.773 Y202.328 E12.7162
G1 X130.340 Y201.904 E12.7543
G1 X129.896 Y201.505 E12.7918
G1 X129.894 Y201.468 E12.7942
G1 X129.278 Y200.865 E12.8483
G1 X129.241 Y200.863 E12.8507
G1 X128.827 Y200.422 E12.8887
G1 X128.399 Y200.003 E12.9264
G1 X128.398 Y199.966 E12.9287
G1 X127.805 Y199.335 E12.9832
G1 X127.768 Y199.331 E12.9855
G1 X127.377 Y198.878 E13.0232
G1 X126.964 Y198.438 E13.0611
G1 X126.964 Y198.401 E13.0635
G1 X126.402 Y197.749 E13.1175
G1 X126.365 Y197.745 E13.1199
G1 X125.991 Y197.273 E13.1578
G1 X125.596 Y196.815 E13.1958
G1 X125.598 Y196.777 E13.1981
G1 X125.063 Y196.102 E13.2523
G1 X125.026 Y196.095 E13.2547
G1 X124.674 Y195.612 E13.2923
G1 X124.297 Y195.136 E13.3305
G1 X124.301 Y195.098 E13.3329
G1 X123.798 Y194.406 E13.3866
G1 X123.761 Y194.399 E13.3890
G1 X123.425 Y193.893 E13.4271
G1 X123.073 Y193.407 E13.4649
G1 X123.078 Y193.370 E13.4672
G1 X122.603 Y192.655 E13.5212
G1 X122.566 Y192.645 E13.5236
G1 X122.253 Y192.129 E13.5616
G1 X121.920 Y191.627 E13.5994
G1 X121.927 Y191.590 E13.6018
G1 X121.480 Y190.853 E13.6560
G1 X121.444 Y190.842 E13.6583
G1 X121.155 Y190.315 E13.6961
G1 X120.843 Y189.801 E13.7339
G1 X120.852 Y189.764 E13.7363
G1 X120.436 Y189.007 E13.7906
G1 X120.400 Y188.995 E13.7930
G1 X120.133 Y188.456 E13.8308
G1 X119.843 Y187.929 E13.8685
G1 X119.853 Y187.893 E13.8709
G1 X119.470 Y187.120 E13.9251
G1 X119.435 Y187.107 E13.9275
G1 X119.190 Y186.557 E13.9653
G1 X118.922 Y186.016 E14.0033
G1 X118.933 Y185.980 E14.0056
G1 X118.584 Y185.195 E14.0597
G1 X118.549 Y185.179 E14.0621
G1 X118.327 Y184.619 E14.1000
G1 X118.082 Y184.069 E14.1378
G1 X118.095 Y184.033 E14.1402
G1 X117.779 Y183.234 E14.1942
G1 X117.745 Y183.218 E14.1966
G1 X117.546 Y182.647 E14.2346
G1 X117.325 Y182.087 E14.2725
G1 X117.339 Y182.052 E14.2748
G1 X117.056 Y181.239 E14.3290
G1 X117.023 Y181.220 E14.3313
G1 X116.849 Y180.645 E14.3692
G1 X116.651 Y180.077 E14.4070
G1 X116.667 Y180.043 E14.4093
G1 X116.419 Y179.218 E14.4634
G1 X116.386 Y179.199 E14.4658
G1 X116.236 Y178.615 E14.5037
G1 X116.062 Y178.039 E14.5416
G1 X116.080 Y178.005 E14.5439
G1 X115.866 Y177.170 E14.5981
G1 X115.834 Y177.149 E14.6005
G1 X115.709 Y176.559 E14.6384
G1 X115.559 Y175.977 E14.6762
G1 X115.578 Y175.945 E14.6786
G1 X115.399 Y175.104 E14.7326
G1 X115.369 Y175.082 E14.7349
G1 X115.268 Y174.486 E14.7729
G1 X115.143 Y173.898 E14.8107
G1 X115.163 Y173.866 E14.8131
G1 X115.020 Y173.017 E14.8672
G1 X114.990 Y172.993 E14.8696
G1 X114.914 Y172.395 E14.9075
G1 X114.814 Y171.801 E14.9454
G1 X114.835 Y171.770 E14.9478
G1 X114.728 Y170.917 E15.0018
G1 X114.699 Y170.893 E15.0042
G1 X114.649 Y170.291 E15.0421
G1 X114.573 Y169.694 E15.0799
G1 X114.596 Y169.665 E15.0823
G1 X114.524 Y168.807 E15.1364
G1 X114.497 Y168.781 E15.1387
G1 X114.472 Y168.182 E15.1764
G1 X114.421 Y167.579 E15.2145
G1 X114.445 Y167.550 E15.2169
G1 X114.409 Y166.690 E15.2710
G1 X114.382 Y166.663 E15.2734
G1 X114.382 Y166.060 E15.3113
G1 X114.357 Y165.458 E15.3491
G1 X114.382 Y165.430 E15.3515
G1 X114.382 Y164.570 E15.4055
G1 X114.357 Y164.542 E15.4079
G1 X114.382 Y163.940 E15.4458
G1 X114.382 Y163.337 E15.4837
G1 X114.409 Y163.310 E15.4860
G1 X114.445 Y162.451 E15.5401
G1 X114.421 Y162.422 E15.5425
G1 X114.472 Y161.818 E15.5806
G1 X114.497 Y161.219 E15.6183
G1 X114.524 Y161.193 E15.6206
G1 X114.596 Y160.335 E15.6748
G1 X114.573 Y160.305 E15.6771
G1 X114.649 Y159.709 E15.7149
G1 X114.699 Y159.107 E15.7529
G1 X114.728 Y159.083 E15.7552
G1 X114.835 Y158.230 E15.8093
G1 X114.814 Y158.199 E15.8116
G1 X114.914 Y157.605 E15.8495
G1 X114.990 Y157.006 E15.8875
G1 X115.020 Y156.982 E15.8899
G1 X115.163 Y156.134 E15.9439
G1 X115.143 Y156.103 E15.9463
G1 X115.268 Y155.514 E15.9841
G1 X115.369 Y154.920 E16.0220
G1 X115.399 Y154.897 E16.0244
G1 X115.578 Y154.055 E16.0785
G1 X115.559 Y154.023 E16.0809
G1 X115.709 Y153.441 E16.1186
G1 X115.834 Y152.852 E16.1565
G1 X115.865 Y152.831 E16.1588
G1 X116.080 Y151.996 E16.2130
G1 X116.062 Y151.962 E16.2154
G1 X116.236 Y151.385 E16.2533
G1 X116.386 Y150.800 E16.2913
G1 X116.419 Y150.781 E16.2936
G1 X116.667 Y149.958 E16.3477
G1 X116.651 Y149.924 E16.3500
G1 X116.849 Y149.355 E16.3879
G1 X117.023 Y148.780 E16.4257
G1 X117.056 Y148.762 E16.4280
G1 X117.339 Y147.948 E16.4822
G1 X117.325 Y147.913 E16.4846
G1 X117.546 Y147.353 E16.5224
G1 X117.745 Y146.782 E16.5605
G1 X117.779 Y146.765 E16.5628
G1 X118.095 Y145.967 E16.6168
G1 X118.082 Y145.932 E16.6192
G1 X118.327 Y145.381 E16.6571
G1 X118.549 Y144.820 E16.6950
G1 X118.584 Y144.805 E16.6974
G1 X118.934 Y144.019 E16.7514
G1 X118.922 Y143.983 E16.7538
G1 X119.190 Y143.443 E16.7917
G1 X119.435 Y142.893 E16.8296
G1 X119.470 Y142.879 E16.8319
G1 X120.400 Y141.006 E16.9634
G1 X120.436 Y140.993 E16.9658
G1 X120.852 Y140.236 E17.0201
G1 X120.843 Y140.199 E17.0225
