; G-Code generated by Simplify3D(R) Version 4.1.2
; May 3, 2020 at 9:24:28 PM
; Settings Summary
;   processName,Process1
;   applyToModels,MirrorHolder
;   profileName,X5X-ABSpro (modified)
;   profileVersion,2020-04-22 09:40:43
;   baseProfile,TRONXY X5S
;   printMaterial,PLA
;   printQuality,Medium
;   printExtruders,
;   extruderName,Primary Extruder
;   extruderToolheadNumber,0
;   extruderDiameter,0.4
;   extruderAutoWidth,0
;   extruderWidth,0.4
;   extrusionMultiplier,1.05
;   extruderUseRetract,1
;   extruderRetractionDistance,5
;   extruderExtraRestartDistance,-0.1
;   extruderRetractionZLift,0
;   extruderRetractionSpeed,4800
;   extruderUseCoasting,0
;   extruderCoastingDistance,0.2
;   extruderUseWipe,0
;   extruderWipeDistance,5
;   primaryExtruder,0
;   layerHeight,0.2
;   topSolidLayers,3
;   bottomSolidLayers,3
;   perimeterOutlines,5
;   printPerimetersInsideOut,0
;   startPointOption,2
;   startPointOriginX,0
;   startPointOriginY,0
;   sequentialIslands,0
;   spiralVaseMode,0
;   firstLayerHeightPercentage,120
;   firstLayerWidthPercentage,150
;   firstLayerUnderspeed,0.5
;   useRaft,0
;   raftExtruder,0
;   raftTopLayers,3
;   raftBaseLayers,2
;   raftOffset,0
;   raftSeparationDistance,0
;   raftTopInfill,100
;   aboveRaftSpeedMultiplier,0.3
;   useSkirt,1
;   skirtExtruder,0
;   skirtLayers,1
;   skirtOutlines,5
;   skirtOffset,0.15
;   usePrimePillar,0
;   primePillarExtruder,999
;   primePillarWidth,12
;   primePillarLocation,7
;   primePillarSpeedMultiplier,1
;   useOozeShield,0
;   oozeShieldExtruder,999
;   oozeShieldOffset,2
;   oozeShieldOutlines,1
;   oozeShieldSidewallShape,1
;   oozeShieldSidewallAngle,30
;   oozeShieldSpeedMultiplier,1
;   infillExtruder,0
;   internalInfillPattern,Rectilinear
;   externalInfillPattern,Rectilinear
;   infillPercentage,20
;   outlineOverlapPercentage,15
;   infillExtrusionWidthPercentage,100
;   minInfillLength,5
;   infillLayerInterval,1
;   internalInfillAngles,45,-45
;   overlapInternalInfillAngles,0
;   externalInfillAngles,45,-45
;   generateSupport,1
;   supportExtruder,0
;   supportInfillPercentage,30
;   supportExtraInflation,0
;   supportBaseLayers,0
;   denseSupportExtruder,0
;   denseSupportLayers,0
;   denseSupportInfillPercentage,70
;   supportLayerInterval,1
;   supportHorizontalPartOffset,0.3
;   supportUpperSeparationLayers,1
;   supportLowerSeparationLayers,1
;   supportType,0
;   supportGridSpacing,3
;   maxOverhangAngle,70
;   supportAngles,0
;   temperatureName,Primary Extruder,Heated Bed
;   temperatureNumber,0,0
;   temperatureSetpointCount,1,1
;   temperatureSetpointLayers,1,1
;   temperatureSetpointTemperatures,240,90
;   temperatureStabilizeAtStartup,1,1
;   temperatureHeatedBed,0,1
;   fanLayers,1
;   fanSpeeds,0
;   blipFanToFullPower,0
;   adjustSpeedForCooling,1
;   minSpeedLayerTime,15
;   minCoolingSpeedSlowdown,20
;   increaseFanForCooling,0
;   minFanLayerTime,45
;   maxCoolingFanSpeed,100
;   increaseFanForBridging,0
;   bridgingFanSpeed,100
;   use5D,1
;   relativeEdistances,0
;   allowEaxisZeroing,1
;   independentExtruderAxes,0
;   includeM10123,0
;   stickySupport,1
;   applyToolheadOffsets,0
;   gcodeXoffset,0
;   gcodeYoffset,0
;   gcodeZoffset,0
;   overrideMachineDefinition,1
;   machineTypeOverride,0
;   strokeXoverride,330
;   strokeYoverride,330
;   strokeZoverride,400
;   originOffsetXoverride,0
;   originOffsetYoverride,0
;   originOffsetZoverride,0
;   homeXdirOverride,-1
;   homeYdirOverride,-1
;   homeZdirOverride,-1
;   flipXoverride,1
;   flipYoverride,-1
;   flipZoverride,1
;   toolheadOffsets,0,0|0,0|0,0|0,0|0,0|0,0
;   overrideFirmwareConfiguration,1
;   firmwareTypeOverride,RepRap (Marlin/Repetier/Sprinter)
;   GPXconfigOverride,r2
;   baudRateOverride,250000
;   overridePrinterModels,1
;   printerModelsOverride
;   startingGcode,G28 ; home all axes,G1 Z0.2 F3000 ; get ready to prime,G92 E0 ; reset extrusion distance,G1 X100 E10 F600 ; prime nozzle
;   layerChangeGcode,
;   retractionGcode,
;   toolChangeGcode,
;   endingGcode,G28 X0 ; home x axis,M106 S0 ; turn off cooling fan,M104 S0 ; turn off extruder,M140 S0 ; turn off bed,M84 ; disable motors
;   exportFileFormat,gcode
;   celebration,0
;   celebrationSong,Funky Town
;   postProcessing,
;   defaultSpeed,3000
;   outlineUnderspeed,0.5
;   solidInfillUnderspeed,0.8
;   supportUnderspeed,0.8
;   rapidXYspeed,4800
;   rapidZspeed,1002
;   minBridgingArea,5
;   bridgingExtraInflation,2
;   bridgingExtrusionMultiplier,1
;   bridgingSpeedMultiplier,1
;   useFixedBridgingAngle,1
;   fixedBridgingAngle,0
;   applyBridgingToPerimeters,0
;   filamentDiameters,1.75|1.75|1.75|1.75|1.75|1.75
;   filamentPricesPerKg,46|46|46|46|46|46
;   filamentDensities,1.25|1.25|1.25|1.25|1.25|1.25
;   useMinPrintHeight,0
;   minPrintHeight,0
;   useMaxPrintHeight,0
;   maxPrintHeight,40
;   useDiaphragm,0
;   diaphragmLayerInterval,20
;   robustSlicing,1
;   mergeAllIntoSolid,0
;   onlyRetractWhenCrossingOutline,1
;   retractBetweenLayers,1
;   useRetractionMinTravel,0
;   retractionMinTravel,3
;   retractWhileWiping,0
;   onlyWipeOutlines,1
;   avoidCrossingOutline,0
;   maxMovementDetourFactor,3
;   toolChangeRetractionDistance,12
;   toolChangeExtraRestartDistance,-0.5
;   toolChangeRetractionSpeed,600
;   externalThinWallType,0
;   internalThinWallType,2
;   thinWallAllowedOverlapPercentage,10
;   singleExtrusionMinLength,1
;   singleExtrusionMinPrintingWidthPercentage,50
;   singleExtrusionMaxPrintingWidthPercentage,200
;   singleExtrusionEndpointExtension,0.2
;   horizontalSizeCompensation,0
G90
M82
M106 S0
M140 S90
M190 S90
M104 S240 T0
M109 S240 T0
G28 ; home all axes
G1 Z0.2 F3000 ; get ready to prime
G92 E0 ; reset extrusion distance
G1 X100 E10 F600 ; prime nozzle
; process Process1
; layer 1, Z = 0.240
T0
G92 E0.0000
G1 E-5.0000 F4800
; feature skirt
; tool H0.240 W0.600
G1 Z0.240 F1002
G1 X109.094 Y162.830 F4800
G1 E-0.1000 F4800
G92 E0.0000
G1 X112.906 Y162.830 E0.2397 F1500
G1 X113.170 Y163.094 E0.2631
G1 X113.170 Y166.906 E0.5028
G1 X112.906 Y167.170 E0.5262
G1 X109.094 Y167.170 E0.7659
G1 X108.830 Y166.906 E0.7893
G1 X108.830 Y163.094 E1.0290
G1 X109.094 Y162.830 E1.0525
G92 E0.0000
G1 E-5.0000 F4800
G1 X108.100 Y160.430 F4800
G1 E-0.1000 F4800
G92 E0.0000
G1 X111.150 Y160.430 E0.1918 F1500
G1 X111.150 Y160.319 E0.1987
G1 X112.819 Y158.650 E0.3471
G1 X217.181 Y158.650 E6.9074
G1 X218.850 Y160.319 E7.0558
G1 X218.850 Y160.430 E7.0628
G1 X221.901 Y160.430 E7.2546
G1 X223.570 Y162.099 E7.4030
G1 X223.570 Y167.901 E7.7676
G1 X221.900 Y169.570 E7.9161
G1 X218.850 Y169.570 E8.1078
G1 X218.850 Y169.681 E8.1148
G1 X217.181 Y171.350 E8.2632
G1 X112.819 Y171.350 E14.8235
G1 X111.150 Y169.681 E14.9719
G1 X111.150 Y169.570 E14.9789
G1 X108.100 Y169.570 E15.1706
G1 X106.430 Y167.901 E15.3190
G1 X106.430 Y162.099 E15.6837
G1 X108.100 Y160.430 E15.8321
G92 E0.0000
G1 E-5.0000 F4800
G1 X108.348 Y161.030 F4800
G1 E-0.1000 F4800
G92 E0.0000
G1 X111.750 Y161.030 E0.2139 F1500
G1 X111.750 Y160.568 E0.2429
G1 X113.068 Y159.250 E0.3601
G1 X216.932 Y159.250 E6.8891
G1 X218.250 Y160.568 E7.0063
G1 X218.250 Y161.030 E7.0353
G1 X221.652 Y161.030 E7.2492
G1 X222.970 Y162.348 E7.3664
G1 X222.970 Y167.652 E7.6998
G1 X221.652 Y168.970 E7.8170
G1 X218.250 Y168.970 E8.0308
G1 X218.250 Y169.432 E8.0599
G1 X216.932 Y170.750 E8.1770
G1 X113.068 Y170.750 E14.7061
G1 X111.750 Y169.432 E14.8233
G1 X111.750 Y168.970 E14.8523
G1 X108.348 Y168.970 E15.0661
G1 X107.030 Y167.652 E15.1833
G1 X107.030 Y162.348 E15.5167
G1 X108.348 Y161.030 E15.6339
G92 E0.0000
G1 E-5.0000 F4800
G1 X108.597 Y161.630 F4800
G1 E-0.1000 F4800
G92 E0.0000
G1 X112.350 Y161.630 E0.2359 F1500
G1 X112.350 Y160.817 E0.2871
G1 X113.317 Y159.850 E0.3730
G1 X216.683 Y159.850 E6.8708
G1 X217.650 Y160.817 E6.9567
G1 X217.650 Y161.630 E7.0079
G1 X221.403 Y161.630 E7.2438
G1 X222.370 Y162.597 E7.3298
G1 X222.370 Y167.403 E7.6319
G1 X221.403 Y168.370 E7.7179
G1 X217.650 Y168.370 E7.9538
G1 X217.650 Y169.183 E8.0049
G1 X216.683 Y170.150 E8.0909
G1 X113.317 Y170.150 E14.5887
G1 X112.350 Y169.183 E14.6746
G1 X112.350 Y168.370 E14.7257
G1 X108.597 Y168.370 E14.9617
G1 X107.630 Y167.403 E15.0476
G1 X107.630 Y162.597 E15.3498
G1 X108.597 Y161.630 E15.4357
G92 E0.0000
G1 E-5.0000 F4800
G1 X108.845 Y162.230 F4800
G1 E-0.1000 F4800
G92 E0.0000
G1 X112.950 Y162.230 E0.2580 F1500
G1 X112.950 Y161.065 E0.3313
G1 X113.565 Y160.450 E0.3860
G1 X216.435 Y160.450 E6.8525
G1 X217.050 Y161.065 E6.9072
G1 X217.050 Y162.230 E6.9804
G1 X221.155 Y162.230 E7.2385
G1 X221.770 Y162.845 E7.2932
G1 X221.770 Y167.155 E7.5641
G1 X221.155 Y167.770 E7.6188
G1 X217.050 Y167.770 E7.8768
G1 X217.050 Y168.935 E7.9500
G1 X216.435 Y169.550 E8.0047
G1 X113.565 Y169.550 E14.4713
G1 X112.950 Y168.935 E14.5260
G1 X112.950 Y167.770 E14.5992
G1 X108.845 Y167.770 E14.8572
G1 X108.230 Y167.155 E14.9119
G1 X108.230 Y162.845 E15.1828
G1 X108.845 Y162.230 E15.2375
G92 E0.0000
G1 E-5.0000 F4800
G1 X113.550 Y161.314 F4800
G1 E-0.1000 F4800
G92 E0.0000
G1 X113.814 Y161.050 E0.0234 F1500
G1 X216.186 Y161.050 E6.4588
G1 X216.450 Y161.314 E6.4822
G1 X216.450 Y162.830 E6.5775
G1 X220.906 Y162.830 E6.8577
G1 X221.170 Y163.094 E6.8811
G1 X221.170 Y166.906 E7.1208
G1 X220.906 Y167.170 E7.1442
G1 X216.450 Y167.170 E7.4243
G1 X216.450 Y168.686 E7.5197
G1 X216.186 Y168.950 E7.5431
G1 X113.814 Y168.950 E13.9784
G1 X113.550 Y168.686 E14.0019
G1 X113.550 Y161.314 E14.4653
G92 E0.0000
G1 E-5.0000 F4800
; feature outer perimeter
G1 X114.300 Y161.800 F4800
G1 E-0.1000 F4800
G92 E0.0000
G1 X215.700 Y161.800 E6.3742 F750
G1 X215.700 Y168.200 E6.7765
G1 X114.300 Y168.200 E13.1507
G1 X114.300 Y161.800 E13.5530
; feature inner perimeter
G1 X114.900 Y162.400 F4800
G92 E0.0000
G1 X163.919 Y162.400 E3.0814 F1125
G1 X164.019 Y162.814 E3.1082
G1 X163.712 Y162.970 E3.1298
G1 X163.354 Y163.248 E3.1583
G1 X163.055 Y163.587 E3.1867
G1 X162.825 Y163.976 E3.2152
G1 X162.676 Y164.389 E3.2427
G1 X162.615 Y164.713 E3.2634
G1 X162.601 Y165.149 E3.2909
G1 X162.671 Y165.598 E3.3194
G1 X162.825 Y166.024 E3.3479
G1 X163.055 Y166.413 E3.3763
G1 X163.354 Y166.752 E3.4048
G1 X163.712 Y167.030 E3.4332
G1 X164.019 Y167.186 E3.4549
G1 X163.919 Y167.600 E3.4816
G1 X114.900 Y167.600 E6.5630
G1 X114.900 Y162.400 E6.8899
G1 X165.981 Y162.814 F4800
G92 E0.0000
G1 X166.081 Y162.400 E0.0268 F1125
G1 X215.100 Y162.400 E3.1082
G1 X215.100 Y167.600 E3.4351
G1 X166.086 Y167.600 E6.5162
G1 X165.977 Y167.202 E6.5421
G1 X166.413 Y166.945 E6.5739
G1 X166.752 Y166.646 E6.6023
G1 X167.030 Y166.288 E6.6308
G1 X167.235 Y165.885 E6.6592
G1 X167.361 Y165.451 E6.6877
G1 X167.404 Y165.000 E6.7161
G1 X167.363 Y164.564 E6.7436
G1 X167.284 Y164.258 E6.7635
G1 X167.168 Y163.964 E6.7834
G1 X166.945 Y163.587 E6.8109
G1 X166.646 Y163.248 E6.8393
G1 X166.288 Y162.970 E6.8678
G1 X165.981 Y162.814 E6.8894
G1 X167.295 Y163.000 F4800
G92 E0.0000
G1 X214.500 Y163.000 E2.9674 F1125
G1 X214.500 Y167.000 E3.2188
G1 X167.340 Y167.000 E6.1834
G1 X167.796 Y166.107 E6.2464
G1 X167.953 Y165.563 E6.2819
G1 X168.007 Y165.000 E6.3175
G1 X167.956 Y164.460 E6.3516
G1 X167.856 Y164.072 E6.3768
G1 X167.708 Y163.699 E6.4020
G1 X167.295 Y163.000 E6.4531
G1 X162.705 Y163.000 F4800
G92 E0.0000
G1 X162.279 Y163.720 E0.0526 F1125
G1 X162.096 Y164.230 E0.0866
G1 X162.016 Y164.647 E0.1133
G1 X161.999 Y165.187 E0.1473
G1 X162.088 Y165.747 E0.1830
G1 X162.279 Y166.280 E0.2186
G1 X162.705 Y167.000 E0.2711
G1 X115.500 Y167.000 E3.2385
G1 X115.500 Y163.000 E3.4900
G1 X162.705 Y163.000 E6.4574
G1 X161.685 Y163.600 F4800
G92 E0.0000
G1 X161.515 Y164.071 E0.0315 F1125
G1 X161.418 Y164.581 E0.0641
G1 X161.398 Y165.224 E0.1046
G1 X161.504 Y165.897 E0.1474
G1 X161.685 Y166.400 E0.1810
G1 X116.100 Y166.400 E3.0465
G1 X116.100 Y163.600 E3.2225
G1 X161.685 Y163.600 E6.0881
G92 E0.0000
G1 E-5.0000 F4800
G1 X168.354 Y163.600 F4800
G1 E-0.1000 F4800
G92 E0.0000
G1 X213.900 Y163.600 E2.8631 F1125
G1 X213.900 Y166.400 E3.0391
G1 X168.335 Y166.400 E5.9034
G1 X168.545 Y165.676 E5.9508
G1 X168.609 Y165.000 E5.9935
G1 X168.549 Y164.357 E6.0341
G1 X168.354 Y163.600 E6.0832
G1 X169.136 Y164.200 F4800
G92 E0.0000
G1 X213.300 Y164.200 E2.7762 F1125
G1 X213.300 Y165.800 E2.8768
G1 X169.136 Y165.800 E5.6530
G1 X169.212 Y165.000 E5.7035
G1 X169.136 Y164.200 E5.7540
G92 E0.0000
G1 E-5.0000 F4800
G1 X160.880 Y164.200 F4800
G1 E-0.1000 F4800
G92 E0.0000
G1 X160.820 Y164.514 E0.0201 F1125
G1 X160.796 Y165.262 E0.0671
G1 X160.881 Y165.800 E0.1014
G1 X116.700 Y165.800 E2.8787
G1 X116.700 Y164.200 E2.9793
G1 X160.880 Y164.200 E5.7565
; feature outer perimeter
G1 X163.257 Y164.548 F4800
G92 E0.0000
G1 X163.213 Y164.779 E0.0148 F750
G1 X163.202 Y165.112 E0.0357
G1 X163.255 Y165.448 E0.0571
G1 X163.370 Y165.767 E0.0784
G1 X163.543 Y166.059 E0.0998
G1 X163.767 Y166.313 E0.1211
G1 X164.035 Y166.521 E0.1424
G1 X164.337 Y166.675 E0.1637
G1 X164.662 Y166.769 E0.1850
G1 X165.000 Y166.801 E0.2063
G1 X165.333 Y166.770 E0.2273
G1 X165.556 Y166.712 E0.2419
G1 X165.771 Y166.627 E0.2564
G1 X166.059 Y166.457 E0.2774
G1 X166.313 Y166.233 E0.2987
G1 X166.521 Y165.965 E0.3200
G1 X166.675 Y165.663 E0.3413
G1 X166.769 Y165.338 E0.3626
G1 X166.801 Y165.000 E0.3839
G1 X166.770 Y164.667 E0.4050
G1 X166.712 Y164.444 E0.4195
G1 X166.627 Y164.229 E0.4340
G1 X166.457 Y163.941 E0.4550
G1 X166.233 Y163.687 E0.4763
G1 X165.965 Y163.479 E0.4976
G1 X165.663 Y163.325 E0.5189
G1 X165.338 Y163.231 E0.5402
G1 X165.000 Y163.199 E0.5616
G1 X164.662 Y163.231 E0.5829
G1 X164.337 Y163.325 E0.6042
G1 X164.035 Y163.479 E0.6255
G1 X163.767 Y163.687 E0.6468
G1 X163.543 Y163.941 E0.6681
G1 X163.370 Y164.233 E0.6894
G1 X163.257 Y164.548 E0.7104
; feature gap fill
; tool H0.240 W0.400
G1 X164.426 Y162.729 F4800
G92 E0.0000
G1 X164.537 Y162.840 E0.0066 F1500
G1 X164.585 Y162.826 E0.0087
G1 X165.000 Y162.787 E0.0261
G1 X165.055 Y162.792 E0.0285
G1 X164.473 Y162.210 E0.0629
G1 X165.038 Y162.210 E0.0867
G1 X165.571 Y162.742 E0.1182
G1 X165.680 Y162.286 E0.1379
G1 X165.604 Y162.210 E0.1424
G92 E0.0000
G1 E-5.0000 F4800
G1 X165.463 Y167.160 F4800
G1 E-0.1000 F4800
G92 E0.0000
G1 X165.561 Y167.258 E0.0058 F1500
G1 X165.707 Y167.790 E0.0289
G1 X165.527 Y167.790 E0.0365
G1 X164.945 Y167.208 E0.0710
G1 X164.585 Y167.174 E0.0861
G1 X164.458 Y167.137 E0.0917
G1 X164.429 Y167.258 E0.0969
G1 X164.962 Y167.790 E0.1284
G1 X164.396 Y167.790 E0.1521
G1 X164.320 Y167.714 E0.1566
; feature solid layer
; tool H0.240 W0.600
G1 X159.619 Y164.710 F4800
G92 E0.0000
G1 X160.199 Y165.290 E0.0516 F1200
G1 X159.350 Y165.290 E0.1049
G1 X158.770 Y164.710 E0.1565
G1 X157.922 Y164.710 E0.2098
G1 X158.502 Y165.290 E0.2614
G1 X157.653 Y165.290 E0.3147
G1 X157.073 Y164.710 E0.3663
G1 X156.225 Y164.710 E0.4196
G1 X156.805 Y165.290 E0.4712
G1 X155.956 Y165.290 E0.5245
G1 X155.376 Y164.710 E0.5761
G1 X154.528 Y164.710 E0.6294
G1 X155.108 Y165.290 E0.6810
G1 X154.259 Y165.290 E0.7343
G1 X153.679 Y164.710 E0.7859
G1 X152.831 Y164.710 E0.8392
G1 X153.411 Y165.290 E0.8908
G1 X152.562 Y165.290 E0.9441
G1 X151.982 Y164.710 E0.9957
G1 X151.134 Y164.710 E1.0490
G1 X151.714 Y165.290 E1.1006
G1 X150.865 Y165.290 E1.1539
G1 X150.285 Y164.710 E1.2055
G1 X149.437 Y164.710 E1.2588
G1 X150.017 Y165.290 E1.3104
G1 X149.168 Y165.290 E1.3637
G1 X148.588 Y164.710 E1.4153
G1 X147.739 Y164.710 E1.4686
G1 X148.319 Y165.290 E1.5202
G1 X147.471 Y165.290 E1.5735
G1 X146.891 Y164.710 E1.6251
G1 X146.042 Y164.710 E1.6784
G1 X146.622 Y165.290 E1.7300
G1 X145.774 Y165.290 E1.7833
G1 X145.194 Y164.710 E1.8349
G1 X144.345 Y164.710 E1.8882
G1 X144.925 Y165.290 E1.9398
G1 X144.077 Y165.290 E1.9931
G1 X143.497 Y164.710 E2.0447
G1 X142.648 Y164.710 E2.0980
G1 X143.228 Y165.290 E2.1496
G1 X142.380 Y165.290 E2.2029
G1 X141.800 Y164.710 E2.2545
G1 X140.951 Y164.710 E2.3078
G1 X141.531 Y165.290 E2.3594
G1 X140.683 Y165.290 E2.4127
G1 X140.103 Y164.710 E2.4643
G1 X139.254 Y164.710 E2.5176
G1 X139.834 Y165.290 E2.5692
G1 X138.986 Y165.290 E2.6225
G1 X138.406 Y164.710 E2.6741
G1 X137.557 Y164.710 E2.7274
G1 X138.137 Y165.290 E2.7790
G1 X137.289 Y165.290 E2.8323
G1 X136.709 Y164.710 E2.8839
G1 X135.860 Y164.710 E2.9372
