; G-Code generated by Simplify3D(R) Version 4.1.2
; May 30, 2020 at 7:47:37 PM
; Settings Summary
;   processName,Process1
;   applyToModels,RA_gear
;   profileName,X5X-PLA-Leon (modified)
;   profileVersion,2020-05-29 15:16:38
;   baseProfile,TRONXY X5S
;   printMaterial,PLA
;   printQuality,Medium
;   printExtruders,
;   extruderName,Primary Extruder
;   extruderToolheadNumber,0
;   extruderDiameter,0.4
;   extruderAutoWidth,0
;   extruderWidth,0.8
;   extrusionMultiplier,1.05
;   extruderUseRetract,1
;   extruderRetractionDistance,5
;   extruderExtraRestartDistance,-0.1
;   extruderRetractionZLift,0
;   extruderRetractionSpeed,4800
;   extruderUseCoasting,0
;   extruderCoastingDistance,0.2
;   extruderUseWipe,0
;   extruderWipeDistance,5
;   primaryExtruder,0
;   layerHeight,0.2
;   topSolidLayers,3
;   bottomSolidLayers,3
;   perimeterOutlines,1
;   printPerimetersInsideOut,0
;   startPointOption,2
;   startPointOriginX,0
;   startPointOriginY,0
;   sequentialIslands,0
;   spiralVaseMode,0
;   firstLayerHeightPercentage,120
;   firstLayerWidthPercentage,150
;   firstLayerUnderspeed,0.5
;   useRaft,0
;   raftExtruder,0
;   raftTopLayers,3
;   raftBaseLayers,2
;   raftOffset,0
;   raftSeparationDistance,0
;   raftTopInfill,100
;   aboveRaftSpeedMultiplier,0.3
;   useSkirt,1
;   skirtExtruder,0
;   skirtLayers,1
;   skirtOutlines,3
;   skirtOffset,0.15
;   usePrimePillar,0
;   primePillarExtruder,999
;   primePillarWidth,12
;   primePillarLocation,7
;   primePillarSpeedMultiplier,1
;   useOozeShield,0
;   oozeShieldExtruder,999
;   oozeShieldOffset,2
;   oozeShieldOutlines,1
;   oozeShieldSidewallShape,1
;   oozeShieldSidewallAngle,30
;   oozeShieldSpeedMultiplier,1
;   infillExtruder,0
;   internalInfillPattern,Rectilinear
;   externalInfillPattern,Rectilinear
;   infillPercentage,20
;   outlineOverlapPercentage,15
;   infillExtrusionWidthPercentage,100
;   minInfillLength,5
;   infillLayerInterval,1
;   internalInfillAngles,45,-45
;   overlapInternalInfillAngles,0
;   externalInfillAngles,45,-45
;   generateSupport,0
;   supportExtruder,0
;   supportInfillPercentage,30
;   supportExtraInflation,0
;   supportBaseLayers,1
;   denseSupportExtruder,0
;   denseSupportLayers,0
;   denseSupportInfillPercentage,70
;   supportLayerInterval,1
;   supportHorizontalPartOffset,0.3
;   supportUpperSeparationLayers,1
;   supportLowerSeparationLayers,1
;   supportType,0
;   supportGridSpacing,3
;   maxOverhangAngle,70
;   supportAngles,0
;   temperatureName,Primary Extruder,Heated Bed
;   temperatureNumber,0,0
;   temperatureSetpointCount,1,1
;   temperatureSetpointLayers,1,1
;   temperatureSetpointTemperatures,200,90
;   temperatureStabilizeAtStartup,1,1
;   temperatureHeatedBed,0,1
;   fanLayers,1,2
;   fanSpeeds,0,50
;   blipFanToFullPower,0
;   adjustSpeedForCooling,1
;   minSpeedLayerTime,15
;   minCoolingSpeedSlowdown,20
;   increaseFanForCooling,0
;   minFanLayerTime,45
;   maxCoolingFanSpeed,100
;   increaseFanForBridging,0
;   bridgingFanSpeed,100
;   use5D,1
;   relativeEdistances,0
;   allowEaxisZeroing,1
;   independentExtruderAxes,0
;   includeM10123,0
;   stickySupport,1
;   applyToolheadOffsets,0
;   gcodeXoffset,0
;   gcodeYoffset,0
;   gcodeZoffset,0
;   overrideMachineDefinition,1
;   machineTypeOverride,0
;   strokeXoverride,330
;   strokeYoverride,330
;   strokeZoverride,400
;   originOffsetXoverride,0
;   originOffsetYoverride,0
;   originOffsetZoverride,0
;   homeXdirOverride,-1
;   homeYdirOverride,-1
;   homeZdirOverride,-1
;   flipXoverride,1
;   flipYoverride,-1
;   flipZoverride,1
;   toolheadOffsets,0,0|0,0|0,0|0,0|0,0|0,0
;   overrideFirmwareConfiguration,1
;   firmwareTypeOverride,RepRap (Marlin/Repetier/Sprinter)
;   GPXconfigOverride,r2
;   baudRateOverride,250000
;   overridePrinterModels,1
;   printerModelsOverride
;   startingGcode,G28 ; home all axes,G1 Z0.2 F3000 ; get ready to prime,G92 E0 ; reset extrusion distance,G1 X100 E10 F600 ; prime nozzle
;   layerChangeGcode,
;   retractionGcode,
;   toolChangeGcode,
;   endingGcode,G28 X0 ; home x axis,M106 S0 ; turn off cooling fan,M104 S0 ; turn off extruder,M140 S0 ; turn off bed,M84 ; disable motors
;   exportFileFormat,gcode
;   celebration,0
;   celebrationSong,Funky Town
;   postProcessing,
;   defaultSpeed,3000
;   outlineUnderspeed,0.5
;   solidInfillUnderspeed,0.8
;   supportUnderspeed,0.8
;   rapidXYspeed,4800
;   rapidZspeed,1002
;   minBridgingArea,5
;   bridgingExtraInflation,2
;   bridgingExtrusionMultiplier,1
;   bridgingSpeedMultiplier,1
;   useFixedBridgingAngle,1
;   fixedBridgingAngle,0
;   applyBridgingToPerimeters,0
;   filamentDiameters,1.75|1.75|1.75|1.75|1.75|1.75
;   filamentPricesPerKg,46|46|46|46|46|46
;   filamentDensities,1.25|1.25|1.25|1.25|1.25|1.25
;   useMinPrintHeight,0
;   minPrintHeight,0
;   useMaxPrintHeight,0
;   maxPrintHeight,10
;   useDiaphragm,0
;   diaphragmLayerInterval,20
;   robustSlicing,1
;   mergeAllIntoSolid,0
;   onlyRetractWhenCrossingOutline,1
;   retractBetweenLayers,1
;   useRetractionMinTravel,0
;   retractionMinTravel,3
;   retractWhileWiping,0
;   onlyWipeOutlines,1
;   avoidCrossingOutline,0
;   maxMovementDetourFactor,3
;   toolChangeRetractionDistance,12
;   toolChangeExtraRestartDistance,-0.5
;   toolChangeRetractionSpeed,600
;   externalThinWallType,0
;   internalThinWallType,2
;   thinWallAllowedOverlapPercentage,10
;   singleExtrusionMinLength,1
;   singleExtrusionMinPrintingWidthPercentage,50
;   singleExtrusionMaxPrintingWidthPercentage,200
;   singleExtrusionEndpointExtension,0.2
;   horizontalSizeCompensation,0
G90
M82
M106 S0
M140 S90
M190 S90
M104 S200 T0
M109 S200 T0
G28 ; home all axes
G1 Z0.2 F3000 ; get ready to prime
G92 E0 ; reset extrusion distance
G1 X100 E10 F600 ; prime nozzle
; process Process1
; layer 1, Z = 0.240
T0
G92 E0.0000
G1 E-5.0000 F4800
; feature skirt
; tool H0.240 W1.200
G1 Z0.240 F1002
G1 X112.096 Y112.172 F4800
G1 E-0.1000 F4800
G92 E0.0000
G1 X112.133 Y112.135 E0.0065 F1500
G1 X114.949 Y109.453 E0.4954
G1 X115.017 Y109.392 E0.5069
G1 X118.346 Y106.571 E1.0555
G1 X118.419 Y106.513 E1.0673
G1 X121.917 Y103.890 E1.6169
G1 X121.992 Y103.838 E1.6284
G1 X125.254 Y101.676 E2.1204
G1 X125.291 Y101.652 E2.1259
G1 X125.997 Y101.212 E2.2305
G1 X126.042 Y101.185 E2.2371
G1 X129.019 Y99.467 E2.6693
G1 X129.055 Y99.446 E2.6745
G1 X129.979 Y98.945 E2.8067
G1 X130.029 Y98.919 E2.8137
G1 X133.543 Y97.169 E3.3073
G1 X133.626 Y97.131 E3.3187
G1 X137.604 Y95.430 E3.8627
G1 X137.689 Y95.396 E3.8742
G1 X141.472 Y94.032 E4.3798
G1 X141.522 Y94.016 E4.3864
G1 X142.315 Y93.759 E4.4913
G1 X142.361 Y93.745 E4.4973
G1 X146.186 Y92.636 E4.9979
G1 X146.274 Y92.613 E5.0094
G1 X150.508 Y91.648 E5.5554
G1 X150.601 Y91.630 E5.5672
G1 X154.914 Y90.913 E6.1170
G1 X155.005 Y90.901 E6.1285
G1 X159.026 Y90.472 E6.6369
G1 X159.115 Y90.465 E6.6481
G1 X163.353 Y90.254 E7.1816
G1 X163.404 Y90.252 E7.1880
G1 X164.276 Y90.237 E7.2977
G1 X164.330 Y90.237 E7.3044
G1 X168.334 Y90.304 E7.8079
G1 X168.426 Y90.309 E7.8194
G1 X172.769 Y90.635 E8.3671
G1 X172.863 Y90.645 E8.3789
G1 X177.188 Y91.230 E8.9276
G1 X177.278 Y91.245 E8.9391
G1 X181.205 Y92.011 E9.4421
G1 X181.258 Y92.022 E9.4489
G1 X182.107 Y92.219 E9.5585
G1 X182.156 Y92.231 E9.5649
G1 X186.258 Y93.319 E10.0984
G1 X186.343 Y93.344 E10.1096
G1 X190.189 Y94.601 E10.6183
G1 X190.276 Y94.632 E10.6298
G1 X194.331 Y96.223 E11.1775
G1 X194.417 Y96.260 E11.1893
G1 X198.369 Y98.089 E11.7367
G1 X198.451 Y98.130 E11.7483
G1 X201.963 Y100.011 E12.2492
G1 X202.007 Y100.036 E12.2556
G1 X202.761 Y100.471 E12.3649
G1 X202.804 Y100.497 E12.3712
G1 X206.188 Y102.597 E12.8720
G1 X206.264 Y102.648 E12.8835
G1 X209.809 Y105.144 E13.4286
G1 X209.888 Y105.203 E13.4410
G1 X213.571 Y108.158 E14.0346
G1 X213.639 Y108.216 E14.0459
G1 X216.207 Y110.528 E14.4803
G1 X216.237 Y110.556 E14.4855
G1 X217.000 Y111.281 E14.6178
G1 X217.040 Y111.320 E14.6248
G1 X219.790 Y114.122 E15.1184
G1 X219.853 Y114.189 E15.1300
G1 X222.725 Y117.477 E15.6789
G1 X222.785 Y117.550 E15.6907
G1 X225.450 Y120.996 E16.2384
G1 X225.504 Y121.070 E16.2499
G1 X227.703 Y124.283 E16.7394
G1 X227.732 Y124.326 E16.7459
G1 X228.297 Y125.214 E16.8782
G1 X228.321 Y125.252 E16.8839
G1 X230.096 Y128.223 E17.3190
G1 X230.140 Y128.301 E17.3302
G1 X232.358 Y132.544 E17.9322
G1 X232.402 Y132.633 E17.9447
G1 X234.171 Y136.610 E18.4919
G1 X234.206 Y136.697 E18.5037
G1 X235.741 Y140.788 E19.0531
G1 X235.771 Y140.875 E19.0647
G1 X236.979 Y144.771 E19.5775
G1 X237.003 Y144.858 E19.5888
G1 X238.028 Y148.977 E20.1225
G1 X238.040 Y149.030 E20.1293
G1 X238.222 Y149.884 E20.2390
G1 X238.231 Y149.933 E20.2453
G1 X238.934 Y153.853 E20.7460
G1 X238.948 Y153.944 E20.7575
G1 X239.464 Y158.246 E21.3023
G1 X239.473 Y158.339 E21.3141
G1 X239.735 Y162.714 E21.8651
G1 X239.738 Y162.805 E21.8766
G1 X239.744 Y166.602 E22.3539
G1 X239.744 Y166.646 E22.3594
G1 X239.716 Y167.702 E22.4923
G1 X239.713 Y167.763 E22.5000
G1 X239.434 Y172.042 E23.0391
G1 X239.426 Y172.130 E23.0502
G1 X238.941 Y176.102 E23.5533
G1 X238.928 Y176.192 E23.5646
G1 X238.169 Y180.388 E24.1008
G1 X238.150 Y180.477 E24.1123
G1 X237.216 Y184.351 E24.6132
G1 X237.203 Y184.402 E24.6199
G1 X236.921 Y185.418 E24.7524
G1 X236.907 Y185.463 E24.7584
G1 X235.770 Y189.129 E25.2409
G1 X235.740 Y189.216 E25.2524
G1 X234.203 Y193.311 E25.8024
G1 X234.167 Y193.398 E25.8142
G1 X232.402 Y197.365 E26.3601
G1 X232.363 Y197.447 E26.3716
G1 X230.535 Y200.986 E26.8723
G1 X230.512 Y201.029 E26.8784
G1 X230.108 Y201.756 E26.9830
G1 X230.083 Y201.798 E26.9891
G1 X228.321 Y204.748 E27.4212
G1 X228.297 Y204.787 E27.4268
G1 X227.731 Y205.674 E27.5592
G1 X227.703 Y205.718 E27.5657
G1 X225.506 Y208.927 E28.0546
G1 X225.452 Y209.001 E28.0661
G1 X222.783 Y212.452 E28.6147
G1 X222.723 Y212.525 E28.6265
G1 X219.844 Y215.820 E29.1766
G1 X219.777 Y215.892 E29.1891
G1 X216.453 Y219.246 E29.7827
G1 X216.388 Y219.308 E29.7940
G1 X213.820 Y221.620 E30.2284
G1 X213.789 Y221.647 E30.2336
G1 X212.990 Y222.330 E30.3658
G1 X212.947 Y222.366 E30.3729
G1 X209.872 Y224.808 E30.8665
G1 X209.799 Y224.863 E30.8779
G1 X206.262 Y227.354 E31.4219
G1 X206.185 Y227.404 E31.4334
G1 X202.768 Y229.525 E31.9391
G1 X202.723 Y229.552 E31.9457
G1 X202.000 Y229.968 E32.0505
G1 X201.958 Y229.992 E32.0565
G1 X198.448 Y231.871 E32.5571
G1 X198.367 Y231.912 E32.5686
G1 X194.426 Y233.736 E33.1145
G1 X194.340 Y233.773 E33.1263
G1 X190.269 Y235.371 E33.6762
G1 X190.182 Y235.402 E33.6877
G1 X186.339 Y236.657 E34.1961
G1 X186.253 Y236.683 E34.2073
G1 X182.152 Y237.770 E34.7407
G1 X182.103 Y237.782 E34.7471
G1 X181.252 Y237.979 E34.8569
G1 X181.199 Y237.990 E34.8636
G1 X177.269 Y238.757 E35.3671
G1 X177.178 Y238.771 E35.3786
G1 X172.862 Y239.356 E35.9263
G1 X172.769 Y239.365 E35.9381
G1 X168.417 Y239.692 E36.4867
G1 X168.325 Y239.696 E36.4982
G1 X164.325 Y239.763 E37.0012
G1 X164.271 Y239.763 E37.0080
G1 X163.399 Y239.748 E37.1177
G1 X163.348 Y239.746 E37.1241
G1 X159.111 Y239.535 E37.6575
G1 X159.022 Y239.528 E37.6687
G1 X154.998 Y239.098 E38.1774
G1 X154.908 Y239.086 E38.1889
G1 X150.610 Y238.372 E38.7367
G1 X150.518 Y238.354 E38.7484
G1 X146.272 Y237.386 E39.2959
G1 X146.183 Y237.363 E39.3075
G1 X142.356 Y236.254 E39.8084
G1 X142.308 Y236.239 E39.8148
G1 X141.480 Y235.970 E39.9242
G1 X141.433 Y235.954 E39.9305
G1 X137.686 Y234.603 E40.4312
G1 X137.601 Y234.569 E40.4427
G1 X133.618 Y232.865 E40.9873
G1 X133.535 Y232.827 E40.9988
G1 X130.034 Y231.084 E41.4905
G1 X129.995 Y231.064 E41.4961
G1 X129.260 Y230.672 E41.6008
G1 X129.214 Y230.646 E41.6074
G1 X126.237 Y228.927 E42.0396
G1 X126.202 Y228.906 E42.0448
G1 X125.305 Y228.356 E42.1771
G1 X125.257 Y228.326 E42.1841
G1 X121.985 Y226.158 E42.6776
G1 X121.910 Y226.105 E42.6891
G1 X118.417 Y223.486 E43.2381
G1 X118.344 Y223.427 E43.2499
G1 X115.020 Y220.610 E43.7977
G1 X114.952 Y220.549 E43.8092
G1 X112.133 Y217.865 E44.2985
G1 X112.096 Y217.828 E44.3051
G1 X111.355 Y217.074 E44.4379
G1 X111.318 Y217.035 E44.4448
G1 X108.449 Y213.906 E44.9784
G1 X108.391 Y213.840 E44.9895
G1 X105.854 Y210.742 E45.4929
G1 X105.799 Y210.670 E45.5044
G1 X103.269 Y207.189 E46.0453
G1 X103.218 Y207.113 E46.0568
G1 X101.068 Y203.762 E46.5574
G1 X101.042 Y203.721 E46.5635
G1 X100.614 Y203.006 E46.6683
G1 X100.588 Y202.961 E46.6748
G1 X98.645 Y199.460 E47.1782
G1 X98.602 Y199.379 E47.1897
G1 X96.702 Y195.429 E47.7408
G1 X96.664 Y195.344 E47.7526
G1 X95.020 Y191.330 E48.2979
G1 X94.987 Y191.245 E48.3093
G1 X93.688 Y187.461 E48.8123
G1 X93.671 Y187.410 E48.8191
G1 X93.416 Y186.576 E48.9287
G1 X93.402 Y186.527 E48.9351
G1 X92.293 Y182.431 E49.4686
G1 X92.273 Y182.344 E49.4798
G1 X91.438 Y178.385 E49.9886
G1 X91.421 Y178.295 E50.0001
G1 X90.771 Y173.974 E50.5494
G1 X90.759 Y173.881 E50.5612
G1 X90.369 Y169.557 E51.1070
G1 X90.364 Y169.466 E51.1186
G1 X90.235 Y165.445 E51.6243
G1 X90.235 Y165.393 E51.6308
G1 X90.236 Y164.558 E51.7358
G1 X90.237 Y164.506 E51.7424
G1 X90.383 Y160.264 E52.2759
G1 X90.388 Y160.175 E52.2872
G1 X90.760 Y156.112 E52.8001
G1 X90.771 Y156.021 E52.8116
G1 X91.423 Y151.696 E53.3616
G1 X91.440 Y151.603 E53.3734
G1 X92.342 Y147.356 E53.9193
G1 X92.363 Y147.267 E53.9308
G1 X93.420 Y143.407 E54.4340
G1 X93.446 Y143.323 E54.4450
G1 X94.794 Y139.298 E54.9787
G1 X94.813 Y139.247 E54.9855
G1 X95.182 Y138.258 E55.1182
G1 X95.200 Y138.212 E55.1244
G1 X96.506 Y135.028 E55.5571
G1 X96.524 Y134.984 E55.5631
G1 X96.878 Y134.189 E55.6725
G1 X96.901 Y134.140 E55.6793
G1 X98.760 Y130.325 E56.2129
G1 X98.801 Y130.245 E56.2241
G1 X100.793 Y126.685 E56.7371
G1 X100.841 Y126.606 E56.7487
G1 X103.196 Y122.919 E57.2986
G1 X103.249 Y122.842 E57.3104
G1 X105.800 Y119.328 E57.8563
G1 X105.856 Y119.256 E57.8678
G1 X108.391 Y116.160 E58.3709
G1 X108.449 Y116.093 E58.3820
G1 X111.318 Y112.965 E58.9156
G1 X111.355 Y112.926 E58.9224
G1 X112.096 Y112.172 E59.0554
G92 E0.0000
G1 E-5.0000 F4800
G1 X112.945 Y113.020 F4800
G1 E-0.1000 F4800
G92 E0.0000
G1 X112.968 Y112.997 E0.0040 F1500
G1 X115.764 Y110.334 E0.4895
G1 X115.806 Y110.296 E0.4966
G1 X119.108 Y107.498 E1.0408
G1 X119.153 Y107.462 E1.0481
G1 X122.623 Y104.861 E1.5932
G1 X122.669 Y104.828 E1.6004
G1 X125.909 Y102.681 E2.0890
G1 X125.932 Y102.666 E2.0925
G1 X126.622 Y102.236 E2.1947
G1 X126.651 Y102.220 E2.1988
G1 X129.612 Y100.510 E2.6287
G1 X129.634 Y100.497 E2.6319
G1 X130.542 Y100.004 E2.7619
G1 X130.573 Y99.988 E2.7662
G1 X134.062 Y98.251 E3.2563
G1 X134.114 Y98.227 E3.2634
G1 X138.060 Y96.540 E3.8030
G1 X138.112 Y96.519 E3.8101
G1 X141.870 Y95.165 E4.3123
G1 X141.901 Y95.154 E4.3163
G1 X142.676 Y94.903 E4.4188
G1 X142.704 Y94.895 E4.4225
G1 X146.503 Y93.793 E4.9198
G1 X146.558 Y93.779 E4.9269
G1 X150.758 Y92.822 E5.4684
G1 X150.815 Y92.811 E5.4757
G1 X155.094 Y92.100 E6.0211
G1 X155.150 Y92.092 E6.0282
G1 X159.136 Y91.667 E6.5322
G1 X159.191 Y91.663 E6.5392
G1 X163.403 Y91.453 E7.0693
G1 X163.434 Y91.452 E7.0733
G1 X164.286 Y91.437 E7.1804
G1 X164.320 Y91.437 E7.1846
G1 X168.296 Y91.504 E7.6846
G1 X168.353 Y91.507 E7.6918
G1 X172.661 Y91.830 E8.2349
G1 X172.719 Y91.836 E8.2423
G1 X177.009 Y92.417 E8.7865
G1 X177.065 Y92.426 E8.7936
G1 X180.965 Y93.187 E9.2932
G1 X180.997 Y93.194 E9.2974
G1 X181.828 Y93.386 E9.4045
G1 X181.858 Y93.393 E9.4084
G1 X185.934 Y94.474 E9.9386
G1 X185.987 Y94.490 E9.9455
G1 X189.800 Y95.736 E10.4499
G1 X189.853 Y95.755 E10.4570
G1 X193.876 Y97.334 E11.0003
G1 X193.929 Y97.356 E11.0076
G1 X197.849 Y99.171 E11.5506
G1 X197.900 Y99.196 E11.5577
G1 X201.388 Y101.065 E12.0553
G1 X201.416 Y101.080 E12.0592
G1 X202.152 Y101.505 E12.1662
G1 X202.179 Y101.521 E12.1701
G1 X205.540 Y103.608 E12.6675
G1 X205.588 Y103.639 E12.6746
G1 X209.103 Y106.114 E13.2151
G1 X209.151 Y106.151 E13.2228
G1 X212.806 Y109.084 E13.8119
G1 X212.849 Y109.120 E13.8189
G1 X215.398 Y111.415 E14.2502
G1 X215.417 Y111.432 E14.2534
G1 X216.167 Y112.144 E14.3834
G1 X216.191 Y112.168 E14.3877
G1 X218.922 Y114.950 E14.8778
G1 X218.960 Y114.992 E14.8849
G1 X221.809 Y118.253 E15.4294
G1 X221.846 Y118.298 E15.4367
G1 X224.490 Y121.717 E15.9800
G1 X224.524 Y121.762 E15.9871
G1 X226.707 Y124.952 E16.4732
G1 X226.725 Y124.979 E16.4772
