; G-Code generated by Simplify3D(R) Version 4.1.2
; Jun 4, 2020 at 12:12:39 AM
; Settings Summary
;   processName,Process1
;   applyToModels,RAmotorTubeHolder
;   profileName,X5S-PLA-Spring (modified)
;   profileVersion,2020-05-07 18:07:43
;   baseProfile,TRONXY X5S
;   printMaterial,PLA
;   printQuality,Medium
;   printExtruders,
;   extruderName,Primary Extruder
;   extruderToolheadNumber,0
;   extruderDiameter,0.4
;   extruderAutoWidth,0
;   extruderWidth,0.4
;   extrusionMultiplier,1.05
;   extruderUseRetract,1
;   extruderRetractionDistance,5
;   extruderExtraRestartDistance,-0.1
;   extruderRetractionZLift,0
;   extruderRetractionSpeed,4800
;   extruderUseCoasting,0
;   extruderCoastingDistance,0.2
;   extruderUseWipe,0
;   extruderWipeDistance,5
;   primaryExtruder,0
;   layerHeight,0.2
;   topSolidLayers,3
;   bottomSolidLayers,3
;   perimeterOutlines,5
;   printPerimetersInsideOut,0
;   startPointOption,2
;   startPointOriginX,0
;   startPointOriginY,0
;   sequentialIslands,0
;   spiralVaseMode,0
;   firstLayerHeightPercentage,120
;   firstLayerWidthPercentage,150
;   firstLayerUnderspeed,0.5
;   useRaft,0
;   raftExtruder,0
;   raftTopLayers,3
;   raftBaseLayers,2
;   raftOffset,0
;   raftSeparationDistance,0
;   raftTopInfill,100
;   aboveRaftSpeedMultiplier,0.3
;   useSkirt,1
;   skirtExtruder,0
;   skirtLayers,1
;   skirtOutlines,3
;   skirtOffset,0.15
;   usePrimePillar,0
;   primePillarExtruder,999
;   primePillarWidth,12
;   primePillarLocation,7
;   primePillarSpeedMultiplier,1
;   useOozeShield,0
;   oozeShieldExtruder,999
;   oozeShieldOffset,2
;   oozeShieldOutlines,1
;   oozeShieldSidewallShape,1
;   oozeShieldSidewallAngle,30
;   oozeShieldSpeedMultiplier,1
;   infillExtruder,0
;   internalInfillPattern,Rectilinear
;   externalInfillPattern,Rectilinear
;   infillPercentage,20
;   outlineOverlapPercentage,15
;   infillExtrusionWidthPercentage,100
;   minInfillLength,5
;   infillLayerInterval,1
;   internalInfillAngles,45,-45
;   overlapInternalInfillAngles,0
;   externalInfillAngles,45,-45
;   generateSupport,1
;   supportExtruder,0
;   supportInfillPercentage,30
;   supportExtraInflation,0
;   supportBaseLayers,1
;   denseSupportExtruder,0
;   denseSupportLayers,0
;   denseSupportInfillPercentage,70
;   supportLayerInterval,1
;   supportHorizontalPartOffset,0.3
;   supportUpperSeparationLayers,1
;   supportLowerSeparationLayers,1
;   supportType,0
;   supportGridSpacing,3
;   maxOverhangAngle,70
;   supportAngles,0
;   temperatureName,Primary Extruder,Heated Bed
;   temperatureNumber,0,0
;   temperatureSetpointCount,1,1
;   temperatureSetpointLayers,1,1
;   temperatureSetpointTemperatures,200,90
;   temperatureStabilizeAtStartup,1,1
;   temperatureHeatedBed,0,1
;   fanLayers,1,2
;   fanSpeeds,0,50
;   blipFanToFullPower,0
;   adjustSpeedForCooling,1
;   minSpeedLayerTime,15
;   minCoolingSpeedSlowdown,20
;   increaseFanForCooling,0
;   minFanLayerTime,45
;   maxCoolingFanSpeed,100
;   increaseFanForBridging,0
;   bridgingFanSpeed,100
;   use5D,1
;   relativeEdistances,0
;   allowEaxisZeroing,1
;   independentExtruderAxes,0
;   includeM10123,0
;   stickySupport,1
;   applyToolheadOffsets,0
;   gcodeXoffset,0
;   gcodeYoffset,0
;   gcodeZoffset,0
;   overrideMachineDefinition,1
;   machineTypeOverride,0
;   strokeXoverride,330
;   strokeYoverride,330
;   strokeZoverride,400
;   originOffsetXoverride,0
;   originOffsetYoverride,0
;   originOffsetZoverride,0
;   homeXdirOverride,-1
;   homeYdirOverride,-1
;   homeZdirOverride,-1
;   flipXoverride,1
;   flipYoverride,-1
;   flipZoverride,1
;   toolheadOffsets,0,0|0,0|0,0|0,0|0,0|0,0
;   overrideFirmwareConfiguration,1
;   firmwareTypeOverride,RepRap (Marlin/Repetier/Sprinter)
;   GPXconfigOverride,r2
;   baudRateOverride,250000
;   overridePrinterModels,1
;   printerModelsOverride
;   startingGcode,G28 ; home all axes,G1 Z0.2 F3000 ; get ready to prime,G92 E0 ; reset extrusion distance,G1 X100 E10 F600 ; prime nozzle
;   layerChangeGcode,
;   retractionGcode,
;   toolChangeGcode,
;   endingGcode,G28 X0 ; home x axis,M106 S0 ; turn off cooling fan,M104 S0 ; turn off extruder,M140 S0 ; turn off bed,M84 ; disable motors
;   exportFileFormat,gcode
;   celebration,0
;   celebrationSong,Funky Town
;   postProcessing,
;   defaultSpeed,3000
;   outlineUnderspeed,0.5
;   solidInfillUnderspeed,0.8
;   supportUnderspeed,0.8
;   rapidXYspeed,4800
;   rapidZspeed,1002
;   minBridgingArea,5
;   bridgingExtraInflation,2
;   bridgingExtrusionMultiplier,1
;   bridgingSpeedMultiplier,1
;   useFixedBridgingAngle,1
;   fixedBridgingAngle,0
;   applyBridgingToPerimeters,0
;   filamentDiameters,1.75|1.75|1.75|1.75|1.75|1.75
;   filamentPricesPerKg,46|46|46|46|46|46
;   filamentDensities,1.25|1.25|1.25|1.25|1.25|1.25
;   useMinPrintHeight,0
;   minPrintHeight,0
;   useMaxPrintHeight,0
;   maxPrintHeight,10
;   useDiaphragm,0
;   diaphragmLayerInterval,20
;   robustSlicing,1
;   mergeAllIntoSolid,0
;   onlyRetractWhenCrossingOutline,1
;   retractBetweenLayers,1
;   useRetractionMinTravel,0
;   retractionMinTravel,3
;   retractWhileWiping,0
;   onlyWipeOutlines,1
;   avoidCrossingOutline,0
;   maxMovementDetourFactor,3
;   toolChangeRetractionDistance,12
;   toolChangeExtraRestartDistance,-0.5
;   toolChangeRetractionSpeed,600
;   externalThinWallType,0
;   internalThinWallType,2
;   thinWallAllowedOverlapPercentage,10
;   singleExtrusionMinLength,1
;   singleExtrusionMinPrintingWidthPercentage,50
;   singleExtrusionMaxPrintingWidthPercentage,200
;   singleExtrusionEndpointExtension,0.2
;   horizontalSizeCompensation,0
G90
M82
M106 S0
M140 S90
M190 S90
M104 S200 T0
M109 S200 T0
G28 ; home all axes
G1 Z0.2 F3000 ; get ready to prime
G92 E0 ; reset extrusion distance
G1 X100 E10 F600 ; prime nozzle
; process Process1
; layer 1, Z = 0.240
T0
G92 E0.0000
G1 E-5.0000 F4800
; feature skirt
; tool H0.240 W0.600
G1 Z0.240 F1002
G1 X128.117 Y70.485 F4800
G1 E-0.1000 F4800
G92 E0.0000
G1 X201.883 Y70.485 E4.6371 F1500
G1 X202.850 Y71.451 E4.7230
G1 X202.850 Y74.968 E4.9441
G1 X223.443 Y175.695 E11.4069
G1 X223.446 Y175.710 E11.4079
G1 X223.857 Y177.940 E11.5504
G1 X223.862 Y177.971 E11.5524
G1 X224.188 Y180.222 E11.6954
G1 X224.192 Y180.254 E11.6974
G1 X224.430 Y182.516 E11.8404
G1 X224.433 Y182.548 E11.8424
G1 X224.583 Y184.817 E11.9854
G1 X224.585 Y184.849 E11.9874
G1 X224.648 Y187.123 E12.1304
G1 X224.648 Y187.155 E12.1324
G1 X224.623 Y189.429 E12.2754
G1 X224.622 Y189.461 E12.2774
G1 X224.509 Y191.733 E12.4204
G1 X224.507 Y191.765 E12.4224
G1 X224.306 Y194.031 E12.5654
G1 X224.303 Y194.063 E12.5674
G1 X224.014 Y196.319 E12.7104
G1 X224.010 Y196.351 E12.7124
G1 X223.635 Y198.594 E12.8554
G1 X223.629 Y198.625 E12.8574
G1 X223.167 Y200.853 E13.0003
G1 X223.160 Y200.884 E13.0024
G1 X222.613 Y203.092 E13.1454
G1 X222.604 Y203.123 E13.1474
G1 X221.972 Y205.307 E13.2903
G1 X221.963 Y205.338 E13.2923
G1 X221.246 Y207.497 E13.4353
G1 X221.235 Y207.527 E13.4373
G1 X220.436 Y209.656 E13.5803
G1 X220.425 Y209.686 E13.5823
G1 X219.543 Y211.784 E13.7253
G1 X219.530 Y211.813 E13.7273
G1 X218.569 Y213.874 E13.8703
G1 X218.555 Y213.903 E13.8723
G1 X217.515 Y215.925 E14.0153
G1 X217.499 Y215.953 E14.0173
G1 X216.382 Y217.934 E14.1603
G1 X216.365 Y217.962 E14.1623
G1 X215.172 Y219.898 E14.3053
G1 X215.154 Y219.925 E14.3073
G1 X213.887 Y221.814 E14.4503
G1 X213.869 Y221.840 E14.4523
G1 X212.529 Y223.678 E14.5953
G1 X212.510 Y223.704 E14.5973
G1 X211.100 Y225.489 E14.7403
G1 X211.080 Y225.513 E14.7423
G1 X209.602 Y227.243 E14.8853
G1 X209.581 Y227.267 E14.8873
G1 X208.037 Y228.937 E15.0303
G1 X208.015 Y228.960 E15.0323
G1 X206.409 Y230.570 E15.1752
G1 X206.386 Y230.592 E15.1772
G1 X204.718 Y232.139 E15.3202
G1 X204.694 Y232.160 E15.3222
G1 X202.968 Y233.641 E15.4652
G1 X202.943 Y233.661 E15.4672
G1 X201.161 Y235.075 E15.6102
G1 X201.135 Y235.094 E15.6122
G1 X199.299 Y236.438 E15.7553
G1 X199.273 Y236.456 E15.7573
G1 X197.387 Y237.727 E15.9002
G1 X197.360 Y237.744 E15.9022
G1 X195.426 Y238.941 E16.0452
G1 X195.399 Y238.958 E16.0472
G1 X193.420 Y240.080 E16.1902
G1 X193.392 Y240.095 E16.1922
G1 X191.371 Y241.139 E16.3352
G1 X191.342 Y241.153 E16.3372
G1 X189.283 Y242.119 E16.4802
G1 X189.254 Y242.131 E16.4822
G1 X187.158 Y243.017 E16.6252
G1 X187.128 Y243.029 E16.6272
G1 X185.001 Y243.832 E16.7702
G1 X184.971 Y243.843 E16.7722
G1 X182.813 Y244.563 E16.9152
G1 X182.782 Y244.573 E16.9172
G1 X180.599 Y245.209 E17.0602
G1 X180.568 Y245.218 E17.0622
G1 X178.361 Y245.769 E17.2052
G1 X178.330 Y245.776 E17.2072
G1 X176.104 Y246.242 E17.3502
G1 X176.072 Y246.248 E17.3522
G1 X173.829 Y246.628 E17.4952
G1 X173.798 Y246.633 E17.4972
G1 X172.996 Y246.737 E17.5480
G1 X172.996 Y255.901 E18.1241
G1 X172.993 Y255.973 E18.1286
G1 X172.953 Y256.428 E18.1573
G1 X172.928 Y256.570 E18.1664
G1 X172.800 Y257.046 E18.1974
G1 X172.751 Y257.181 E18.2064
G1 X172.543 Y257.628 E18.2374
G1 X172.471 Y257.753 E18.2465
G1 X172.188 Y258.156 E18.2774
G1 X172.096 Y258.266 E18.2865
G1 X171.747 Y258.615 E18.3175
G1 X171.637 Y258.707 E18.3265
G1 X171.233 Y258.990 E18.3575
G1 X171.108 Y259.062 E18.3665
G1 X170.662 Y259.270 E18.3975
G1 X170.526 Y259.320 E18.4066
G1 X170.051 Y259.447 E18.4375
G1 X169.909 Y259.472 E18.4466
G1 X169.454 Y259.512 E18.4753
G1 X169.382 Y259.515 E18.4798
G1 X166.515 Y259.515 E18.6600
G1 X165.549 Y258.549 E18.7460
G1 X165.549 Y240.936 E19.8531
G1 X166.445 Y239.983 E19.9354
G1 X169.250 Y239.812 E20.1120
G1 X171.362 Y239.597 E20.2454
G1 X173.463 Y239.296 E20.3789
G1 X175.549 Y238.911 E20.5123
G1 X177.620 Y238.441 E20.6457
G1 X179.668 Y237.888 E20.7791
G1 X181.694 Y237.251 E20.9125
G1 X183.691 Y236.534 E21.0459
G1 X185.658 Y235.736 E21.1794
G1 X187.591 Y234.859 E21.3128
G1 X189.486 Y233.905 E21.4462
G1 X191.342 Y232.874 E21.5796
G1 X193.154 Y231.769 E21.7131
G1 X194.920 Y230.592 E21.8465
G1 X196.637 Y229.343 E21.9799
G1 X198.301 Y228.027 E22.1133
G1 X199.911 Y226.644 E22.2468
G1 X201.463 Y225.197 E22.3801
G1 X202.957 Y223.687 E22.5136
G1 X204.387 Y222.120 E22.6470
G1 X205.752 Y220.494 E22.7804
G1 X207.050 Y218.816 E22.9138
G1 X208.280 Y217.086 E23.0473
G1 X209.438 Y215.307 E23.1807
G1 X210.523 Y213.483 E23.3141
G1 X211.534 Y211.616 E23.4476
G1 X212.467 Y209.711 E23.5809
G1 X213.323 Y207.768 E23.7144
G1 X214.100 Y205.793 E23.8478
G1 X214.795 Y203.788 E23.9812
G1 X215.409 Y201.756 E24.1146
G1 X215.940 Y199.701 E24.2480
G1 X216.387 Y197.626 E24.3815
G1 X216.750 Y195.535 E24.5149
G1 X217.028 Y193.431 E24.6483
G1 X217.220 Y191.317 E24.7818
G1 X217.326 Y189.197 E24.9152
G1 X217.347 Y187.075 E25.0486
G1 X217.281 Y184.954 E25.1820
G1 X217.129 Y182.836 E25.3154
G1 X216.892 Y180.727 E25.4488
G1 X216.569 Y178.629 E25.5823
G1 X216.162 Y176.547 E25.7157
G1 X215.670 Y174.482 E25.8491
G1 X215.095 Y172.438 E25.9825
G1 X214.438 Y170.421 E26.1159
G1 X213.700 Y168.430 E26.2494
G1 X212.882 Y166.472 E26.3828
G1 X211.984 Y164.549 E26.5162
G1 X211.010 Y162.663 E26.6496
G1 X209.960 Y160.818 E26.7831
G1 X208.836 Y159.018 E26.9165
G1 X207.640 Y157.265 E27.0499
G1 X206.374 Y155.561 E27.1833
G1 X205.039 Y153.910 E27.3168
G1 X203.640 Y152.316 E27.4501
G1 X202.176 Y150.778 E27.5836
G1 X200.651 Y149.301 E27.7170
G1 X199.069 Y147.888 E27.8504
G1 X197.429 Y146.540 E27.9838
G1 X195.737 Y145.259 E28.1173
G1 X193.993 Y144.047 E28.2507
G1 X192.204 Y142.908 E28.3841
G1 X190.367 Y141.842 E28.5176
G1 X188.491 Y140.852 E28.6509
G1 X186.575 Y139.938 E28.7844
G1 X184.624 Y139.103 E28.9178
G1 X182.640 Y138.347 E29.0512
G1 X180.628 Y137.672 E29.1846
G1 X178.590 Y137.080 E29.3180
G1 X176.530 Y136.571 E29.4515
G1 X174.450 Y136.145 E29.5849
G1 X172.355 Y135.805 E29.7183
G1 X170.248 Y135.549 E29.8518
G1 X168.133 Y135.379 E29.9851
G1 X166.012 Y135.295 E30.1186
G1 X163.889 Y135.297 E30.2520
G1 X161.769 Y135.385 E30.3854
G1 X159.653 Y135.559 E30.5188
G1 X157.547 Y135.819 E30.6523
G1 X155.453 Y136.163 E30.7857
G1 X153.374 Y136.593 E30.9191
G1 X151.314 Y137.106 E31.0525
G1 X149.277 Y137.702 E31.1859
G1 X147.266 Y138.380 E31.3194
G1 X145.284 Y139.140 E31.4528
G1 X143.335 Y139.979 E31.5862
G1 X141.421 Y140.896 E31.7196
G1 X139.546 Y141.890 E31.8530
G1 X137.712 Y142.960 E31.9865
G1 X135.924 Y144.102 E32.1199
G1 X134.183 Y145.317 E32.2533
G1 X132.493 Y146.601 E32.3867
G1 X130.857 Y147.952 E32.5201
G1 X129.276 Y149.369 E32.6536
G1 X127.754 Y150.848 E32.7870
G1 X126.294 Y152.388 E32.9204
G1 X124.897 Y153.986 E33.0538
G1 X123.566 Y155.640 E33.1873
G1 X122.303 Y157.345 E33.3207
G1 X121.110 Y159.101 E33.4541
G1 X119.990 Y160.903 E33.5875
G1 X118.943 Y162.750 E33.7210
G1 X117.972 Y164.637 E33.8543
G1 X117.079 Y166.563 E33.9878
G1 X116.264 Y168.523 E34.1212
G1 X115.529 Y170.514 E34.2546
G1 X114.876 Y172.534 E34.3881
G1 X114.305 Y174.577 E34.5215
G1 X113.817 Y176.643 E34.6549
G1 X113.414 Y178.727 E34.7883
G1 X113.095 Y180.826 E34.9217
G1 X112.862 Y182.935 E35.0551
G1 X112.714 Y185.052 E35.1886
G1 X112.652 Y187.174 E35.3220
G1 X112.677 Y189.296 E35.4554
G1 X112.787 Y191.416 E35.5888
G1 X112.983 Y193.529 E35.7222
G1 X113.265 Y195.632 E35.8557
G1 X113.632 Y197.723 E35.9891
G1 X114.083 Y199.797 E36.1225
G1 X114.618 Y201.851 E36.2560
G1 X115.235 Y203.882 E36.3894
G1 X115.935 Y205.886 E36.5228
G1 X116.715 Y207.860 E36.6562
G1 X117.574 Y209.800 E36.7896
G1 X118.512 Y211.704 E36.9230
G1 X119.526 Y213.569 E37.0565
G1 X120.614 Y215.391 E37.1899
G1 X121.776 Y217.168 E37.3233
G1 X123.008 Y218.895 E37.4567
G1 X124.310 Y220.572 E37.5902
G1 X125.679 Y222.194 E37.7236
G1 X127.112 Y223.759 E37.8570
G1 X128.607 Y225.266 E37.9904
G1 X130.163 Y226.710 E38.1238
G1 X131.775 Y228.090 E38.2572
G1 X133.442 Y229.403 E38.3907
G1 X135.162 Y230.648 E38.5241
G1 X136.929 Y231.822 E38.6575
G1 X138.744 Y232.924 E38.7909
G1 X140.601 Y233.951 E38.9243
G1 X142.499 Y234.902 E39.0578
G1 X144.433 Y235.775 E39.1912
G1 X146.402 Y236.569 E39.3246
G1 X148.400 Y237.283 E39.4580
G1 X150.427 Y237.915 E39.5915
G1 X152.477 Y238.464 E39.7249
G1 X154.547 Y238.930 E39.8583
G1 X156.635 Y239.312 E39.9917
G1 X158.737 Y239.608 E40.1251
G1 X160.849 Y239.820 E40.2586
G1 X163.655 Y239.986 E40.4353
G1 X164.553 Y240.939 E40.5176
G1 X164.553 Y258.549 E41.6246
G1 X163.587 Y259.515 E41.7105
G1 X160.618 Y259.515 E41.8971
G1 X160.546 Y259.512 E41.9017
G1 X160.091 Y259.472 E41.9304
G1 X159.949 Y259.447 E41.9394
G1 X159.474 Y259.320 E41.9704
G1 X159.338 Y259.270 E41.9794
G1 X158.892 Y259.062 E42.0104
G1 X158.767 Y258.990 E42.0195
G1 X158.363 Y258.708 E42.0504
G1 X158.253 Y258.615 E42.0595
G1 X157.904 Y258.266 E42.0905
G1 X157.812 Y258.156 E42.0995
G1 X157.529 Y257.752 E42.1305
G1 X157.457 Y257.628 E42.1396
G1 X157.249 Y257.181 E42.1705
G1 X157.200 Y257.046 E42.1796
G1 X157.072 Y256.570 E42.2106
G1 X157.047 Y256.428 E42.2196
G1 X157.007 Y255.973 E42.2483
G1 X157.004 Y255.901 E42.2528
G1 X157.004 Y246.737 E42.8290
G1 X156.202 Y246.633 E42.8798
G1 X156.171 Y246.628 E42.8818
G1 X153.928 Y246.248 E43.0248
G1 X153.896 Y246.242 E43.0268
G1 X151.670 Y245.776 E43.1698
G1 X151.639 Y245.769 E43.1718
G1 X149.432 Y245.218 E43.3148
G1 X149.401 Y245.209 E43.3168
G1 X147.217 Y244.573 E43.4598
G1 X147.187 Y244.563 E43.4618
G1 X145.029 Y243.843 E43.6048
G1 X144.999 Y243.832 E43.6068
G1 X142.872 Y243.029 E43.7498
G1 X142.842 Y243.017 E43.7518
G1 X140.746 Y242.131 E43.8948
G1 X140.717 Y242.119 E43.8968
G1 X138.658 Y241.153 E44.0397
G1 X138.629 Y241.139 E44.0417
G1 X136.608 Y240.095 E44.1847
G1 X136.580 Y240.080 E44.1867
G1 X134.601 Y238.958 E44.3298
G1 X134.573 Y238.941 E44.3318
G1 X132.640 Y237.744 E44.4747
G1 X132.613 Y237.727 E44.4767
G1 X130.727 Y236.456 E44.6197
G1 X130.701 Y236.438 E44.6217
G1 X128.865 Y235.094 E44.7647
G1 X128.839 Y235.075 E44.7668
G1 X127.057 Y233.661 E44.9097
G1 X127.032 Y233.641 E44.9117
G1 X125.306 Y232.160 E45.0547
G1 X125.282 Y232.139 E45.0567
G1 X123.614 Y230.592 E45.1997
G1 X123.591 Y230.570 E45.2017
G1 X121.985 Y228.960 E45.3447
G1 X121.963 Y228.937 E45.3467
G1 X120.419 Y227.267 E45.4897
G1 X120.398 Y227.243 E45.4917
G1 X118.920 Y225.513 E45.6347
G1 X118.900 Y225.489 E45.6367
G1 X117.490 Y223.704 E45.7797
G1 X117.471 Y223.678 E45.7817
G1 X116.131 Y221.840 E45.9247
G1 X116.113 Y221.814 E45.9267
