; G-Code generated by Simplify3D(R) Version 4.1.2
; Jun 4, 2020 at 9:44:37 AM
; Settings Summary
;   processName,Process1
;   applyToModels,RAWheelHolder
;   profileName,X5S-PLA-Spring (modified)
;   profileVersion,2020-05-07 18:07:43
;   baseProfile,TRONXY X5S
;   printMaterial,PLA
;   printQuality,Medium
;   printExtruders,
;   extruderName,Primary Extruder
;   extruderToolheadNumber,0
;   extruderDiameter,0.4
;   extruderAutoWidth,0
;   extruderWidth,0.4
;   extrusionMultiplier,1.05
;   extruderUseRetract,1
;   extruderRetractionDistance,5
;   extruderExtraRestartDistance,-0.1
;   extruderRetractionZLift,0
;   extruderRetractionSpeed,4800
;   extruderUseCoasting,0
;   extruderCoastingDistance,0.2
;   extruderUseWipe,0
;   extruderWipeDistance,5
;   primaryExtruder,0
;   layerHeight,0.2
;   topSolidLayers,3
;   bottomSolidLayers,3
;   perimeterOutlines,5
;   printPerimetersInsideOut,0
;   startPointOption,2
;   startPointOriginX,0
;   startPointOriginY,0
;   sequentialIslands,0
;   spiralVaseMode,0
;   firstLayerHeightPercentage,120
;   firstLayerWidthPercentage,150
;   firstLayerUnderspeed,0.5
;   useRaft,0
;   raftExtruder,0
;   raftTopLayers,3
;   raftBaseLayers,2
;   raftOffset,0
;   raftSeparationDistance,0
;   raftTopInfill,100
;   aboveRaftSpeedMultiplier,0.3
;   useSkirt,1
;   skirtExtruder,0
;   skirtLayers,1
;   skirtOutlines,3
;   skirtOffset,0.15
;   usePrimePillar,0
;   primePillarExtruder,999
;   primePillarWidth,12
;   primePillarLocation,7
;   primePillarSpeedMultiplier,1
;   useOozeShield,0
;   oozeShieldExtruder,999
;   oozeShieldOffset,2
;   oozeShieldOutlines,1
;   oozeShieldSidewallShape,1
;   oozeShieldSidewallAngle,30
;   oozeShieldSpeedMultiplier,1
;   infillExtruder,0
;   internalInfillPattern,Rectilinear
;   externalInfillPattern,Rectilinear
;   infillPercentage,20
;   outlineOverlapPercentage,15
;   infillExtrusionWidthPercentage,100
;   minInfillLength,5
;   infillLayerInterval,1
;   internalInfillAngles,45,-45
;   overlapInternalInfillAngles,0
;   externalInfillAngles,45,-45
;   generateSupport,1
;   supportExtruder,0
;   supportInfillPercentage,30
;   supportExtraInflation,0
;   supportBaseLayers,1
;   denseSupportExtruder,0
;   denseSupportLayers,0
;   denseSupportInfillPercentage,70
;   supportLayerInterval,1
;   supportHorizontalPartOffset,0.3
;   supportUpperSeparationLayers,1
;   supportLowerSeparationLayers,1
;   supportType,0
;   supportGridSpacing,3
;   maxOverhangAngle,70
;   supportAngles,0
;   temperatureName,Primary Extruder,Heated Bed
;   temperatureNumber,0,0
;   temperatureSetpointCount,1,1
;   temperatureSetpointLayers,1,1
;   temperatureSetpointTemperatures,200,90
;   temperatureStabilizeAtStartup,1,1
;   temperatureHeatedBed,0,1
;   fanLayers,1,2
;   fanSpeeds,0,50
;   blipFanToFullPower,0
;   adjustSpeedForCooling,1
;   minSpeedLayerTime,15
;   minCoolingSpeedSlowdown,20
;   increaseFanForCooling,0
;   minFanLayerTime,45
;   maxCoolingFanSpeed,100
;   increaseFanForBridging,0
;   bridgingFanSpeed,100
;   use5D,1
;   relativeEdistances,0
;   allowEaxisZeroing,1
;   independentExtruderAxes,0
;   includeM10123,0
;   stickySupport,1
;   applyToolheadOffsets,0
;   gcodeXoffset,0
;   gcodeYoffset,0
;   gcodeZoffset,0
;   overrideMachineDefinition,1
;   machineTypeOverride,0
;   strokeXoverride,330
;   strokeYoverride,330
;   strokeZoverride,400
;   originOffsetXoverride,0
;   originOffsetYoverride,0
;   originOffsetZoverride,0
;   homeXdirOverride,-1
;   homeYdirOverride,-1
;   homeZdirOverride,-1
;   flipXoverride,1
;   flipYoverride,-1
;   flipZoverride,1
;   toolheadOffsets,0,0|0,0|0,0|0,0|0,0|0,0
;   overrideFirmwareConfiguration,1
;   firmwareTypeOverride,RepRap (Marlin/Repetier/Sprinter)
;   GPXconfigOverride,r2
;   baudRateOverride,250000
;   overridePrinterModels,1
;   printerModelsOverride
;   startingGcode,G28 ; home all axes,G1 Z0.2 F3000 ; get ready to prime,G92 E0 ; reset extrusion distance,G1 X100 E10 F600 ; prime nozzle
;   layerChangeGcode,
;   retractionGcode,
;   toolChangeGcode,
;   endingGcode,G28 X0 ; home x axis,M106 S0 ; turn off cooling fan,M104 S0 ; turn off extruder,M140 S0 ; turn off bed,M84 ; disable motors
;   exportFileFormat,gcode
;   celebration,0
;   celebrationSong,Funky Town
;   postProcessing,
;   defaultSpeed,3000
;   outlineUnderspeed,0.5
;   solidInfillUnderspeed,0.8
;   supportUnderspeed,0.8
;   rapidXYspeed,4800
;   rapidZspeed,1002
;   minBridgingArea,5
;   bridgingExtraInflation,2
;   bridgingExtrusionMultiplier,1
;   bridgingSpeedMultiplier,1
;   useFixedBridgingAngle,1
;   fixedBridgingAngle,0
;   applyBridgingToPerimeters,0
;   filamentDiameters,1.75|1.75|1.75|1.75|1.75|1.75
;   filamentPricesPerKg,46|46|46|46|46|46
;   filamentDensities,1.25|1.25|1.25|1.25|1.25|1.25
;   useMinPrintHeight,0
;   minPrintHeight,0
;   useMaxPrintHeight,0
;   maxPrintHeight,10
;   useDiaphragm,0
;   diaphragmLayerInterval,20
;   robustSlicing,1
;   mergeAllIntoSolid,0
;   onlyRetractWhenCrossingOutline,1
;   retractBetweenLayers,1
;   useRetractionMinTravel,0
;   retractionMinTravel,3
;   retractWhileWiping,0
;   onlyWipeOutlines,1
;   avoidCrossingOutline,0
;   maxMovementDetourFactor,3
;   toolChangeRetractionDistance,12
;   toolChangeExtraRestartDistance,-0.5
;   toolChangeRetractionSpeed,600
;   externalThinWallType,0
;   internalThinWallType,2
;   thinWallAllowedOverlapPercentage,10
;   singleExtrusionMinLength,1
;   singleExtrusionMinPrintingWidthPercentage,50
;   singleExtrusionMaxPrintingWidthPercentage,200
;   singleExtrusionEndpointExtension,0.2
;   horizontalSizeCompensation,0
G90
M82
M106 S0
M140 S90
M190 S90
M104 S200 T0
M109 S200 T0
G28 ; home all axes
G1 Z0.2 F3000 ; get ready to prime
G92 E0 ; reset extrusion distance
G1 X100 E10 F600 ; prime nozzle
; process Process1
; layer 1, Z = 0.240
T0
G92 E0.0000
G1 E-5.0000 F4800
; feature skirt
; tool H0.240 W0.600
G1 Z0.240 F1002
G1 X149.610 Y146.954 F4800
G1 E-0.1000 F4800
G92 E0.0000
G1 X150.931 Y146.600 E0.0859 F1500
G1 X152.891 Y147.732 E0.2282
G1 X153.312 Y148.813 E0.3011
G1 X153.018 Y149.745 E0.3626
G1 X152.978 Y150.012 E0.3795
G1 X152.994 Y150.466 E0.4081
G1 X153.048 Y150.708 E0.4237
G1 X153.137 Y150.937 E0.4391
G1 X153.390 Y151.341 E0.4691
G1 X153.557 Y151.521 E0.4845
G1 X153.774 Y151.694 E0.5020
G1 X188.720 Y171.882 E3.0389
G1 X189.073 Y173.202 E3.1248
G1 X183.390 Y183.046 E3.8394
G1 X182.070 Y183.400 E3.9253
G1 X147.114 Y163.230 E6.4622
G1 X146.857 Y163.129 E6.4796
G1 X146.612 Y163.074 E6.4954
G1 X146.140 Y163.057 E6.5250
G1 X145.928 Y163.090 E6.5385
G1 X145.479 Y163.249 E6.5685
G1 X145.266 Y163.373 E6.5839
G1 X145.051 Y163.547 E6.6014
G1 X144.388 Y164.270 E6.6630
G1 X143.241 Y164.446 E6.7360
G1 X141.281 Y163.314 E6.8783
G1 X140.927 Y161.994 E6.9642
G1 X149.610 Y146.954 E8.0559
G92 E0.0000
G1 E-5.0000 F4800
G1 X150.006 Y147.469 F4800
G1 E-0.1000 F4800
G92 E0.0000
G1 X150.846 Y147.244 E0.0547 F1500
G1 X152.408 Y148.146 E0.1681
G1 X152.676 Y148.834 E0.2145
G1 X152.432 Y149.609 E0.2656
G1 X152.376 Y149.978 E0.2890
G1 X152.396 Y150.543 E0.3246
G1 X152.473 Y150.883 E0.3465
G1 X152.599 Y151.207 E0.3683
G1 X152.911 Y151.707 E0.4054
G1 X153.147 Y151.962 E0.4272
G1 X153.434 Y152.191 E0.4503
G1 X188.204 Y172.277 E2.9745
G1 X188.429 Y173.117 E3.0292
G1 X182.994 Y182.531 E3.7125
G1 X182.154 Y182.756 E3.7671
G1 X147.375 Y162.687 E6.2913
G1 X147.033 Y162.554 E6.3144
G1 X146.689 Y162.476 E6.3366
G1 X146.105 Y162.456 E6.3733
G1 X145.781 Y162.505 E6.3939
G1 X145.225 Y162.702 E6.4310
G1 X144.925 Y162.877 E6.4528
G1 X144.639 Y163.108 E6.4759
G1 X144.088 Y163.709 E6.5272
G1 X143.358 Y163.821 E6.5736
G1 X141.796 Y162.919 E6.6870
G1 X141.571 Y162.079 E6.7417
G1 X150.006 Y147.469 E7.8021
G92 E0.0000
G1 E-5.0000 F4800
G1 X150.401 Y147.984 F4800
G1 E-0.1000 F4800
G92 E0.0000
G1 X150.761 Y147.888 E0.0234 F1500
G1 X151.925 Y148.560 E0.1080
G1 X152.040 Y148.855 E0.1278
G1 X151.845 Y149.474 E0.1686
G1 X151.775 Y149.943 E0.1985
G1 X151.799 Y150.620 E0.2410
G1 X151.897 Y151.059 E0.2693
G1 X152.060 Y151.478 E0.2975
G1 X152.433 Y152.073 E0.3417
G1 X152.738 Y152.403 E0.3699
G1 X153.095 Y152.688 E0.3987
G1 X187.689 Y172.672 E2.9101
G1 X187.785 Y173.032 E2.9335
G1 X182.599 Y182.016 E3.5856
G1 X182.239 Y182.112 E3.6090
G1 X147.635 Y162.145 E6.1204
G1 X147.209 Y161.978 E6.1492
G1 X146.766 Y161.878 E6.1778
G1 X146.069 Y161.854 E6.2216
G1 X145.634 Y161.921 E6.2493
G1 X144.972 Y162.155 E6.2934
G1 X144.584 Y162.382 E6.3217
G1 X144.227 Y162.669 E6.3504
G1 X143.788 Y163.148 E6.3913
G1 X143.475 Y163.196 E6.4112
G1 X142.311 Y162.524 E6.4957
G1 X142.215 Y162.164 E6.5191
G1 X150.401 Y147.984 E7.5483
G92 E0.0000
G1 E-5.0000 F4800
; feature outer perimeter
G1 X150.807 Y148.781 F4800
G1 E-0.1000 F4800
G92 E0.0000
G1 X151.205 Y149.010 E0.0289 F750
G1 X151.114 Y149.298 E0.0478
G1 X151.059 Y149.585 E0.0662
G1 X151.024 Y149.901 E0.0862
G1 X151.022 Y150.432 E0.1196
G1 X151.054 Y150.727 E0.1382
G1 X151.178 Y151.278 E0.1737
G1 X151.383 Y151.806 E0.2093
G1 X151.535 Y152.091 E0.2297
G1 X151.838 Y152.535 E0.2634
G1 X152.226 Y152.954 E0.2993
G1 X152.671 Y153.310 E0.3352
G1 X186.893 Y173.079 E2.8195
G1 X182.193 Y181.219 E3.4104
G1 X147.961 Y161.467 E5.8948
G1 X147.435 Y161.261 E5.9303
G1 X147.154 Y161.186 E5.9486
G1 X146.862 Y161.132 E5.9673
G1 X146.310 Y161.092 E6.0021
G1 X146.014 Y161.104 E6.0207
G1 X145.461 Y161.189 E6.0559
G1 X145.175 Y161.266 E6.0745
G1 X144.650 Y161.475 E6.1100
G1 X144.157 Y161.762 E6.1459
G1 X143.713 Y162.121 E6.1818
G1 X143.505 Y162.347 E6.2011
G1 X143.107 Y162.117 E6.2300
G1 X150.807 Y148.781 E7.1980
; feature inner perimeter
G1 X150.422 Y150.649 F4800
G92 E0.0000
G1 X150.602 Y151.454 E0.0519 F1125
G1 X150.837 Y152.057 E0.0925
G1 X151.021 Y152.402 E0.1172
G1 X151.368 Y152.910 E0.1558
G1 X151.816 Y153.394 E0.1973
G1 X152.332 Y153.807 E0.2388
G1 X186.073 Y173.298 E2.6883
G1 X181.973 Y180.400 E3.2038
G1 X148.222 Y160.925 E5.6533
G1 X147.623 Y160.690 E5.6938
G1 X147.286 Y160.601 E5.7157
G1 X146.939 Y160.536 E5.7379
G1 X146.320 Y160.491 E5.7769
G1 X145.956 Y160.506 E5.7998
G1 X145.336 Y160.601 E5.8392
G1 X144.553 Y160.814 E5.8902
G1 X150.422 Y150.649 E6.6281
G1 X150.226 Y152.187 F4800
G92 E0.0000
G1 X150.507 Y152.713 E0.0375 F1125
G1 X150.897 Y153.285 E0.0810
G1 X151.406 Y153.835 E0.1281
G1 X151.993 Y154.304 E0.1753
G1 X179.668 Y170.291 E2.1844
G1 X178.802 Y170.430 E2.2396
G1 X178.454 Y170.519 E2.2622
G1 X178.115 Y170.640 E2.2848
G1 X177.788 Y170.791 E2.3074
G1 X177.477 Y170.970 E2.3300
G1 X177.183 Y171.178 E2.3526
G1 X176.909 Y171.411 E2.3752
G1 X176.658 Y171.668 E2.3978
G1 X176.431 Y171.947 E2.4205
G1 X176.230 Y172.246 E2.4431
G1 X176.057 Y172.561 E2.4657
G1 X175.914 Y172.891 E2.4883
G1 X175.801 Y173.233 E2.5109
G1 X175.720 Y173.583 E2.5335
G1 X175.671 Y173.940 E2.5561
G1 X175.655 Y174.299 E2.5787
G1 X175.671 Y174.658 E2.6014
G1 X175.720 Y175.015 E2.6240
G1 X175.802 Y175.367 E2.6467
G1 X176.123 Y176.331 E2.7106
G1 X148.483 Y160.383 E4.7165
G1 X147.810 Y160.119 E4.7620
G1 X147.419 Y160.015 E4.7874
G1 X147.015 Y159.940 E4.8132
G1 X146.330 Y159.890 E4.8564
G1 X145.766 Y159.913 E4.8919
G1 X150.226 Y152.187 E5.4527
G1 X183.047 Y172.243 F4800
G92 E0.0000
G1 X185.254 Y173.518 E0.1602 F1125
G1 X181.753 Y179.580 E0.6003
G1 X179.536 Y178.301 E0.7612
G1 X180.553 Y178.137 E0.8260
G1 X180.930 Y178.022 E0.8507
G1 X181.263 Y177.887 E0.8734
G1 X181.582 Y177.721 E0.8960
G1 X181.885 Y177.527 E0.9186
G1 X182.169 Y177.307 E0.9412
G1 X182.432 Y177.061 E0.9638
G1 X182.672 Y176.793 E0.9864
G1 X182.886 Y176.504 E1.0090
G1 X183.073 Y176.196 E1.0316
G1 X183.231 Y175.873 E1.0543
G1 X183.359 Y175.537 E1.0769
G1 X183.456 Y175.191 E1.0995
G1 X183.521 Y174.837 E1.1221
G1 X183.554 Y174.479 E1.1447
G1 X183.554 Y174.119 E1.1673
G1 X183.521 Y173.761 E1.1899
G1 X183.456 Y173.407 E1.2125
G1 X183.359 Y173.061 E1.2352
G1 X183.047 Y172.243 E1.2902
G1 X178.011 Y170.027 F4800
G92 E0.0000
G1 X177.512 Y170.257 E0.0346 F1125
G1 X177.153 Y170.464 E0.0606
G1 X176.815 Y170.703 E0.0867
G1 X176.499 Y170.972 E0.1127
G1 X176.210 Y171.268 E0.1388
G1 X175.948 Y171.590 E0.1648
G1 X175.717 Y171.934 E0.1909
G1 X175.518 Y172.297 E0.2169
G1 X175.353 Y172.677 E0.2430
G1 X175.223 Y173.071 E0.2690
G1 X175.130 Y173.474 E0.2950
G1 X175.073 Y173.885 E0.3211
G1 X175.054 Y174.299 E0.3471
G1 X175.088 Y175.042 E0.3939
G1 X148.744 Y159.841 E2.3058
G1 X147.997 Y159.548 E2.3562
G1 X147.551 Y159.429 E2.3853
G1 X146.817 Y159.293 E2.4322
G1 X150.206 Y153.422 E2.8584
G1 X150.996 Y154.276 E2.9315
G1 X151.654 Y154.801 E2.9844
G1 X178.011 Y170.027 E4.8979
G1 X176.735 Y169.983 F4800
G92 E0.0000
G1 X176.089 Y170.533 E0.0534 F1125
G1 X175.761 Y170.869 E0.0829
G1 X175.465 Y171.233 E0.1123
G1 X175.204 Y171.622 E0.1418
G1 X174.979 Y172.033 E0.1713
G1 X174.792 Y172.463 E0.2008
G1 X174.645 Y172.909 E0.2303
G1 X174.539 Y173.366 E0.2598
G1 X174.454 Y173.983 E0.2989
G1 X149.005 Y159.298 E2.1459
G1 X148.185 Y158.977 E2.2013
G1 X147.757 Y158.863 E2.2291
G1 X150.319 Y154.427 E2.5511
G1 X150.587 Y154.716 E2.5759
G1 X151.315 Y155.298 E2.6345
G1 X176.735 Y169.983 E4.4800
; feature outer perimeter
G1 X178.124 Y171.982 F4800
G92 E0.0000
G1 X177.920 Y172.127 E0.0157 F750
G1 X177.729 Y172.289 E0.0315
G1 X177.554 Y172.468 E0.0472
G1 X177.396 Y172.662 E0.0630
G1 X177.256 Y172.870 E0.0787
G1 X177.136 Y173.090 E0.0944
G1 X177.037 Y173.319 E0.1102
G1 X176.958 Y173.557 E0.1259
G1 X176.902 Y173.801 E0.1416
G1 X176.867 Y174.049 E0.1574
G1 X176.856 Y174.299 E0.1731
G1 X176.867 Y174.549 E0.1889
G1 X176.902 Y174.797 E0.2046
G1 X176.958 Y175.041 E0.2204
G1 X177.039 Y175.285 E0.2365
G1 X177.136 Y175.508 E0.2518
G1 X177.256 Y175.728 E0.2675
G1 X177.396 Y175.936 E0.2833
G1 X177.554 Y176.130 E0.2990
G1 X177.729 Y176.309 E0.3148
G1 X177.920 Y176.471 E0.3305
G1 X178.124 Y176.616 E0.3462
G1 X178.341 Y176.741 E0.3620
G1 X178.568 Y176.846 E0.3777
G1 X178.804 Y176.930 E0.3934
G1 X179.047 Y176.992 E0.4092
G1 X179.294 Y177.032 E0.4249
G1 X179.544 Y177.049 E0.4407
G1 X179.801 Y177.043 E0.4568
G1 X180.281 Y176.966 E0.4874
G1 X180.527 Y176.891 E0.5036
G1 X180.759 Y176.796 E0.5193
G1 X180.982 Y176.681 E0.5351
G1 X181.192 Y176.546 E0.5508
G1 X181.390 Y176.392 E0.5665
G1 X181.573 Y176.222 E0.5823
G1 X181.740 Y176.035 E0.5980
G1 X181.889 Y175.834 E0.6138
G1 X182.019 Y175.620 E0.6295
G1 X182.129 Y175.395 E0.6452
G1 X182.218 Y175.161 E0.6610
G1 X182.286 Y174.920 E0.6767
G1 X182.331 Y174.674 E0.6924
G1 X182.354 Y174.424 E0.7082
G1 X182.354 Y174.174 E0.7239
G1 X182.331 Y173.925 E0.7397
G1 X182.286 Y173.678 E0.7554
G1 X182.218 Y173.437 E0.7711
G1 X182.129 Y173.203 E0.7869
G1 X182.019 Y172.978 E0.8026
G1 X181.889 Y172.765 E0.8183
G1 X181.740 Y172.563 E0.8341
G1 X181.573 Y172.377 E0.8498
G1 X181.390 Y172.206 E0.8656
G1 X181.192 Y172.052 E0.8813
G1 X180.982 Y171.917 E0.8970
G1 X180.759 Y171.802 E0.9128
G1 X180.527 Y171.708 E0.9285
G1 X180.288 Y171.635 E0.9443
G1 X180.043 Y171.584 E0.9600
G1 X179.794 Y171.555 E0.9757
G1 X179.544 Y171.549 E0.9915
G1 X179.294 Y171.567 E1.0072
G1 X179.047 Y171.606 E1.0229
G1 X178.804 Y171.668 E1.0387
G1 X178.568 Y171.752 E1.0544
G1 X178.341 Y171.857 E1.0702
G1 X178.124 Y171.982 E1.0859
; feature inner perimeter
G1 X177.801 Y171.476 F4800
G92 E0.0000
G1 X177.551 Y171.652 E0.0192 F1125
G1 X177.319 Y171.850 E0.0383
G1 X177.106 Y172.068 E0.0575
G1 X176.913 Y172.305 E0.0767
G1 X176.743 Y172.558 E0.0959
G1 X176.597 Y172.825 E0.1150
G1 X176.475 Y173.105 E0.1342
G1 X176.380 Y173.395 E0.1534
G1 X176.311 Y173.692 E0.1726
G1 X176.269 Y173.994 E0.1918
G1 X176.255 Y174.299 E0.2109
G1 X176.269 Y174.604 E0.2301
G1 X176.311 Y174.906 E0.2493
G1 X176.380 Y175.204 E0.2685
G1 X176.478 Y175.499 E0.2881
G1 X176.597 Y175.773 E0.3068
G1 X176.743 Y176.040 E0.3260
G1 X176.913 Y176.293 E0.3451
G1 X177.106 Y176.530 E0.3643
G1 X177.319 Y176.748 E0.3835
G1 X177.551 Y176.946 E0.4027
G1 X177.801 Y177.122 E0.4218
G1 X178.065 Y177.274 E0.4410
G1 X178.342 Y177.402 E0.4602
G1 X178.629 Y177.504 E0.4794
G1 X178.925 Y177.580 E0.4985
G1 X179.226 Y177.628 E0.5177
G1 X179.530 Y177.649 E0.5369
G1 X179.856 Y177.642 E0.5574
G1 X180.417 Y177.551 E0.5931
G1 X180.729 Y177.456 E0.6136
G1 X181.011 Y177.341 E0.6328
G1 X181.282 Y177.201 E0.6519
