; G-Code generated by Simplify3D(R) Version 4.1.2
; May 6, 2020 at 8:28:04 AM
; Settings Summary
;   processName,Process1
;   applyToModels,TestCap
;   profileName,X5X-ABSpro (modified)
;   profileVersion,2020-04-22 09:40:43
;   baseProfile,TRONXY X5S
;   printMaterial,PLA
;   printQuality,Medium
;   printExtruders,
;   extruderName,Primary Extruder
;   extruderToolheadNumber,0
;   extruderDiameter,0.4
;   extruderAutoWidth,0
;   extruderWidth,0.4
;   extrusionMultiplier,1.05
;   extruderUseRetract,1
;   extruderRetractionDistance,5
;   extruderExtraRestartDistance,-0.1
;   extruderRetractionZLift,0
;   extruderRetractionSpeed,4800
;   extruderUseCoasting,0
;   extruderCoastingDistance,0.2
;   extruderUseWipe,0
;   extruderWipeDistance,5
;   primaryExtruder,0
;   layerHeight,0.2
;   topSolidLayers,3
;   bottomSolidLayers,3
;   perimeterOutlines,5
;   printPerimetersInsideOut,0
;   startPointOption,2
;   startPointOriginX,0
;   startPointOriginY,0
;   sequentialIslands,0
;   spiralVaseMode,0
;   firstLayerHeightPercentage,120
;   firstLayerWidthPercentage,150
;   firstLayerUnderspeed,0.5
;   useRaft,0
;   raftExtruder,0
;   raftTopLayers,3
;   raftBaseLayers,2
;   raftOffset,0
;   raftSeparationDistance,0
;   raftTopInfill,100
;   aboveRaftSpeedMultiplier,0.3
;   useSkirt,1
;   skirtExtruder,0
;   skirtLayers,1
;   skirtOutlines,5
;   skirtOffset,0.15
;   usePrimePillar,0
;   primePillarExtruder,999
;   primePillarWidth,12
;   primePillarLocation,7
;   primePillarSpeedMultiplier,1
;   useOozeShield,0
;   oozeShieldExtruder,999
;   oozeShieldOffset,2
;   oozeShieldOutlines,1
;   oozeShieldSidewallShape,1
;   oozeShieldSidewallAngle,30
;   oozeShieldSpeedMultiplier,1
;   infillExtruder,0
;   internalInfillPattern,Rectilinear
;   externalInfillPattern,Rectilinear
;   infillPercentage,20
;   outlineOverlapPercentage,15
;   infillExtrusionWidthPercentage,100
;   minInfillLength,5
;   infillLayerInterval,1
;   internalInfillAngles,45,-45
;   overlapInternalInfillAngles,0
;   externalInfillAngles,45,-45
;   generateSupport,0
;   supportExtruder,0
;   supportInfillPercentage,30
;   supportExtraInflation,0
;   supportBaseLayers,0
;   denseSupportExtruder,0
;   denseSupportLayers,0
;   denseSupportInfillPercentage,70
;   supportLayerInterval,1
;   supportHorizontalPartOffset,0.3
;   supportUpperSeparationLayers,1
;   supportLowerSeparationLayers,1
;   supportType,0
;   supportGridSpacing,3
;   maxOverhangAngle,70
;   supportAngles,0
;   temperatureName,Primary Extruder,Heated Bed
;   temperatureNumber,0,0
;   temperatureSetpointCount,1,1
;   temperatureSetpointLayers,1,1
;   temperatureSetpointTemperatures,240,90
;   temperatureStabilizeAtStartup,1,1
;   temperatureHeatedBed,0,1
;   fanLayers,1
;   fanSpeeds,0
;   blipFanToFullPower,0
;   adjustSpeedForCooling,1
;   minSpeedLayerTime,15
;   minCoolingSpeedSlowdown,20
;   increaseFanForCooling,0
;   minFanLayerTime,45
;   maxCoolingFanSpeed,100
;   increaseFanForBridging,0
;   bridgingFanSpeed,100
;   use5D,1
;   relativeEdistances,0
;   allowEaxisZeroing,1
;   independentExtruderAxes,0
;   includeM10123,0
;   stickySupport,1
;   applyToolheadOffsets,0
;   gcodeXoffset,0
;   gcodeYoffset,0
;   gcodeZoffset,0
;   overrideMachineDefinition,1
;   machineTypeOverride,0
;   strokeXoverride,330
;   strokeYoverride,330
;   strokeZoverride,400
;   originOffsetXoverride,0
;   originOffsetYoverride,0
;   originOffsetZoverride,0
;   homeXdirOverride,-1
;   homeYdirOverride,-1
;   homeZdirOverride,-1
;   flipXoverride,1
;   flipYoverride,-1
;   flipZoverride,1
;   toolheadOffsets,0,0|0,0|0,0|0,0|0,0|0,0
;   overrideFirmwareConfiguration,1
;   firmwareTypeOverride,RepRap (Marlin/Repetier/Sprinter)
;   GPXconfigOverride,r2
;   baudRateOverride,250000
;   overridePrinterModels,1
;   printerModelsOverride
;   startingGcode,G28 ; home all axes,G1 Z0.2 F3000 ; get ready to prime,G92 E0 ; reset extrusion distance,G1 X100 E10 F600 ; prime nozzle
;   layerChangeGcode,
;   retractionGcode,
;   toolChangeGcode,
;   endingGcode,G28 X0 ; home x axis,M106 S0 ; turn off cooling fan,M104 S0 ; turn off extruder,M140 S0 ; turn off bed,M84 ; disable motors
;   exportFileFormat,gcode
;   celebration,0
;   celebrationSong,Funky Town
;   postProcessing,
;   defaultSpeed,4800
;   outlineUnderspeed,0.5
;   solidInfillUnderspeed,0.8
;   supportUnderspeed,0.8
;   rapidXYspeed,4800
;   rapidZspeed,1002
;   minBridgingArea,5
;   bridgingExtraInflation,2
;   bridgingExtrusionMultiplier,1
;   bridgingSpeedMultiplier,1
;   useFixedBridgingAngle,1
;   fixedBridgingAngle,0
;   applyBridgingToPerimeters,0
;   filamentDiameters,1.75|1.75|1.75|1.75|1.75|1.75
;   filamentPricesPerKg,46|46|46|46|46|46
;   filamentDensities,1.25|1.25|1.25|1.25|1.25|1.25
;   useMinPrintHeight,0
;   minPrintHeight,0
;   useMaxPrintHeight,1
;   maxPrintHeight,10
;   useDiaphragm,0
;   diaphragmLayerInterval,20
;   robustSlicing,1
;   mergeAllIntoSolid,0
;   onlyRetractWhenCrossingOutline,1
;   retractBetweenLayers,1
;   useRetractionMinTravel,0
;   retractionMinTravel,3
;   retractWhileWiping,0
;   onlyWipeOutlines,1
;   avoidCrossingOutline,0
;   maxMovementDetourFactor,3
;   toolChangeRetractionDistance,12
;   toolChangeExtraRestartDistance,-0.5
;   toolChangeRetractionSpeed,600
;   externalThinWallType,0
;   internalThinWallType,2
;   thinWallAllowedOverlapPercentage,10
;   singleExtrusionMinLength,1
;   singleExtrusionMinPrintingWidthPercentage,50
;   singleExtrusionMaxPrintingWidthPercentage,200
;   singleExtrusionEndpointExtension,0.2
;   horizontalSizeCompensation,0
G90
M82
M106 S0
M140 S90
M190 S90
M104 S240 T0
M109 S240 T0
G28 ; home all axes
G1 Z0.2 F3000 ; get ready to prime
G92 E0 ; reset extrusion distance
G1 X100 E10 F600 ; prime nozzle
; process Process1
; layer 1, Z = 0.240
T0
G92 E0.0000
G1 E-5.0000 F4800
; feature skirt
; tool H0.240 W0.600
G1 Z0.240 F1002
G1 X120.891 Y123.518 F4800
G1 E-0.1000 F4800
G92 E0.0000
G1 X123.518 Y120.891 E0.2335 F2400
G1 X123.583 Y120.830 E0.2391
G1 X126.370 Y118.374 E0.4726
G1 X126.439 Y118.317 E0.4783
G1 X129.373 Y116.040 E0.7117
G1 X129.446 Y115.988 E0.7174
G1 X132.518 Y113.900 E0.9509
G1 X132.594 Y113.852 E0.9565
G1 X135.791 Y111.961 E1.1900
G1 X135.870 Y111.918 E1.1957
G1 X139.178 Y110.232 E1.4291
G1 X139.259 Y110.194 E1.4347
G1 X142.669 Y108.718 E1.6682
G1 X142.752 Y108.686 E1.6738
G1 X146.246 Y107.427 E1.9073
G1 X146.332 Y107.400 E1.9130
G1 X149.899 Y106.363 E2.1465
G1 X149.985 Y106.341 E2.1521
G1 X153.610 Y105.531 E2.3856
G1 X153.698 Y105.514 E2.3912
G1 X157.367 Y104.933 E2.6247
G1 X157.456 Y104.922 E2.6303
G1 X161.153 Y104.572 E2.8638
G1 X161.242 Y104.567 E2.8694
G1 X164.955 Y104.450 E3.1029
G1 X165.045 Y104.450 E3.1086
G1 X168.758 Y104.567 E3.3421
G1 X168.847 Y104.572 E3.3477
G1 X172.544 Y104.922 E3.5811
G1 X172.633 Y104.933 E3.5868
G1 X176.302 Y105.514 E3.8203
G1 X176.390 Y105.531 E3.8259
G1 X180.015 Y106.341 E4.0594
G1 X180.101 Y106.363 E4.0650
G1 X183.668 Y107.400 E4.2985
G1 X183.754 Y107.427 E4.3042
G1 X187.248 Y108.685 E4.5376
G1 X187.331 Y108.718 E4.5432
G1 X190.741 Y110.194 E4.7768
G1 X190.822 Y110.232 E4.7824
G1 X194.130 Y111.918 E5.0158
G1 X194.209 Y111.961 E5.0215
G1 X197.406 Y113.852 E5.2550
G1 X197.482 Y113.900 E5.2606
G1 X200.554 Y115.988 E5.4941
G1 X200.627 Y116.040 E5.4997
G1 X203.561 Y118.317 E5.7332
G1 X203.630 Y118.374 E5.7388
G1 X206.417 Y120.830 E5.9723
G1 X206.482 Y120.891 E5.9780
G1 X209.109 Y123.519 E6.2115
G1 X209.170 Y123.584 E6.2171
G1 X211.626 Y126.370 E6.4506
G1 X211.683 Y126.439 E6.4562
G1 X213.960 Y129.373 E6.6897
G1 X214.012 Y129.446 E6.6953
G1 X216.100 Y132.518 E6.9289
G1 X216.148 Y132.594 E6.9345
G1 X218.039 Y135.791 E7.1680
G1 X218.082 Y135.870 E7.1736
G1 X219.768 Y139.178 E7.4070
G1 X219.806 Y139.259 E7.4126
G1 X221.282 Y142.669 E7.6462
G1 X221.314 Y142.752 E7.6518
G1 X222.573 Y146.246 E7.8853
G1 X222.600 Y146.332 E7.8909
G1 X223.637 Y149.899 E8.1244
G1 X223.659 Y149.985 E8.1301
G1 X224.469 Y153.610 E8.3635
G1 X224.486 Y153.698 E8.3691
G1 X225.033 Y157.150 E8.5889
G1 X226.881 Y157.150 E8.7050
G1 X228.550 Y158.819 E8.8534
G1 X228.550 Y171.181 E9.6305
G1 X226.881 Y172.850 E9.7789
G1 X225.033 Y172.850 E9.8951
G1 X224.486 Y176.302 E10.1148
G1 X224.469 Y176.390 E10.1204
G1 X223.659 Y180.015 E10.3539
G1 X223.637 Y180.101 E10.3595
G1 X222.600 Y183.668 E10.5930
G1 X222.573 Y183.754 E10.5986
G1 X221.315 Y187.248 E10.8321
G1 X221.282 Y187.331 E10.8377
G1 X219.806 Y190.741 E11.0712
G1 X219.768 Y190.822 E11.0769
G1 X218.082 Y194.130 E11.3103
G1 X218.039 Y194.209 E11.3159
G1 X216.148 Y197.406 E11.5494
G1 X216.100 Y197.482 E11.5551
G1 X214.012 Y200.554 E11.7886
G1 X213.960 Y200.627 E11.7942
G1 X211.683 Y203.561 E12.0277
G1 X211.626 Y203.630 E12.0333
G1 X209.170 Y206.417 E12.2668
G1 X209.109 Y206.482 E12.2724
G1 X206.482 Y209.109 E12.5060
G1 X206.417 Y209.170 E12.5116
G1 X203.630 Y211.626 E12.7451
G1 X203.561 Y211.683 E12.7507
G1 X200.627 Y213.960 E12.9842
G1 X200.554 Y214.012 E12.9898
G1 X197.482 Y216.100 E13.2233
G1 X197.406 Y216.148 E13.2290
G1 X194.209 Y218.039 E13.4625
G1 X194.130 Y218.082 E13.4681
G1 X190.822 Y219.768 E13.7015
G1 X190.741 Y219.806 E13.7071
G1 X187.331 Y221.282 E13.9407
G1 X187.248 Y221.315 E13.9463
G1 X183.754 Y222.573 E14.1798
G1 X183.668 Y222.600 E14.1854
G1 X180.101 Y223.637 E14.4189
G1 X180.015 Y223.659 E14.4245
G1 X176.390 Y224.469 E14.6580
G1 X176.302 Y224.486 E14.6636
G1 X172.633 Y225.067 E14.8971
G1 X172.544 Y225.078 E14.9028
G1 X168.847 Y225.428 E15.1362
G1 X168.758 Y225.433 E15.1419
G1 X165.045 Y225.550 E15.3754
G1 X164.955 Y225.550 E15.3810
G1 X161.242 Y225.433 E15.6145
G1 X161.153 Y225.428 E15.6201
G1 X157.456 Y225.078 E15.8536
G1 X157.367 Y225.067 E15.8592
G1 X153.698 Y224.486 E16.0927
G1 X153.610 Y224.469 E16.0984
G1 X149.985 Y223.659 E16.3318
G1 X149.899 Y223.637 E16.3375
G1 X146.332 Y222.600 E16.5710
G1 X146.246 Y222.573 E16.5766
G1 X142.752 Y221.314 E16.8101
G1 X142.669 Y221.282 E16.8157
G1 X139.259 Y219.806 E17.0492
G1 X139.178 Y219.768 E17.0549
G1 X135.870 Y218.082 E17.2883
G1 X135.791 Y218.039 E17.2939
G1 X132.594 Y216.148 E17.5274
G1 X132.518 Y216.100 E17.5330
G1 X129.446 Y214.012 E17.7665
G1 X129.373 Y213.960 E17.7722
G1 X126.439 Y211.683 E18.0056
G1 X126.370 Y211.626 E18.0113
G1 X123.584 Y209.170 E18.2447
G1 X123.519 Y209.109 E18.2504
G1 X120.891 Y206.482 E18.4839
G1 X120.830 Y206.417 E18.4896
G1 X118.374 Y203.630 E18.7231
G1 X118.317 Y203.561 E18.7287
G1 X116.040 Y200.627 E18.9621
G1 X115.988 Y200.554 E18.9678
G1 X113.900 Y197.482 E19.2013
G1 X113.852 Y197.406 E19.2069
G1 X111.961 Y194.209 E19.4404
G1 X111.918 Y194.130 E19.4460
G1 X110.232 Y190.822 E19.6795
G1 X110.194 Y190.741 E19.6851
G1 X108.718 Y187.331 E19.9186
G1 X108.685 Y187.248 E19.9243
G1 X107.427 Y183.754 E20.1577
G1 X107.400 Y183.668 E20.1634
G1 X106.363 Y180.101 E20.3969
G1 X106.341 Y180.015 E20.4025
G1 X105.531 Y176.390 E20.6360
G1 X105.514 Y176.302 E20.6416
G1 X104.967 Y172.850 E20.8613
G1 X103.119 Y172.850 E20.9775
G1 X101.450 Y171.180 E21.1259
G1 X101.454 Y158.819 E21.9030
G1 X103.123 Y157.150 E22.0514
G1 X104.967 Y157.150 E22.1673
G1 X105.514 Y153.698 E22.3870
G1 X105.531 Y153.610 E22.3926
G1 X106.341 Y149.985 E22.6261
G1 X106.363 Y149.899 E22.6317
G1 X107.400 Y146.332 E22.8652
G1 X107.427 Y146.246 E22.8709
G1 X108.686 Y142.752 E23.1044
G1 X108.718 Y142.669 E23.1100
G1 X110.194 Y139.259 E23.3435
G1 X110.232 Y139.178 E23.3491
G1 X111.918 Y135.870 E23.5825
G1 X111.961 Y135.791 E23.5882
G1 X113.852 Y132.594 E23.8217
G1 X113.900 Y132.518 E23.8273
G1 X115.988 Y129.446 E24.0608
G1 X116.040 Y129.373 E24.0665
G1 X118.317 Y126.439 E24.2999
G1 X118.374 Y126.370 E24.3056
G1 X120.830 Y123.583 E24.5391
G1 X120.891 Y123.518 E24.5447
G92 E0.0000
G1 E-5.0000 F4800
G1 X121.274 Y123.987 F4800
G1 E-0.1000 F4800
G92 E0.0000
G1 X121.322 Y123.936 E0.0044 F2400
G1 X123.936 Y121.322 E0.2368
G1 X123.987 Y121.274 E0.2412
G1 X126.759 Y118.830 E0.4735
G1 X126.814 Y118.785 E0.4780
G1 X129.734 Y116.520 E0.7103
G1 X129.791 Y116.479 E0.7147
G1 X132.848 Y114.401 E0.9470
G1 X132.907 Y114.363 E0.9515
G1 X136.088 Y112.482 E1.1838
G1 X136.150 Y112.448 E1.1882
G1 X139.442 Y110.771 E1.4205
G1 X139.506 Y110.741 E1.4249
G1 X142.898 Y109.273 E1.6573
G1 X142.964 Y109.247 E1.6617
G1 X146.441 Y107.995 E1.8940
G1 X146.508 Y107.973 E1.8984
G1 X150.057 Y106.942 E2.1308
G1 X150.125 Y106.925 E2.1352
G1 X153.732 Y106.119 E2.3675
G1 X153.801 Y106.105 E2.3719
G1 X157.451 Y105.527 E2.6042
G1 X157.521 Y105.518 E2.6087
G1 X161.200 Y105.171 E2.8410
G1 X161.271 Y105.166 E2.8454
G1 X164.965 Y105.050 E3.0777
G1 X165.035 Y105.050 E3.0822
G1 X168.729 Y105.166 E3.3145
G1 X168.800 Y105.171 E3.3189
G1 X172.479 Y105.518 E3.5512
G1 X172.549 Y105.527 E3.5557
G1 X176.199 Y106.105 E3.7880
G1 X176.268 Y106.119 E3.7924
G1 X179.875 Y106.925 E4.0247
G1 X179.943 Y106.942 E4.0292
G1 X183.492 Y107.973 E4.2615
G1 X183.559 Y107.995 E4.2659
G1 X187.036 Y109.247 E4.4982
G1 X187.102 Y109.273 E4.5027
G1 X190.494 Y110.741 E4.7350
G1 X190.558 Y110.771 E4.7394
G1 X193.850 Y112.448 E4.9717
G1 X193.912 Y112.482 E4.9761
G1 X197.093 Y114.363 E5.2085
G1 X197.152 Y114.401 E5.2129
G1 X200.209 Y116.479 E5.4452
G1 X200.266 Y116.520 E5.4497
G1 X203.186 Y118.785 E5.6820
G1 X203.241 Y118.830 E5.6864
G1 X206.013 Y121.274 E5.9187
G1 X206.064 Y121.322 E5.9232
G1 X208.678 Y123.936 E6.1555
G1 X208.726 Y123.988 E6.1600
G1 X211.170 Y126.759 E6.3922
G1 X211.215 Y126.814 E6.3967
G1 X213.480 Y129.734 E6.6290
G1 X213.521 Y129.791 E6.6334
G1 X215.599 Y132.848 E6.8657
G1 X215.637 Y132.907 E6.8702
G1 X217.518 Y136.088 E7.1025
G1 X217.552 Y136.150 E7.1070
G1 X219.229 Y139.442 E7.3392
G1 X219.259 Y139.506 E7.3436
G1 X220.727 Y142.898 E7.5760
G1 X220.753 Y142.964 E7.5804
G1 X222.005 Y146.441 E7.8127
G1 X222.027 Y146.508 E7.8172
G1 X223.058 Y150.057 E8.0495
G1 X223.075 Y150.125 E8.0539
G1 X223.881 Y153.732 E8.2862
G1 X223.895 Y153.801 E8.2906
G1 X224.473 Y157.451 E8.5230
G1 X224.482 Y157.521 E8.5274
G1 X224.503 Y157.750 E8.5418
G1 X226.632 Y157.750 E8.6756
G1 X227.950 Y159.068 E8.7928
G1 X227.950 Y170.932 E9.5386
G1 X226.632 Y172.250 E9.6558
G1 X224.503 Y172.250 E9.7896
G1 X224.482 Y172.479 E9.8040
G1 X224.473 Y172.549 E9.8085
G1 X223.895 Y176.199 E10.0408
G1 X223.881 Y176.268 E10.0452
G1 X223.075 Y179.875 E10.2775
G1 X223.058 Y179.943 E10.2820
G1 X222.027 Y183.492 E10.5143
G1 X222.005 Y183.559 E10.5187
G1 X220.753 Y187.036 E10.7510
G1 X220.727 Y187.102 E10.7555
G1 X219.259 Y190.494 E10.9878
G1 X219.229 Y190.558 E10.9922
G1 X217.552 Y193.850 E11.2245
G1 X217.518 Y193.912 E11.2289
G1 X215.637 Y197.093 E11.4613
G1 X215.599 Y197.152 E11.4657
G1 X213.521 Y200.209 E11.6980
G1 X213.480 Y200.266 E11.7025
G1 X211.215 Y203.186 E11.9347
G1 X211.170 Y203.241 E11.9392
G1 X208.726 Y206.013 E12.1715
G1 X208.678 Y206.064 E12.1760
G1 X206.064 Y208.678 E12.4083
G1 X206.013 Y208.726 E12.4127
G1 X203.241 Y211.170 E12.6450
G1 X203.186 Y211.215 E12.6495
G1 X200.266 Y213.480 E12.8818
G1 X200.209 Y213.521 E12.8862
G1 X197.152 Y215.599 E13.1185
G1 X197.093 Y215.637 E13.1230
G1 X193.912 Y217.518 E13.3553
G1 X193.850 Y217.552 E13.3597
G1 X190.558 Y219.229 E13.5920
G1 X190.494 Y219.259 E13.5964
G1 X187.102 Y220.727 E13.8288
G1 X187.036 Y220.753 E13.8332
G1 X183.559 Y222.005 E14.0655
G1 X183.492 Y222.027 E14.0699
G1 X179.943 Y223.058 E14.3023
G1 X179.875 Y223.075 E14.3067
G1 X176.268 Y223.881 E14.5390
G1 X176.199 Y223.895 E14.5434
G1 X172.549 Y224.473 E14.7758
G1 X172.479 Y224.482 E14.7802
G1 X168.800 Y224.829 E15.0125
G1 X168.729 Y224.834 E15.0169
G1 X165.035 Y224.950 E15.2492
G1 X164.965 Y224.950 E15.2537
G1 X161.271 Y224.834 E15.4860
G1 X161.200 Y224.829 E15.4905
G1 X157.521 Y224.482 E15.7227
G1 X157.451 Y224.473 E15.7272
G1 X153.801 Y223.895 E15.9595
G1 X153.732 Y223.881 E15.9639
G1 X150.125 Y223.075 E16.1962
G1 X150.057 Y223.058 E16.2007
G1 X146.508 Y222.027 E16.4330
G1 X146.441 Y222.005 E16.4374
G1 X142.964 Y220.753 E16.6697
G1 X142.898 Y220.727 E16.6742
G1 X139.506 Y219.259 E16.9065
G1 X139.442 Y219.229 E16.9110
G1 X136.150 Y217.552 E17.1432
G1 X136.088 Y217.518 E17.1476
G1 X132.907 Y215.637 E17.3800
G1 X132.848 Y215.599 E17.3844
G1 X129.791 Y213.521 E17.6167
