; G-Code generated by Simplify3D(R) Version 4.1.2
; Jun 3, 2020 at 5:05:40 PM
; Settings Summary
;   processName,Process1
;   applyToModels,WormHolder
;   profileName,X5S-PLA-Spring (modified)
;   profileVersion,2020-05-07 18:07:43
;   baseProfile,TRONXY X5S
;   printMaterial,PLA
;   printQuality,Medium
;   printExtruders,
;   extruderName,Primary Extruder
;   extruderToolheadNumber,0
;   extruderDiameter,0.4
;   extruderAutoWidth,0
;   extruderWidth,0.4
;   extrusionMultiplier,1.05
;   extruderUseRetract,1
;   extruderRetractionDistance,5
;   extruderExtraRestartDistance,-0.1
;   extruderRetractionZLift,0
;   extruderRetractionSpeed,4800
;   extruderUseCoasting,0
;   extruderCoastingDistance,0.2
;   extruderUseWipe,0
;   extruderWipeDistance,5
;   primaryExtruder,0
;   layerHeight,0.2
;   topSolidLayers,3
;   bottomSolidLayers,3
;   perimeterOutlines,5
;   printPerimetersInsideOut,0
;   startPointOption,2
;   startPointOriginX,0
;   startPointOriginY,0
;   sequentialIslands,0
;   spiralVaseMode,0
;   firstLayerHeightPercentage,120
;   firstLayerWidthPercentage,150
;   firstLayerUnderspeed,0.5
;   useRaft,0
;   raftExtruder,0
;   raftTopLayers,3
;   raftBaseLayers,2
;   raftOffset,0
;   raftSeparationDistance,0
;   raftTopInfill,100
;   aboveRaftSpeedMultiplier,0.3
;   useSkirt,1
;   skirtExtruder,0
;   skirtLayers,1
;   skirtOutlines,3
;   skirtOffset,0.15
;   usePrimePillar,0
;   primePillarExtruder,999
;   primePillarWidth,12
;   primePillarLocation,7
;   primePillarSpeedMultiplier,1
;   useOozeShield,0
;   oozeShieldExtruder,999
;   oozeShieldOffset,2
;   oozeShieldOutlines,1
;   oozeShieldSidewallShape,1
;   oozeShieldSidewallAngle,30
;   oozeShieldSpeedMultiplier,1
;   infillExtruder,0
;   internalInfillPattern,Rectilinear
;   externalInfillPattern,Rectilinear
;   infillPercentage,20
;   outlineOverlapPercentage,15
;   infillExtrusionWidthPercentage,100
;   minInfillLength,5
;   infillLayerInterval,1
;   internalInfillAngles,45,-45
;   overlapInternalInfillAngles,0
;   externalInfillAngles,45,-45
;   generateSupport,1
;   supportExtruder,0
;   supportInfillPercentage,30
;   supportExtraInflation,0
;   supportBaseLayers,1
;   denseSupportExtruder,0
;   denseSupportLayers,0
;   denseSupportInfillPercentage,70
;   supportLayerInterval,1
;   supportHorizontalPartOffset,0.3
;   supportUpperSeparationLayers,1
;   supportLowerSeparationLayers,1
;   supportType,0
;   supportGridSpacing,3
;   maxOverhangAngle,70
;   supportAngles,0
;   temperatureName,Primary Extruder,Heated Bed
;   temperatureNumber,0,0
;   temperatureSetpointCount,1,1
;   temperatureSetpointLayers,1,1
;   temperatureSetpointTemperatures,200,90
;   temperatureStabilizeAtStartup,1,1
;   temperatureHeatedBed,0,1
;   fanLayers,1,2
;   fanSpeeds,0,50
;   blipFanToFullPower,0
;   adjustSpeedForCooling,1
;   minSpeedLayerTime,15
;   minCoolingSpeedSlowdown,20
;   increaseFanForCooling,0
;   minFanLayerTime,45
;   maxCoolingFanSpeed,100
;   increaseFanForBridging,0
;   bridgingFanSpeed,100
;   use5D,1
;   relativeEdistances,0
;   allowEaxisZeroing,1
;   independentExtruderAxes,0
;   includeM10123,0
;   stickySupport,1
;   applyToolheadOffsets,0
;   gcodeXoffset,0
;   gcodeYoffset,0
;   gcodeZoffset,0
;   overrideMachineDefinition,1
;   machineTypeOverride,0
;   strokeXoverride,330
;   strokeYoverride,330
;   strokeZoverride,400
;   originOffsetXoverride,0
;   originOffsetYoverride,0
;   originOffsetZoverride,0
;   homeXdirOverride,-1
;   homeYdirOverride,-1
;   homeZdirOverride,-1
;   flipXoverride,1
;   flipYoverride,-1
;   flipZoverride,1
;   toolheadOffsets,0,0|0,0|0,0|0,0|0,0|0,0
;   overrideFirmwareConfiguration,1
;   firmwareTypeOverride,RepRap (Marlin/Repetier/Sprinter)
;   GPXconfigOverride,r2
;   baudRateOverride,250000
;   overridePrinterModels,1
;   printerModelsOverride
;   startingGcode,G28 ; home all axes,G1 Z0.2 F3000 ; get ready to prime,G92 E0 ; reset extrusion distance,G1 X100 E10 F600 ; prime nozzle
;   layerChangeGcode,
;   retractionGcode,
;   toolChangeGcode,
;   endingGcode,G28 X0 ; home x axis,M106 S0 ; turn off cooling fan,M104 S0 ; turn off extruder,M140 S0 ; turn off bed,M84 ; disable motors
;   exportFileFormat,gcode
;   celebration,0
;   celebrationSong,Funky Town
;   postProcessing,
;   defaultSpeed,3000
;   outlineUnderspeed,0.5
;   solidInfillUnderspeed,0.8
;   supportUnderspeed,0.8
;   rapidXYspeed,4800
;   rapidZspeed,1002
;   minBridgingArea,5
;   bridgingExtraInflation,2
;   bridgingExtrusionMultiplier,1
;   bridgingSpeedMultiplier,1
;   useFixedBridgingAngle,1
;   fixedBridgingAngle,0
;   applyBridgingToPerimeters,0
;   filamentDiameters,1.75|1.75|1.75|1.75|1.75|1.75
;   filamentPricesPerKg,46|46|46|46|46|46
;   filamentDensities,1.25|1.25|1.25|1.25|1.25|1.25
;   useMinPrintHeight,0
;   minPrintHeight,0
;   useMaxPrintHeight,0
;   maxPrintHeight,10
;   useDiaphragm,0
;   diaphragmLayerInterval,20
;   robustSlicing,1
;   mergeAllIntoSolid,0
;   onlyRetractWhenCrossingOutline,1
;   retractBetweenLayers,1
;   useRetractionMinTravel,0
;   retractionMinTravel,3
;   retractWhileWiping,0
;   onlyWipeOutlines,1
;   avoidCrossingOutline,0
;   maxMovementDetourFactor,3
;   toolChangeRetractionDistance,12
;   toolChangeExtraRestartDistance,-0.5
;   toolChangeRetractionSpeed,600
;   externalThinWallType,0
;   internalThinWallType,2
;   thinWallAllowedOverlapPercentage,10
;   singleExtrusionMinLength,1
;   singleExtrusionMinPrintingWidthPercentage,50
;   singleExtrusionMaxPrintingWidthPercentage,200
;   singleExtrusionEndpointExtension,0.2
;   horizontalSizeCompensation,0
G90
M82
M106 S0
M140 S90
M190 S90
M104 S200 T0
M109 S200 T0
G28 ; home all axes
G1 Z0.2 F3000 ; get ready to prime
G92 E0 ; reset extrusion distance
G1 X100 E10 F600 ; prime nozzle
; process Process1
; layer 1, Z = 0.240
T0
G92 E0.0000
G1 E-5.0000 F4800
; feature skirt
; tool H0.240 W0.600
G1 Z0.240 F1002
G1 X120.817 Y142.850 F4800
G1 E-0.1000 F4800
G92 E0.0000
G1 X210.183 Y142.850 E5.6178 F1500
G1 X211.150 Y143.817 E5.7037
G1 X211.150 Y175.705 E7.7083
G1 X210.183 Y176.672 E7.7942
G1 X206.317 Y176.672 E8.0373
G1 X205.350 Y175.705 E8.1232
G1 X205.350 Y171.150 E8.4095
G1 X125.271 Y171.150 E13.4434
G1 X125.271 Y171.782 E13.4831
G1 X125.546 Y172.056 E13.5076
G1 X125.546 Y176.863 E13.8097
G1 X125.225 Y177.184 E13.8383
G1 X125.225 Y177.202 E13.8394
G1 X125.290 Y177.267 E13.8452
G1 X125.290 Y178.478 E13.9213
G1 X126.667 Y178.478 E14.0079
G1 X126.785 Y178.596 E14.0184
G1 X130.135 Y178.596 E14.2290
G1 X131.102 Y179.562 E14.3149
G1 X131.102 Y181.122 E14.4130
G1 X131.503 Y181.523 E14.4486
G1 X131.503 Y186.330 E14.7508
G1 X130.536 Y187.297 E14.8367
G1 X125.729 Y187.297 E15.1389
G1 X125.615 Y187.183 E15.1490
G1 X122.265 Y187.183 E15.3596
G1 X122.215 Y187.132 E15.3641
G1 X119.448 Y187.132 E15.5380
G1 X118.481 Y186.166 E15.6239
G1 X118.481 Y185.984 E15.6353
G1 X118.341 Y185.844 E15.6478
G1 X118.341 Y185.536 E15.6672
G1 X118.300 Y185.494 E15.6708
G1 X118.300 Y184.001 E15.7647
G1 X117.908 Y183.610 E15.7995
G1 X117.908 Y178.803 E16.1017
G1 X118.482 Y178.229 E16.1527
G1 X118.471 Y172.942 E16.4850
G1 X118.061 Y172.532 E16.5215
G1 X118.061 Y167.726 E16.8236
G1 X118.850 Y166.937 E16.8938
G1 X118.850 Y166.565 E16.9171
G1 X119.630 Y165.643 E16.9930
G1 X131.320 Y163.667 E17.7384
G1 X119.850 Y161.728 E18.4696
G1 X119.850 Y158.939 E18.6449
G1 X131.320 Y157.000 E19.3762
G1 X119.850 Y155.061 E20.1075
G1 X119.850 Y152.272 E20.2828
G1 X131.320 Y150.333 E21.0141
G1 X120.630 Y148.526 E21.6956
G1 X119.850 Y147.604 E21.7715
G1 X119.850 Y143.817 E22.0096
G1 X120.817 Y142.850 E22.0956
G92 E0.0000
G1 E-5.0000 F4800
G1 X121.065 Y143.450 F4800
G1 E-0.1000 F4800
G92 E0.0000
G1 X209.935 Y143.450 E5.5865 F1500
G1 X210.550 Y144.065 E5.6412
G1 X210.550 Y175.457 E7.6145
G1 X209.935 Y176.072 E7.6692
G1 X206.565 Y176.072 E7.8810
G1 X205.950 Y175.457 E7.9357
G1 X205.950 Y170.550 E8.2442
G1 X124.671 Y170.550 E13.3535
G1 X124.671 Y172.030 E13.4465
G1 X124.946 Y172.305 E13.4710
G1 X124.946 Y176.615 E13.7419
G1 X124.624 Y176.936 E13.7704
G1 X124.624 Y177.451 E13.8028
G1 X124.690 Y177.516 E13.8086
G1 X124.690 Y179.078 E13.9068
G1 X126.419 Y179.078 E14.0155
G1 X126.536 Y179.196 E14.0259
G1 X129.887 Y179.196 E14.2366
G1 X130.502 Y179.811 E14.2912
G1 X130.502 Y181.371 E14.3893
G1 X130.903 Y181.772 E14.4249
G1 X130.903 Y186.081 E14.6959
G1 X130.288 Y186.696 E14.7505
G1 X125.978 Y186.696 E15.0215
G1 X125.864 Y186.583 E15.0316
G1 X122.514 Y186.583 E15.2422
G1 X122.464 Y186.532 E15.2466
G1 X119.697 Y186.532 E15.4206
G1 X119.081 Y185.917 E15.4753
G1 X119.081 Y185.736 E15.4867
G1 X118.941 Y185.595 E15.4992
G1 X118.941 Y185.287 E15.5185
G1 X118.900 Y185.246 E15.5222
G1 X118.900 Y183.752 E15.6161
G1 X118.508 Y183.361 E15.6509
G1 X118.508 Y179.051 E15.9218
G1 X119.083 Y178.477 E15.9729
G1 X119.072 Y173.108 E16.3104
G1 X119.105 Y173.074 E16.3134
G1 X119.105 Y172.728 E16.3351
G1 X118.661 Y172.284 E16.3746
G1 X118.661 Y167.974 E16.6455
G1 X119.276 Y167.359 E16.7002
G1 X119.450 Y167.359 E16.7111
G1 X119.450 Y166.785 E16.7472
G1 X119.946 Y166.198 E16.7955
G1 X134.920 Y163.667 E17.7502
G1 X120.450 Y161.221 E18.6727
G1 X120.450 Y159.446 E18.7843
G1 X134.920 Y157.000 E19.7068
G1 X120.450 Y154.554 E20.6293
G1 X120.450 Y152.779 E20.7409
G1 X134.920 Y150.333 E21.6634
G1 X120.946 Y147.971 E22.5543
G1 X120.450 Y147.384 E22.6026
G1 X120.450 Y144.065 E22.8113
G1 X121.065 Y143.450 E22.8659
G92 E0.0000
G1 E-5.0000 F4800
G1 X121.314 Y144.050 F4800
G1 E-0.1000 F4800
G92 E0.0000
G1 X209.686 Y144.050 E5.5553 F1500
G1 X209.950 Y144.314 E5.5787
G1 X209.950 Y175.208 E7.5208
G1 X209.686 Y175.472 E7.5442
G1 X206.814 Y175.472 E7.7248
G1 X206.550 Y175.208 E7.7482
G1 X206.550 Y169.950 E8.0788
G1 X124.071 Y169.950 E13.2635
G1 X124.071 Y172.290 E13.4106
G1 X124.082 Y172.290 E13.4113
G1 X124.346 Y172.553 E13.4348
G1 X124.346 Y176.366 E13.6744
G1 X124.082 Y176.630 E13.6979
G1 X124.025 Y176.630 E13.7015
G1 X124.025 Y177.699 E13.7687
G1 X124.090 Y177.764 E13.7745
G1 X124.090 Y179.678 E13.8948
G1 X126.170 Y179.678 E14.0256
G1 X126.288 Y179.796 E14.0361
G1 X129.638 Y179.796 E14.2467
G1 X129.902 Y180.059 E14.2701
G1 X129.902 Y181.757 E14.3768
G1 X130.039 Y181.757 E14.3854
G1 X130.303 Y182.020 E14.4089
G1 X130.303 Y185.833 E14.6485
G1 X130.039 Y186.096 E14.6720
G1 X126.226 Y186.096 E14.9117
G1 X126.112 Y185.983 E14.9218
G1 X122.763 Y185.983 E15.1324
G1 X122.712 Y185.932 E15.1368
G1 X119.945 Y185.932 E15.3108
G1 X119.681 Y185.669 E15.3342
G1 X119.681 Y185.487 E15.3456
G1 X119.541 Y185.347 E15.3581
G1 X119.541 Y185.039 E15.3775
G1 X119.500 Y184.997 E15.3811
G1 X119.500 Y183.376 E15.4830
G1 X119.372 Y183.376 E15.4911
G1 X119.108 Y183.113 E15.5145
G1 X119.108 Y179.300 E15.7542
G1 X119.372 Y179.036 E15.7776
G1 X119.684 Y179.036 E15.7972
G1 X119.672 Y173.355 E16.1543
G1 X119.705 Y173.322 E16.1573
G1 X119.705 Y172.299 E16.2216
G1 X119.525 Y172.299 E16.2329
G1 X119.261 Y172.035 E16.2564
G1 X119.261 Y168.223 E16.4961
G1 X119.525 Y167.959 E16.5195
G1 X120.050 Y167.959 E16.5525
G1 X120.050 Y167.004 E16.6125
G1 X120.263 Y166.753 E16.6332
G1 X138.520 Y163.667 E17.7972
G1 X121.050 Y160.714 E18.9110
G1 X121.050 Y159.953 E18.9588
G1 X138.520 Y157.000 E20.0726
G1 X121.050 Y154.047 E21.1864
G1 X121.050 Y153.286 E21.2342
G1 X138.520 Y150.333 E22.3480
G1 X121.263 Y147.416 E23.4482
G1 X121.050 Y147.165 E23.4689
G1 X121.050 Y144.314 E23.6481
G1 X121.314 Y144.050 E23.6716
G92 E0.0000
G1 E-5.0000 F4800
; feature outer perimeter
G1 X121.800 Y144.800 F4800
G1 E-0.1000 F4800
G92 E0.0000
G1 X209.200 Y144.800 E5.4941 F750
G1 X209.200 Y174.722 E7.3750
G1 X207.300 Y174.722 E7.4945
G1 X207.300 Y169.200 E7.8416
G1 X120.800 Y169.200 E13.2791
G1 X120.800 Y167.423 E13.3909
G1 X141.520 Y163.920 E14.7118
G1 X141.520 Y163.413 E14.7437
G1 X123.300 Y160.333 E15.9053
G1 X141.520 Y157.254 E17.0669
G1 X141.520 Y156.746 E17.0988
G1 X123.300 Y153.667 E18.2604
G1 X141.520 Y150.587 E19.4220
G1 X141.520 Y150.080 E19.4539
G1 X121.800 Y146.746 E20.7111
G1 X121.800 Y144.800 E20.8335
; feature inner perimeter
G1 X122.400 Y145.400 F4800
G92 E0.0000
G1 X208.600 Y145.400 E5.4187 F1125
G1 X208.600 Y174.122 E7.2242
G1 X207.900 Y174.122 E7.2682
G1 X207.900 Y168.600 E7.6153
G1 X121.400 Y168.600 E13.0528
G1 X121.400 Y167.930 E13.0950
G1 X129.559 Y166.551 E13.6151
G1 X129.672 Y167.900 E13.7003
G1 X207.900 Y167.900 E18.6178
G1 X207.900 Y146.100 E19.9882
G1 X129.672 Y146.100 E24.9057
G1 X129.559 Y147.449 E24.9908
G1 X122.400 Y146.239 E25.4472
G1 X122.400 Y145.400 E25.5000
G92 E0.0000
G1 E-5.0000 F4800
G1 X128.250 Y153.438 F4800
G1 E-0.1000 F4800
G92 E0.0000
G1 X129.600 Y153.210 E0.0861 F1125
G1 X129.600 Y154.123 E0.1434
G1 X128.250 Y153.895 E0.2295
G1 X128.250 Y153.438 E0.2582
G92 E0.0000
G1 E-5.0000 F4800
G1 X129.600 Y159.877 F4800
G1 E-0.1000 F4800
G92 E0.0000
G1 X129.600 Y160.790 E0.0574 F1125
G1 X128.250 Y160.562 E0.1434
G1 X128.250 Y160.105 E0.1721
G1 X129.600 Y159.877 E0.2582
G1 X142.120 Y157.456 F4800
G92 E0.0000
G1 X142.120 Y156.544 E0.0574 F1125
G1 X143.470 Y156.772 E0.1434
G1 X143.470 Y157.228 E0.1721
G1 X142.120 Y157.456 E0.2582
G92 E0.0000
G1 E-5.0000 F4800
G1 X142.120 Y163.210 F4800
G1 E-0.1000 F4800
G92 E0.0000
G1 X143.470 Y163.438 E0.0861 F1125
G1 X143.470 Y163.895 E0.1148
G1 X142.120 Y164.123 E0.2008
G1 X142.120 Y163.210 E0.2582
G92 E0.0000
G1 E-5.0000 F4800
G1 X142.120 Y150.790 F4800
G1 E-0.1000 F4800
G92 E0.0000
G1 X142.120 Y149.877 E0.0574 F1125
G1 X143.470 Y150.105 E0.1434
G1 X143.470 Y150.562 E0.1721
G1 X142.120 Y150.790 E0.2582
G92 E0.0000
G1 E-5.0000 F4800
G1 X129.016 Y146.749 F4800
G1 E-0.1000 F4800
G92 E0.0000
G1 X127.511 Y146.495 E0.0959 F1125
G1 X127.553 Y146.000 E0.1271
G1 X129.079 Y146.000 E0.2230
G1 X129.016 Y146.749 E0.2703
G92 E0.0000
G1 E-5.0000 F4800
G1 X129.016 Y167.251 F4800
G1 E-0.1000 F4800
G92 E0.0000
G1 X129.079 Y168.000 E0.0473 F1125
G1 X127.553 Y168.000 E0.1432
G1 X127.511 Y167.505 E0.1744
G1 X129.016 Y167.251 E0.2703
; feature outer perimeter
G1 X130.224 Y167.300 F4800
G92 E0.0000
G1 X207.300 Y167.300 E4.8451 F750
G1 X207.300 Y146.700 E6.1401
G1 X130.224 Y146.700 E10.9852
G1 X130.178 Y147.250 E11.0199
G1 X148.420 Y150.333 E12.1829
G1 X130.200 Y153.413 E13.3445
G1 X130.200 Y153.920 E13.3764
G1 X148.420 Y157.000 E14.5380
G1 X130.200 Y160.080 E15.6996
G1 X130.200 Y160.587 E15.7314
G1 X148.420 Y163.667 E16.8930
G1 X130.178 Y166.750 E18.0561
G1 X130.224 Y167.300 E18.0907
; feature gap fill
; tool H0.240 W0.400
G1 X130.137 Y166.341 F4800
G92 E0.0000
G1 X130.068 Y166.272 E0.0041 F1500
G1 X130.552 Y166.190 E0.0247
G1 X130.621 Y166.259 E0.0288
G1 X131.105 Y166.178 E0.0494
G1 X131.036 Y166.108 E0.0535
G1 X131.520 Y166.026 E0.0740
G1 X131.589 Y166.096 E0.0782
G1 X132.073 Y166.014 E0.0987
G1 X132.004 Y165.945 E0.1028
G1 X132.487 Y165.863 E0.1234
G1 X132.557 Y165.932 E0.1275
G1 X133.041 Y165.850 E0.1481
G1 X132.971 Y165.781 E0.1522
G1 X133.455 Y165.699 E0.1728
G1 X133.525 Y165.769 E0.1769
G1 X134.009 Y165.687 E0.1974
G1 X133.939 Y165.617 E0.2016
G1 X134.423 Y165.536 E0.2221
G1 X134.492 Y165.605 E0.2262
G1 X134.976 Y165.523 E0.2468
G1 X134.907 Y165.454 E0.2509
G1 X135.391 Y165.372 E0.2715
G1 X135.460 Y165.441 E0.2756
G1 X135.944 Y165.360 E0.2962
G1 X135.875 Y165.290 E0.3003
G1 X136.359 Y165.208 E0.3208
G1 X136.428 Y165.278 E0.3250
G1 X136.912 Y165.196 E0.3455
G1 X136.842 Y165.127 E0.3496
G1 X137.326 Y165.045 E0.3702
G1 X137.396 Y165.114 E0.3743
G1 X137.880 Y165.033 E0.3949
G1 X137.810 Y164.963 E0.3990
G1 X138.294 Y164.881 E0.4196
G1 X138.364 Y164.951 E0.4237
G1 X138.847 Y164.869 E0.4442
G1 X138.778 Y164.800 E0.4484
G1 X139.262 Y164.718 E0.4689
G1 X139.331 Y164.787 E0.4730
G1 X139.815 Y164.705 E0.4936
G1 X139.746 Y164.636 E0.4977
G1 X140.230 Y164.554 E0.5183
G1 X140.299 Y164.624 E0.5224
G1 X140.783 Y164.542 E0.5430
G1 X140.714 Y164.472 E0.5471
G1 X141.197 Y164.391 E0.5676
G1 X141.267 Y164.460 E0.5718
G1 X141.704 Y164.386 E0.5903
G1 X141.704 Y164.332 E0.5926
G1 X141.681 Y164.309 E0.5940
G1 X141.400 Y162.896 F4800
G92 E0.0000
G1 X141.497 Y162.993 E0.0058 F1500
G1 X140.817 Y162.878 E0.0347
G1 X140.719 Y162.781 E0.0405
G1 X140.038 Y162.666 E0.0694
G1 X140.136 Y162.763 E0.0752
