; G-Code generated by Simplify3D(R) Version 4.1.2
; May 30, 2020 at 12:08:25 AM
; Settings Summary
;   processName,Process1
;   applyToModels,WormAdapter
;   profileName,X5X-PLA-Leon (modified)
;   profileVersion,2020-05-29 15:16:38
;   baseProfile,TRONXY X5S
;   printMaterial,PLA
;   printQuality,Medium
;   printExtruders,
;   extruderName,Primary Extruder
;   extruderToolheadNumber,0
;   extruderDiameter,0.4
;   extruderAutoWidth,0
;   extruderWidth,0.8
;   extrusionMultiplier,1.05
;   extruderUseRetract,1
;   extruderRetractionDistance,5
;   extruderExtraRestartDistance,-0.1
;   extruderRetractionZLift,0
;   extruderRetractionSpeed,4800
;   extruderUseCoasting,0
;   extruderCoastingDistance,0.2
;   extruderUseWipe,0
;   extruderWipeDistance,5
;   primaryExtruder,0
;   layerHeight,0.2
;   topSolidLayers,3
;   bottomSolidLayers,3
;   perimeterOutlines,1
;   printPerimetersInsideOut,0
;   startPointOption,2
;   startPointOriginX,0
;   startPointOriginY,0
;   sequentialIslands,0
;   spiralVaseMode,0
;   firstLayerHeightPercentage,120
;   firstLayerWidthPercentage,150
;   firstLayerUnderspeed,0.5
;   useRaft,0
;   raftExtruder,0
;   raftTopLayers,3
;   raftBaseLayers,2
;   raftOffset,0
;   raftSeparationDistance,0
;   raftTopInfill,100
;   aboveRaftSpeedMultiplier,0.3
;   useSkirt,1
;   skirtExtruder,0
;   skirtLayers,1
;   skirtOutlines,3
;   skirtOffset,0.15
;   usePrimePillar,0
;   primePillarExtruder,999
;   primePillarWidth,12
;   primePillarLocation,7
;   primePillarSpeedMultiplier,1
;   useOozeShield,0
;   oozeShieldExtruder,999
;   oozeShieldOffset,2
;   oozeShieldOutlines,1
;   oozeShieldSidewallShape,1
;   oozeShieldSidewallAngle,30
;   oozeShieldSpeedMultiplier,1
;   infillExtruder,0
;   internalInfillPattern,Rectilinear
;   externalInfillPattern,Rectilinear
;   infillPercentage,20
;   outlineOverlapPercentage,15
;   infillExtrusionWidthPercentage,100
;   minInfillLength,5
;   infillLayerInterval,1
;   internalInfillAngles,45,-45
;   overlapInternalInfillAngles,0
;   externalInfillAngles,45,-45
;   generateSupport,1
;   supportExtruder,0
;   supportInfillPercentage,30
;   supportExtraInflation,0
;   supportBaseLayers,1
;   denseSupportExtruder,0
;   denseSupportLayers,0
;   denseSupportInfillPercentage,70
;   supportLayerInterval,1
;   supportHorizontalPartOffset,0.3
;   supportUpperSeparationLayers,1
;   supportLowerSeparationLayers,1
;   supportType,0
;   supportGridSpacing,3
;   maxOverhangAngle,70
;   supportAngles,0
;   temperatureName,Primary Extruder,Heated Bed
;   temperatureNumber,0,0
;   temperatureSetpointCount,1,1
;   temperatureSetpointLayers,1,1
;   temperatureSetpointTemperatures,200,90
;   temperatureStabilizeAtStartup,1,1
;   temperatureHeatedBed,0,1
;   fanLayers,1,2
;   fanSpeeds,0,50
;   blipFanToFullPower,0
;   adjustSpeedForCooling,1
;   minSpeedLayerTime,15
;   minCoolingSpeedSlowdown,20
;   increaseFanForCooling,0
;   minFanLayerTime,45
;   maxCoolingFanSpeed,100
;   increaseFanForBridging,0
;   bridgingFanSpeed,100
;   use5D,1
;   relativeEdistances,0
;   allowEaxisZeroing,1
;   independentExtruderAxes,0
;   includeM10123,0
;   stickySupport,1
;   applyToolheadOffsets,0
;   gcodeXoffset,0
;   gcodeYoffset,0
;   gcodeZoffset,0
;   overrideMachineDefinition,1
;   machineTypeOverride,0
;   strokeXoverride,330
;   strokeYoverride,330
;   strokeZoverride,400
;   originOffsetXoverride,0
;   originOffsetYoverride,0
;   originOffsetZoverride,0
;   homeXdirOverride,-1
;   homeYdirOverride,-1
;   homeZdirOverride,-1
;   flipXoverride,1
;   flipYoverride,-1
;   flipZoverride,1
;   toolheadOffsets,0,0|0,0|0,0|0,0|0,0|0,0
;   overrideFirmwareConfiguration,1
;   firmwareTypeOverride,RepRap (Marlin/Repetier/Sprinter)
;   GPXconfigOverride,r2
;   baudRateOverride,250000
;   overridePrinterModels,1
;   printerModelsOverride
;   startingGcode,G28 ; home all axes,G1 Z0.2 F3000 ; get ready to prime,G92 E0 ; reset extrusion distance,G1 X100 E10 F600 ; prime nozzle
;   layerChangeGcode,
;   retractionGcode,
;   toolChangeGcode,
;   endingGcode,G28 X0 ; home x axis,M106 S0 ; turn off cooling fan,M104 S0 ; turn off extruder,M140 S0 ; turn off bed,M84 ; disable motors
;   exportFileFormat,gcode
;   celebration,0
;   celebrationSong,Funky Town
;   postProcessing,
;   defaultSpeed,3000
;   outlineUnderspeed,0.5
;   solidInfillUnderspeed,0.8
;   supportUnderspeed,0.8
;   rapidXYspeed,4800
;   rapidZspeed,1002
;   minBridgingArea,5
;   bridgingExtraInflation,2
;   bridgingExtrusionMultiplier,1
;   bridgingSpeedMultiplier,1
;   useFixedBridgingAngle,1
;   fixedBridgingAngle,0
;   applyBridgingToPerimeters,0
;   filamentDiameters,1.75|1.75|1.75|1.75|1.75|1.75
;   filamentPricesPerKg,46|46|46|46|46|46
;   filamentDensities,1.25|1.25|1.25|1.25|1.25|1.25
;   useMinPrintHeight,0
;   minPrintHeight,0
;   useMaxPrintHeight,0
;   maxPrintHeight,10
;   useDiaphragm,0
;   diaphragmLayerInterval,20
;   robustSlicing,1
;   mergeAllIntoSolid,0
;   onlyRetractWhenCrossingOutline,1
;   retractBetweenLayers,1
;   useRetractionMinTravel,0
;   retractionMinTravel,3
;   retractWhileWiping,0
;   onlyWipeOutlines,1
;   avoidCrossingOutline,0
;   maxMovementDetourFactor,3
;   toolChangeRetractionDistance,12
;   toolChangeExtraRestartDistance,-0.5
;   toolChangeRetractionSpeed,600
;   externalThinWallType,0
;   internalThinWallType,2
;   thinWallAllowedOverlapPercentage,10
;   singleExtrusionMinLength,1
;   singleExtrusionMinPrintingWidthPercentage,50
;   singleExtrusionMaxPrintingWidthPercentage,200
;   singleExtrusionEndpointExtension,0.2
;   horizontalSizeCompensation,0
G90
M82
M106 S0
M140 S90
M190 S90
M104 S200 T0
M109 S200 T0
G28 ; home all axes
G1 Z0.2 F3000 ; get ready to prime
G92 E0 ; reset extrusion distance
G1 X100 E10 F600 ; prime nozzle
; process Process1
; layer 1, Z = 0.240
T0
G92 E0.0000
G1 E-5.0000 F4800
; feature skirt
; tool H0.240 W1.200
G1 Z0.240 F1002
G1 X144.964 Y155.237 F4800
G1 E-0.1000 F4800
G92 E0.0000
G1 X145.539 Y154.707 E0.0983 F1500
G1 X145.616 Y154.640 E0.1111
G1 X146.224 Y154.148 E0.2095
G1 X146.306 Y154.087 E0.2223
G1 X146.944 Y153.635 E0.3206
G1 X147.030 Y153.579 E0.3335
G1 X147.695 Y153.171 E0.4317
G1 X147.784 Y153.120 E0.4445
G1 X148.476 Y152.754 E0.5429
G1 X148.568 Y152.710 E0.5557
G1 X149.281 Y152.390 E0.6540
G1 X149.376 Y152.351 E0.6669
G1 X150.109 Y152.079 E0.7652
G1 X150.206 Y152.046 E0.7780
G1 X150.954 Y151.822 E0.8763
G1 X151.053 Y151.795 E0.8891
G1 X151.816 Y151.619 E0.9876
G1 X151.916 Y151.600 E1.0004
G1 X152.687 Y151.474 E1.0986
G1 X152.788 Y151.461 E1.1115
G1 X153.567 Y151.385 E1.2098
G1 X153.669 Y151.378 E1.2227
G1 X154.450 Y151.353 E1.3210
G1 X154.552 Y151.353 E1.3338
G1 X155.334 Y151.378 E1.4321
G1 X155.436 Y151.385 E1.4449
G1 X156.214 Y151.461 E1.5433
G1 X156.315 Y151.474 E1.5561
G1 X157.087 Y151.600 E1.6543
G1 X157.187 Y151.619 E1.6672
G1 X157.950 Y151.795 E1.7656
G1 X158.048 Y151.822 E1.7784
G1 X158.797 Y152.046 E1.8767
G1 X158.894 Y152.079 E1.8895
G1 X159.627 Y152.351 E1.9879
G1 X159.721 Y152.390 E2.0007
G1 X160.435 Y152.710 E2.0990
G1 X160.526 Y152.754 E2.1118
G1 X161.219 Y153.120 E2.2102
G1 X161.307 Y153.171 E2.2231
G1 X161.973 Y153.579 E2.3213
G1 X162.058 Y153.635 E2.3341
G1 X162.697 Y154.087 E2.4324
G1 X162.778 Y154.148 E2.4453
G1 X163.387 Y154.640 E2.5436
G1 X163.464 Y154.707 E2.5564
G1 X164.038 Y155.237 E2.6547
G1 X164.111 Y155.309 E2.6675
G1 X164.651 Y155.875 E2.7659
G1 X164.719 Y155.951 E2.7787
G1 X165.220 Y156.551 E2.8770
G1 X165.283 Y156.631 E2.8899
G1 X165.745 Y157.263 E2.9882
G1 X165.802 Y157.347 E3.0010
G1 X166.222 Y158.007 E3.0993
G1 X166.274 Y158.094 E3.1122
G1 X166.650 Y158.780 E3.2105
G1 X166.697 Y158.871 E3.2233
G1 X167.028 Y159.579 E3.3215
G1 X167.068 Y159.672 E3.3344
G1 X167.352 Y160.401 E3.4327
G1 X167.387 Y160.497 E3.4456
G1 X167.623 Y161.243 E3.5439
G1 X167.651 Y161.341 E3.5568
G1 X167.839 Y162.100 E3.6551
G1 X167.861 Y162.200 E3.6679
G1 X167.999 Y162.969 E3.7662
G1 X168.014 Y163.070 E3.7790
G1 X168.102 Y163.848 E3.8774
G1 X168.111 Y163.949 E3.8902
G1 X168.149 Y164.730 E3.9884
G1 X168.150 Y164.832 E4.0013
G1 X168.138 Y165.614 E4.0996
G1 X168.133 Y165.716 E4.1125
G1 X168.070 Y166.497 E4.2109
G1 X168.058 Y166.598 E4.2237
G1 X167.944 Y167.371 E4.3220
G1 X167.926 Y167.471 E4.3348
G1 X167.763 Y168.236 E4.4330
G1 X167.739 Y168.335 E4.4459
G1 X167.526 Y169.088 E4.5443
G1 X167.495 Y169.185 E4.5571
G1 X167.234 Y169.923 E4.6554
G1 X167.197 Y170.018 E4.6683
G1 X166.889 Y170.737 E4.7667
G1 X166.845 Y170.829 E4.7795
G1 X166.492 Y171.526 E4.8777
G1 X166.443 Y171.616 E4.8906
G1 X166.044 Y172.289 E4.9889
G1 X165.989 Y172.375 E5.0018
G1 X165.549 Y173.020 E5.1000
G1 X165.488 Y173.103 E5.1128
G1 X165.006 Y173.719 E5.2112
G1 X164.941 Y173.797 E5.2240
G1 X164.420 Y174.381 E5.3224
G1 X164.350 Y174.455 E5.3352
G1 X163.793 Y175.003 E5.4334
G1 X163.718 Y175.072 E5.4463
G1 X163.125 Y175.584 E5.5447
G1 X163.046 Y175.648 E5.5575
G1 X162.422 Y176.120 E5.6558
G1 X162.339 Y176.178 E5.6686
G1 X161.686 Y176.609 E5.7669
G1 X161.599 Y176.662 E5.7797
G1 X160.920 Y177.050 E5.8781
G1 X160.830 Y177.097 E5.8909
G1 X160.127 Y177.440 E5.9892
G1 X160.034 Y177.481 E6.0020
G1 X159.310 Y177.778 E6.1004
G1 X159.214 Y177.813 E6.1132
G1 X158.473 Y178.062 E6.2116
G1 X158.375 Y178.092 E6.2244
G1 X157.619 Y178.292 E6.3227
G1 X157.520 Y178.315 E6.3355
G1 X156.753 Y178.466 E6.4338
G1 X156.652 Y178.482 E6.4466
G1 X155.876 Y178.583 E6.5450
G1 X155.774 Y178.593 E6.5578
G1 X154.994 Y178.644 E6.6561
G1 X154.893 Y178.647 E6.6689
G1 X154.110 Y178.647 E6.7673
G1 X154.008 Y178.644 E6.7801
G1 X153.228 Y178.593 E6.8785
G1 X153.126 Y178.583 E6.8913
G1 X152.351 Y178.482 E6.9896
G1 X152.250 Y178.466 E7.0024
G1 X151.483 Y178.315 E7.1007
G1 X151.383 Y178.292 E7.1136
G1 X150.627 Y178.092 E7.2119
G1 X150.530 Y178.062 E7.2247
G1 X149.789 Y177.814 E7.3230
G1 X149.693 Y177.778 E7.3358
G1 X148.969 Y177.481 E7.4342
G1 X148.876 Y177.440 E7.4470
G1 X148.173 Y177.097 E7.5453
G1 X148.083 Y177.050 E7.5581
G1 X147.403 Y176.662 E7.6565
G1 X147.316 Y176.609 E7.6693
G1 X146.664 Y176.179 E7.7676
G1 X146.581 Y176.120 E7.7804
G1 X145.957 Y175.648 E7.8788
G1 X145.877 Y175.583 E7.8916
G1 X145.285 Y175.072 E7.9900
G1 X145.210 Y175.003 E8.0028
G1 X144.653 Y174.455 E8.1010
G1 X144.583 Y174.381 E8.1139
G1 X144.062 Y173.797 E8.2122
G1 X143.997 Y173.719 E8.2250
G1 X143.514 Y173.103 E8.3234
G1 X143.454 Y173.021 E8.3362
G1 X143.013 Y172.375 E8.4345
G1 X142.958 Y172.289 E8.4473
G1 X142.560 Y171.616 E8.5456
G1 X142.511 Y171.527 E8.5584
G1 X142.157 Y170.829 E8.6568
G1 X142.114 Y170.736 E8.6697
G1 X141.806 Y170.018 E8.7679
G1 X141.769 Y169.923 E8.7808
G1 X141.508 Y169.185 E8.8791
G1 X141.477 Y169.088 E8.8919
G1 X141.264 Y168.335 E8.9903
G1 X141.240 Y168.236 E9.0031
G1 X141.076 Y167.471 E9.1015
G1 X141.058 Y167.370 E9.1144
G1 X140.944 Y166.588 E9.2138
G1 X140.933 Y166.488 E9.2265
G1 X140.870 Y165.717 E9.3237
G1 X140.865 Y165.615 E9.3365
G1 X140.852 Y164.832 E9.4349
G1 X140.854 Y164.730 E9.4477
G1 X140.892 Y163.950 E9.5460
G1 X140.900 Y163.848 E9.5588
G1 X140.989 Y163.070 E9.6572
G1 X141.004 Y162.969 E9.6700
G1 X141.142 Y162.200 E9.7683
G1 X141.163 Y162.100 E9.7812
G1 X141.351 Y161.342 E9.8794
G1 X141.379 Y161.243 E9.8923
G1 X141.616 Y160.498 E9.9906
G1 X141.650 Y160.402 E10.0034
G1 X141.935 Y159.673 E10.1018
G1 X141.975 Y159.579 E10.1146
G1 X142.306 Y158.871 E10.2129
G1 X142.352 Y158.780 E10.2257
G1 X142.728 Y158.095 E10.3240
G1 X142.780 Y158.007 E10.3369
G1 X143.200 Y157.347 E10.4352
G1 X143.258 Y157.262 E10.4481
G1 X143.720 Y156.631 E10.5464
G1 X143.783 Y156.551 E10.5592
G1 X144.284 Y155.951 E10.6575
G1 X144.352 Y155.875 E10.6704
G1 X144.892 Y155.309 E10.7687
G1 X144.964 Y155.237 E10.7815
G92 E0.0000
G1 E-5.0000 F4800
G1 X145.792 Y156.106 F4800
G1 E-0.1000 F4800
G92 E0.0000
G1 X146.338 Y155.602 E0.0934 F1500
G1 X146.386 Y155.561 E0.1014
G1 X146.964 Y155.094 E0.1948
G1 X147.014 Y155.056 E0.2027
G1 X147.621 Y154.626 E0.2962
G1 X147.674 Y154.592 E0.3041
G1 X148.307 Y154.203 E0.3975
G1 X148.362 Y154.172 E0.4055
G1 X149.019 Y153.825 E0.4989
G1 X149.076 Y153.797 E0.5069
G1 X149.754 Y153.493 E0.6003
G1 X149.813 Y153.469 E0.6082
G1 X150.509 Y153.210 E0.7017
G1 X150.569 Y153.190 E0.7096
G1 X151.281 Y152.976 E0.8030
G1 X151.342 Y152.960 E0.8110
G1 X152.067 Y152.793 E0.9045
G1 X152.128 Y152.781 E0.9124
G1 X152.862 Y152.661 E1.0058
G1 X152.924 Y152.653 E1.0137
G1 X153.664 Y152.581 E1.1072
G1 X153.727 Y152.577 E1.1151
G1 X154.470 Y152.553 E1.2086
G1 X154.533 Y152.553 E1.2165
G1 X155.276 Y152.577 E1.3099
G1 X155.339 Y152.581 E1.3179
G1 X156.078 Y152.653 E1.4113
G1 X156.141 Y152.661 E1.4193
G1 X156.874 Y152.781 E1.5127
G1 X156.936 Y152.793 E1.5206
G1 X157.661 Y152.960 E1.6141
G1 X157.722 Y152.976 E1.6220
G1 X158.434 Y153.190 E1.7155
G1 X158.493 Y153.210 E1.7234
G1 X159.190 Y153.469 E1.8168
G1 X159.249 Y153.493 E1.8248
G1 X159.927 Y153.797 E1.9182
G1 X159.983 Y153.825 E1.9261
G1 X160.641 Y154.172 E2.0196
G1 X160.696 Y154.203 E2.0276
G1 X161.329 Y154.592 E2.1210
G1 X161.382 Y154.627 E2.1289
G1 X161.988 Y155.055 E2.2223
G1 X162.039 Y155.094 E2.2303
G1 X162.617 Y155.561 E2.3237
G1 X162.664 Y155.602 E2.3317
G1 X163.211 Y156.106 E2.4251
G1 X163.256 Y156.150 E2.4330
G1 X163.768 Y156.689 E2.5265
G1 X163.810 Y156.736 E2.5344
G1 X164.287 Y157.306 E2.6278
G1 X164.326 Y157.356 E2.6358
G1 X164.765 Y157.955 E2.7292
G1 X164.800 Y158.008 E2.7371
G1 X165.199 Y158.635 E2.8306
G1 X165.232 Y158.689 E2.8385
G1 X165.589 Y159.340 E2.9320
G1 X165.618 Y159.397 E2.9399
G1 X165.932 Y160.070 E3.0333
G1 X165.957 Y160.128 E3.0412
G1 X166.228 Y160.820 E3.1347
G1 X166.249 Y160.880 E3.1426
G1 X166.474 Y161.588 E3.2361
G1 X166.491 Y161.649 E3.2440
G1 X166.670 Y162.370 E3.3374
G1 X166.683 Y162.432 E3.3454
G1 X166.815 Y163.163 E3.4388
G1 X166.824 Y163.226 E3.4467
G1 X166.908 Y163.964 E3.5402
G1 X166.913 Y164.027 E3.5481
G1 X166.949 Y164.769 E3.6415
G1 X166.950 Y164.832 E3.6495
G1 X166.938 Y165.576 E3.7429
G1 X166.935 Y165.639 E3.7509
G1 X166.875 Y166.380 E3.8444
G1 X166.868 Y166.443 E3.8523
G1 X166.760 Y167.178 E3.9457
G1 X166.749 Y167.240 E3.9536
G1 X166.594 Y167.966 E4.0470
G1 X166.578 Y168.028 E4.0550
G1 X166.376 Y168.743 E4.1485
G1 X166.357 Y168.803 E4.1564
G1 X166.109 Y169.504 E4.2498
G1 X166.086 Y169.563 E4.2578
G1 X165.793 Y170.246 E4.3513
G1 X165.767 Y170.303 E4.3592
G1 X165.430 Y170.966 E4.4526
G1 X165.400 Y171.021 E4.4605
G1 X165.021 Y171.661 E4.5540
G1 X164.988 Y171.714 E4.5619
G1 X164.569 Y172.328 E4.6553
G1 X164.531 Y172.379 E4.6633
G1 X164.073 Y172.964 E4.7567
G1 X164.033 Y173.012 E4.7647
G1 X163.538 Y173.567 E4.8581
G1 X163.494 Y173.613 E4.8661
G1 X162.965 Y174.134 E4.9595
G1 X162.918 Y174.177 E4.9674
G1 X162.356 Y174.663 E5.0609
G1 X162.306 Y174.702 E5.0688
G1 X161.714 Y175.151 E5.1622
G1 X161.662 Y175.187 E5.1702
G1 X161.042 Y175.596 E5.2636
G1 X160.988 Y175.629 E5.2715
G1 X160.343 Y175.997 E5.3650
G1 X160.287 Y176.027 E5.3729
G1 X159.619 Y176.352 E5.4664
G1 X159.561 Y176.378 E5.4743
G1 X158.873 Y176.660 E5.5677
G1 X158.814 Y176.682 E5.5757
G1 X158.109 Y176.919 E5.6691
G1 X158.049 Y176.937 E5.6771
G1 X157.331 Y177.127 E5.7705
G1 X157.269 Y177.141 E5.7784
G1 X156.540 Y177.285 E5.8719
G1 X156.478 Y177.295 E5.8798
G1 X155.740 Y177.391 E5.9733
G1 X155.678 Y177.397 E5.9812
G1 X154.936 Y177.445 E6.0746
G1 X154.873 Y177.447 E6.0825
G1 X154.130 Y177.447 E6.1760
G1 X154.067 Y177.445 E6.1839
G1 X153.325 Y177.397 E6.2774
G1 X153.262 Y177.391 E6.2853
G1 X152.525 Y177.295 E6.3787
G1 X152.463 Y177.285 E6.3867
G1 X151.734 Y177.141 E6.4801
G1 X151.672 Y177.127 E6.4881
G1 X150.954 Y176.937 E6.5815
G1 X150.893 Y176.918 E6.5894
G1 X150.189 Y176.682 E6.6829
G1 X150.130 Y176.660 E6.6908
G1 X149.442 Y176.378 E6.7843
G1 X149.384 Y176.352 E6.7922
G1 X148.716 Y176.027 E6.8856
G1 X148.660 Y175.998 E6.8935
G1 X148.015 Y175.629 E6.9870
G1 X147.961 Y175.596 E6.9949
G1 X147.340 Y175.187 E7.0884
G1 X147.289 Y175.151 E7.0963
G1 X146.696 Y174.702 E7.1898
G1 X146.647 Y174.663 E7.1977
G1 X146.084 Y174.177 E7.2912
G1 X146.038 Y174.134 E7.2991
G1 X145.508 Y173.613 E7.3925
G1 X145.465 Y173.567 E7.4004
G1 X144.970 Y173.013 E7.4939
G1 X144.930 Y172.964 E7.5018
G1 X144.472 Y172.379 E7.5953
